P2
300 300
255
73 32 119 97 110 116 32 116 111 32 97 110 100 32 116 114 121 32 116 111 32 115 117 114 118 105 118 101 32 116 104 105 115 32 109 97 106 111 114 46 73 32 97 109 32 103 111 105 110 103 32 116 111 32 98 101 32 97 110 32 101 110 103 105 110 101 101 114 46 71 79 32 87 79 77 69 78 32 73 78 32 83 84 69 77 33 185 88 26 162 141 121 34 141 9 141 137 175 225 139 60 207 14 152 153 105 113 32 47 92 185 38 197 227 134 216 158 198 206 103 252 210 129 21 227 134 104 144 31 15 83 126 137 119 115 89 133 25 5 125 207 88 48 127 120 144 49 193 43 77 181 67 181 187 134 188 196 94 106 234 239 3 73 38 247 247 141 59 77 118 206 120 212 102 175 4 231 70 3 114 158 97 53 149 77 71 230 150 78 125 215 67 1 116 10 170 16 184 36 231 248 106 22 58 197 240 252 93 28 235 69 20 127 105 21 5 205 93 231 202 8 76 119 69 91 72 223 51 92 34 0 4 142 220 35 235 42 93 224 49 31 104 64 206 87 207 30 58 60 228 211 129 123 49 18 150 7 105 16 233 98 158 232 59 24 179 63 177 140 21 35 40 246 166 57 201 173 250 24 221 162 198 240 226 45 149 111 222 13 189 229 243 170 146 166 52 156 217 176 183 
113 128 141 235 171 140 123 44 9 82 203 149 8 234 135 22 168 225 87 198 115 46 165 122 188 103 0 150 37 53 190 35 100 6 230 34 70 1 77 32 243 63 254 11 117 56 223 68 116 123 146 245 67 163 154 165 33 134 191 10 184 175 179 30 234 15 245 117 205 239 246 205 244 41 123 231 241 152 66 149 23 205 232 21 133 3 10 157 96 85 171 55 95 47 213 207 141 3 131 138 74 61 191 90 147 120 8 208 132 242 246 49 27 61 33 203 63 56 62 137 1 62 139 198 33 157 110 95 212 74 88 12 196 211 240 240 89 148 110 110 55 46 68 63 8 53 4 193 123 41 126 146 140 168 40 94 7 225 196 245 71 76 60 161 68 153 209 182 205 230 116 106 17 52 116 231 100 28 90 159 64 190 18 224 138 251 75 168 23 228 31 186 111 113 247 241 209 119 169 213 119 212 228 108 26 236 206 83 185 90 235 12 151 223 65 154 131 158 186 75 91 140 201 214 211 34 80 165 115 85 194 116 223 199 133 27 91 63 154 168 142 87 127 177 134 116 84 233 253 251 62 240 219 194 9 112 252 197 17 101 50 27 98 188 142 40 30 32 219 19 31 17 108 122 222 54 24 101 147 244 130 121 158 63 158 111 38 176 112 196 0 216 23 177 210 213 11 93 120 34 
163 82 166 180 218 45 207 66 82 154 70 228 153 128 164 223 172 121 105 191 185 133 230 167 41 255 90 230 222 208 91 202 185 226 119 185 96 216 28 125 62 252 181 224 203 120 22 121 13 202 26 197 95 114 138 122 113 237 65 23 144 231 142 192 39 173 218 73 134 225 139 145 227 113 40 17 158 201 189 180 202 72 129 233 232 241 182 247 245 100 209 146 168 12 219 171 245 153 23 140 213 177 229 35 73 226 230 158 156 220 97 57 233 221 229 84 222 108 48 201 191 74 80 124 174 166 8 52 41 144 117 169 212 176 241 222 121 56 56 176 77 23 202 175 117 112 144 46 200 74 193 150 215 137 7 0 42 29 222 2 205 121 61 200 12 70 121 103 122 89 102 111 56 227 191 191 115 232 200 158 47 243 49 7 67 7 62 67 165 216 37 190 232 59 184 19 3 220 67 105 84 47 184 2 229 169 9 17 237 47 214 204 154 207 72 195 13 174 61 112 167 65 165 15 131 192 43 176 67 216 25 138 16 161 117 146 220 207 112 76 234 44 2 225 145 70 206 115 61 100 75 173 182 191 37 158 165 239 225 199 84 164 193 114 181 150 231 70 166 191 188 25 115 199 147 5 156 192 138 190 217 19 177 34 92 186 111 18 86 176 33 129 188 166 3 202 75 248 84 71 
202 223 181 31 143 232 211 95 68 165 69 77 235 162 184 249 32 154 73 20 158 235 50 5 5 72 169 58 219 174 5 188 208 153 35 7 70 119 8 24 16 93 199 199 122 249 165 87 138 200 124 76 134 136 93 124 182 241 121 105 107 160 66 206 65 84 205 120 160 92 123 87 137 80 216 213 143 0 195 102 35 170 208 97 21 112 234 14 88 8 61 0 6 182 83 165 163 119 124 27 166 127 116 69 53 230 64 31 49 159 89 78 114 169 12 252 84 137 33 226 114 247 187 166 177 216 127 104 129 108 248 152 95 201 58 10 158 136 198 76 104 190 174 55 0 46 250 196 73 188 73 33 140 37 188 4 118 238 15 64 96 154 9 150 212 32 23 205 76 156 52 4 60 69 11 72 83 159 96 98 254 242 172 242 47 250 7 194 92 224 75 84 202 105 119 189 11 110 81 182 198 140 80 241 182 28 184 169 245 101 7 125 123 17 144 126 225 222 102 135 107 150 123 205 70 65 9 182 14 153 49 239 148 190 227 185 221 43 253 131 110 233 183 190 198 2 62 237 45 57 159 251 172 248 231 210 93 138 136 41 229 138 255 157 62 156 180 4 186 91 34 254 68 146 55 204 233 174 254 102 152 115 123 199 38 239 215 140 149 172 189 189 150 42 3 235 76 140 141 123 
83 146 110 65 1 199 81 81 236 252 24 17 172 244 194 147 226 97 146 34 121 15 109 27 43 96 133 255 71 248 52 197 178 185 42 117 44 242 203 242 213 211 211 23 240 37 60 6 230 56 97 189 142 28 99 235 171 19 204 1 183 71 114 139 223 185 159 193 78 122 110 89 174 29 120 160 236 108 176 201 60 90 140 133 94 57 102 212 31 45 33 26 34 225 15 117 224 120 18 78 238 199 2 46 127 193 79 211 41 50 232 132 236 177 91 161 112 207 61 126 142 149 204 113 18 46 211 42 191 224 206 67 148 65 79 24 78 167 160 217 46 224 170 222 252 35 21 58 76 71 177 146 0 51 21 48 14 150 134 83 132 216 26 201 201 80 28 192 37 183 179 218 131 220 191 127 118 154 4 119 123 7 138 184 126 239 67 124 159 129 239 151 53 71 61 8 19 92 51 206 11 217 207 253 177 144 239 16 97 253 110 129 132 121 144 151 14 177 160 128 75 87 215 159 220 23 128 39 253 205 90 233 9 245 62 106 63 98 1 57 198 52 156 127 239 4 138 216 187 97 114 97 157 128 6 19 128 47 43 79 12 11 90 185 37 243 70 74 181 188 191 161 172 38 214 154 69 15 66 34 138 231 2 74 26 100 68 154 42 119 134 167 202 126 251 231 105 187 48 197 
156 5 239 241 27 189 100 250 12 4 126 30 133 43 152 97 76 107 89 220 225 215 216 88 190 142 4 27 221 53 68 2 123 165 90 208 28 224 141 198 207 74 7 116 179 22 124 206 186 254 12 130 173 55 107 137 112 164 63 252 136 74 201 42 218 4 200 231 181 119 154 39 19 73 165 203 28 142 245 186 236 131 38 52 150 127 133 99 105 38 114 51 114 224 9 100 65 138 1 222 240 107 211 68 98 105 31 203 201 124 76 77 107 100 112 153 165 151 111 14 48 126 102 104 163 224 74 217 57 159 204 92 213 162 128 70 67 18 63 29 193 201 202 174 190 7 175 90 225 103 113 177 77 18 227 66 36 51 213 176 73 171 242 9 107 5 233 84 63 172 203 105 12 91 180 6 109 214 174 30 83 216 210 116 73 76 177 105 252 191 242 18 250 22 60 142 186 124 86 151 221 159 140 86 179 28 85 124 1 55 52 142 1 208 220 128 171 147 151 134 51 110 232 39 211 72 111 147 202 240 14 54 165 83 74 141 189 243 244 57 1 148 8 82 245 56 213 253 251 78 94 65 210 39 1 22 92 169 86 191 164 71 90 90 31 49 205 182 50 199 216 100 245 84 243 17 55 249 6 19 194 231 206 65 223 209 131 8 29 162 184 187 79 107 130 43 212 159 220 120 
27 130 74 38 101 223 189 115 205 249 183 232 134 197 175 47 101 86 183 36 159 153 92 46 211 66 206 208 75 6 65 123 127 11 146 167 218 157 46 34 193 34 48 167 210 80 201 178 105 157 229 147 105 247 11 193 57 182 133 114 12 207 194 104 102 74 248 14 220 246 13 195 27 91 184 118 43 240 228 115 245 142 85 124 3 37 141 28 136 174 241 56 160 96 40 231 216 39 196 132 241 82 36 1 225 139 152 125 27 13 199 25 16 17 78 8 246 137 170 230 200 17 88 75 142 35 58 159 222 138 61 48 163 25 57 129 29 156 25 230 41 15 59 77 195 14 26 95 201 141 42 200 1 201 3 210 94 126 194 57 127 91 172 59 121 179 21 238 214 117 129 214 222 94 8 183 21 109 255 168 4 152 212 105 60 189 58 246 153 219 134 92 196 130 89 204 251 136 128 238 21 254 24 119 192 98 246 254 14 22 70 12 48 17 113 114 129 213 69 223 198 161 80 177 179 231 140 12 178 0 66 41 225 31 40 241 89 132 204 203 182 242 54 178 212 98 201 138 214 249 107 180 109 56 230 224 87 115 141 34 37 132 34 73 66 192 247 108 49 42 84 197 22 231 25 194 120 242 164 90 69 17 245 158 22 8 16 144 181 12 163 55 221 122 233 243 64 201 206 15 
206 190 84 149 53 222 53 102 164 41 202 137 213 5 43 196 74 121 152 105 215 155 24 115 96 76 95 209 228 34 245 2 186 166 149 226 27 192 212 196 225 111 3 192 142 189 85 79 144 243 69 21 196 9 50 253 56 96 76 139 53 180 180 110 125 76 223 85 209 115 60 4 182 44 22 167 121 34 187 102 113 222 222 57 132 60 58 254 236 32 120 201 59 101 83 123 157 22 250 150 94 225 181 79 172 200 204 229 157 26 165 50 116 162 44 128 32 30 119 157 5 243 171 50 255 30 25 80 164 110 173 76 202 240 137 205 74 171 237 35 3 142 90 218 33 167 247 143 159 150 51 3 10 64 172 110 136 200 80 22 26 187 193 31 30 138 254 165 24 62 65 8 177 103 35 135 0 85 6 17 9 139 180 87 131 113 68 38 223 73 62 244 133 100 255 185 97 150 94 0 158 231 143 61 177 139 72 97 154 21 35 172 102 231 68 194 249 237 59 2 10 139 43 19 111 211 44 191 155 252 239 5 101 15 161 105 11 228 17 143 118 77 20 8 191 145 41 108 243 28 89 169 19 116 97 154 95 111 19 220 212 164 250 221 244 31 61 53 197 89 197 58 28 103 162 206 27 113 171 124 249 102 101 196 1 238 39 178 222 160 123 182 21 118 198 175 211 125 44 73 
233 209 174 137 21 201 149 166 131 111 20 27 147 51 41 250 221 224 196 131 115 206 43 245 101 90 157 164 139 147 53 76 126 54 18 165 232 221 181 55 254 115 170 112 74 235 107 244 174 49 129 52 166 97 236 66 205 56 197 228 163 200 34 231 141 111 58 181 29 9 202 42 148 101 183 164 165 246 244 89 124 203 166 238 255 193 134 69 84 248 135 150 163 131 186 193 29 100 110 226 61 183 155 38 77 45 129 222 45 188 140 210 80 149 123 216 7 87 193 165 2 130 43 226 19 46 196 131 54 253 246 84 207 78 241 212 50 179 81 71 104 166 250 7 49 119 71 27 69 137 101 10 223 190 249 241 124 48 9 212 224 34 25 50 91 54 148 220 74 224 110 7 224 26 8 159 39 89 84 222 65 192 57 30 244 148 57 235 102 241 81 93 36 187 32 164 105 214 76 229 158 154 34 69 29 129 124 67 58 35 232 74 132 101 6 134 72 237 50 248 87 217 99 197 9 176 83 212 130 152 225 151 52 202 179 41 165 68 31 154 115 189 76 135 149 222 148 237 227 175 45 62 217 80 9 181 152 233 250 231 45 227 26 156 22 89 106 220 2 201 185 77 217 16 200 188 252 149 171 249 206 196 114 232 115 190 9 213 216 78 93 8 243 32 192 153 76 45 143 134 
188 122 18 3 116 2 163 17 66 240 19 82 16 18 73 28 174 139 44 204 209 200 196 93 91 181 155 57 220 48 106 78 89 190 241 101 77 124 39 175 238 89 147 161 177 131 250 2 16 31 58 67 139 61 118 14 237 11 115 33 208 72 66 93 99 252 32 26 107 103 154 190 136 55 245 142 186 254 204 196 35 226 251 225 15 151 188 68 49 138 16 252 47 95 97 219 98 158 101 203 215 169 69 101 153 242 255 192 50 106 9 135 111 61 55 79 100 188 222 39 176 154 58 112 2 92 13 239 220 11 137 32 151 44 112 205 168 242 122 224 33 177 247 118 123 150 181 52 146 150 36 222 241 164 184 37 80 39 143 193 91 171 84 192 181 214 99 30 61 158 45 149 144 186 222 182 207 86 62 57 162 11 213 146 124 14 83 197 33 168 47 122 102 230 141 84 56 145 101 127 224 96 226 136 133 109 8 114 243 230 154 6 155 5 59 106 218 66 211 245 126 199 52 66 134 36 254 131 41 68 191 24 26 159 95 97 11 178 188 208 112 172 145 66 133 107 156 143 146 166 0 95 109 108 232 64 65 205 109 246 143 215 186 18 114 196 109 199 39 113 65 248 204 18 234 149 104 37 65 40 44 164 161 171 249 127 145 157 34 73 163 85 114 49 156 149 113 53 212 98 
227 146 224 19 146 127 111 169 77 26 114 94 49 163 128 129 39 232 120 128 174 0 104 71 219 60 173 200 157 91 92 219 70 253 225 73 71 91 230 35 59 52 119 89 40 11 99 135 1 143 229 18 111 91 131 116 208 223 55 212 129 158 205 218 88 155 140 193 117 13 24 174 59 90 151 64 153 67 19 104 142 92 31 123 236 192 190 133 92 2 128 225 162 103 238 6 34 82 40 164 163 255 205 240 84 116 27 59 12 181 88 202 214 56 112 226 173 152 223 34 132 141 209 22 138 28 136 8 171 11 255 25 90 152 205 145 142 107 75 116 10 200 249 86 226 9 30 111 59 76 175 242 82 105 114 155 192 39 99 135 252 175 87 73 33 64 223 58 241 37 111 16 26 228 192 179 185 185 114 76 29 66 246 158 205 124 171 153 204 238 71 44 27 36 121 92 128 95 205 147 134 139 207 58 197 113 115 137 99 46 180 158 219 228 124 205 253 175 196 56 55 219 252 159 18 84 173 121 255 93 93 67 84 133 179 24 146 215 219 130 233 82 44 144 254 153 8 40 235 235 4 159 135 84 73 135 233 37 59 200 39 163 88 243 99 252 98 210 9 127 192 68 82 11 34 71 13 200 100 87 158 22 181 247 71 195 248 141 166 129 106 114 127 151 133 74 188 214 37 145 
178 207 234 119 166 67 221 238 144 219 86 1 30 25 29 103 252 143 207 88 83 79 131 159 144 162 174 241 102 253 68 125 22 48 32 196 238 225 166 171 15 57 167 206 116 221 132 24 48 32 151 145 247 119 206 118 224 45 153 143 105 87 7 189 188 11 44 211 49 205 197 166 19 74 31 104 167 73 52 49 106 222 23 223 155 224 147 32 249 158 15 205 206 206 181 122 44 198 212 75 119 239 130 9 35 118 133 116 191 68 116 219 51 49 25 235 70 116 26 197 99 94 216 83 156 73 152 219 239 203 225 212 200 47 36 249 200 37 163 157 197 184 139 62 18 129 99 92 0 26 170 139 164 214 188 200 219 175 246 9 140 128 26 24 45 117 245 160 137 191 63 136 192 140 194 129 143 54 191 219 209 186 141 157 70 109 131 212 148 234 24 43 139 79 73 188 173 169 59 38 238 172 34 224 184 168 97 205 50 184 243 16 194 61 9 33 209 138 244 32 206 225 70 106 117 159 52 107 81 179 63 179 127 84 20 75 182 244 176 73 132 111 199 162 218 137 103 64 203 151 217 84 145 124 200 238 209 215 164 203 32 123 73 109 197 32 220 113 192 88 246 30 12 196 5 58 34 135 239 33 190 251 248 24 229 163 229 222 39 97 97 132 34 233 161 127 71 118 68 252 
225 188 125 115 82 29 115 127 160 31 232 237 49 30 25 18 211 62 230 98 0 164 51 63 95 230 142 15 141 191 18 145 30 8 139 113 223 227 219 26 94 58 156 203 173 104 6 237 98 53 19 164 226 8 226 164 224 88 89 70 32 100 15 218 129 36 105 63 58 127 3 178 100 190 81 228 185 65 134 79 155 112 180 201 88 245 53 90 172 41 75 75 135 203 3 127 17 248 95 7 235 87 179 240 184 149 80 95 221 17 96 225 132 216 17 252 231 211 246 10 203 63 170 71 74 94 182 40 214 108 180 238 123 213 181 124 100 165 225 101 161 64 93 74 40 83 114 99 25 10 235 91 70 132 190 97 242 132 239 124 217 105 178 30 113 96 208 253 112 216 75 30 142 54 69 50 140 202 30 38 117 2 221 246 36 222 209 194 6 164 120 35 33 213 159 191 85 95 203 27 226 20 216 177 43 91 224 67 186 38 94 110 131 36 147 130 109 55 41 145 14 40 23 198 182 154 196 248 176 60 111 127 196 67 206 71 0 24 245 35 185 77 122 99 204 214 215 168 41 118 15 247 147 119 149 13 161 158 105 242 9 94 132 209 29 76 118 7 150 211 78 122 145 41 186 44 215 129 111 16 97 131 203 28 28 249 185 159 233 203 214 213 232 45 210 184 246 23 24 26 
116 245 177 241 75 161 101 242 44 142 36 97 29 70 165 39 49 22 77 37 150 7 82 200 213 17 32 221 86 140 252 167 35 231 231 47 237 156 197 220 84 99 190 67 99 167 229 64 90 54 23 70 177 60 38 243 89 114 55 232 69 147 105 215 41 16 184 221 130 4 32 19 214 106 5 96 61 142 210 145 32 193 225 171 65 81 155 127 251 184 224 128 204 20 169 210 16 215 235 163 15 192 191 190 58 10 193 93 178 227 181 63 10 31 113 251 78 46 247 148 68 75 225 77 241 247 2 191 95 166 74 40 158 184 234 6 9 170 185 229 202 142 214 117 161 184 143 223 225 187 130 89 187 148 2 249 190 36 189 198 159 228 155 21 54 212 233 19 202 180 182 158 142 119 125 89 107 245 5 255 0 224 134 247 232 249 13 41 59 131 33 17 87 248 167 17 224 252 3 12 5 143 128 48 5 134 242 19 242 60 154 2 182 133 73 150 83 227 200 135 111 253 120 197 15 76 54 197 163 24 129 25 67 163 223 68 56 164 124 204 190 246 21 145 8 146 20 92 133 187 253 187 98 120 8 13 80 71 16 217 135 16 171 100 10 88 155 130 45 183 101 172 85 140 63 83 0 239 47 116 5 231 114 109 28 221 27 15 160 81 252 244 148 204 201 18 229 22 123 145 
238 168 243 218 65 100 224 241 165 132 226 4 91 209 240 68 166 21 247 243 138 210 195 190 211 52 35 78 89 69 72 26 131 96 111 127 10 232 192 18 255 57 117 53 16 223 62 232 7 7 228 226 147 50 45 225 75 49 1 62 240 77 202 196 242 198 33 194 54 127 166 95 23 247 47 46 171 123 38 2 71 154 44 4 69 218 2 2 4 169 170 10 49 150 201 56 69 193 80 204 79 144 91 127 244 164 90 24 180 12 110 58 111 184 22 128 39 48 10 204 7 134 103 219 164 136 13 29 132 59 69 196 221 133 168 27 158 42 60 26 179 250 223 55 133 72 233 126 193 157 13 228 91 174 128 217 210 140 93 28 181 27 73 211 102 197 83 219 30 111 29 93 49 172 65 162 148 49 238 40 156 138 210 245 8 11 61 43 66 8 131 221 226 73 162 33 116 184 36 102 123 93 71 8 182 140 92 34 161 93 109 164 63 93 34 165 23 131 229 250 124 102 69 7 18 172 152 213 142 198 229 101 189 219 1 68 200 1 247 96 182 179 173 26 50 128 197 156 143 0 194 109 9 12 108 66 78 46 117 24 61 87 92 127 237 208 146 57 241 115 220 3 218 27 248 179 254 89 131 131 120 105 26 173 112 100 192 56 157 182 127 17 7 211 82 93 18 38 67 14 
184 74 209 180 22 125 148 150 42 82 36 2 219 166 54 225 57 212 8 142 7 45 0 233 119 162 144 167 52 196 92 236 165 239 159 27 113 193 202 237 62 209 111 192 191 158 94 50 237 198 14 239 148 121 62 199 18 44 219 4 91 146 37 250 65 200 14 223 243 208 226 221 195 64 45 102 44 59 218 200 19 161 152 1 77 131 130 212 98 218 254 28 144 120 229 97 19 62 229 169 164 144 36 144 64 6 38 155 42 100 241 202 51 205 111 108 57 51 19 55 238 18 191 152 218 94 230 72 164 186 238 32 141 234 216 46 61 139 34 8 194 1 236 96 214 178 91 217 96 114 59 25 62 61 232 32 66 44 110 216 122 162 239 237 181 198 69 222 66 55 233 85 251 251 19 180 131 184 35 240 203 38 64 162 219 196 63 91 207 202 198 56 31 95 177 183 36 13 180 201 216 114 66 41 222 56 174 235 194 71 145 88 129 56 107 249 76 13 141 242 137 32 54 146 27 90 252 39 227 165 109 23 134 164 247 44 113 161 5 48 27 199 107 186 138 145 4 71 25 130 153 140 120 23 5 11 244 250 151 229 249 120 184 239 213 53 206 7 190 30 96 169 23 160 122 189 239 23 83 179 203 138 45 210 165 149 125 205 52 166 76 152 110 109 221 121 76 141 144 98 
205 152 6 126 61 58 134 10 183 180 159 102 233 140 15 108 23 131 228 0 98 200 225 232 75 107 35 223 115 20 5 228 164 245 64 216 21 253 87 72 234 79 50 136 251 242 8 1 214 202 131 203 7 199 31 127 151 92 212 70 210 51 244 54 77 31 86 223 40 82 180 32 145 208 82 64 137 35 224 57 235 80 162 87 170 11 206 2 90 39 54 216 242 80 38 0 208 252 144 186 253 159 102 58 179 30 72 182 28 135 95 190 93 255 137 204 211 252 182 28 156 180 146 189 90 213 100 233 51 118 53 146 29 77 54 61 88 35 92 19 59 134 77 53 52 190 127 81 11 2 158 115 102 235 47 29 146 40 116 153 128 116 143 142 14 197 233 210 136 198 213 127 111 136 113 73 121 116 205 14 216 133 80 175 191 180 87 31 35 179 30 185 191 221 228 215 90 110 74 160 76 239 253 33 63 245 148 160 51 11 188 44 197 237 146 121 176 247 80 235 148 220 44 241 246 155 125 148 136 175 32 80 171 134 26 34 51 53 126 226 106 106 146 211 87 162 45 121 64 156 99 170 109 13 100 232 47 149 162 238 33 242 50 137 174 116 117 169 211 176 247 184 38 121 151 42 24 12 233 86 119 139 216 132 55 173 144 71 113 179 155 13 172 158 73 244 92 159 86 223 
168 207 199 202 112 32 21 90 143 147 141 184 93 172 247 160 120 36 118 181 197 221 175 24 177 27 45 56 189 240 4 236 57 248 181 191 79 71 82 138 68 160 227 73 251 231 7 39 187 217 223 219 49 251 39 55 185 208 166 254 217 79 201 247 14 148 139 63 204 214 151 227 192 153 177 174 88 37 82 64 133 54 146 96 192 245 75 148 75 39 124 238 185 165 235 40 176 12 15 244 238 181 44 141 138 232 192 146 124 76 30 20 96 162 89 238 119 179 99 84 239 135 118 175 100 216 179 168 166 198 10 131 189 205 89 175 42 243 216 155 112 70 180 203 211 133 250 42 96 30 183 162 45 88 94 234 226 210 105 159 120 44 67 151 65 4 102 114 41 36 192 113 59 249 92 140 103 72 62 190 130 28 143 164 142 3 250 70 60 121 85 53 175 165 132 214 131 67 154 253 14 226 66 189 229 79 94 127 162 81 237 82 229 150 50 130 153 238 19 108 121 183 191 144 210 152 147 232 138 115 63 121 97 148 36 39 119 47 1 205 15 9 207 141 146 117 233 101 215 130 112 3 161 115 238 219 105 111 57 118 94 122 155 13 171 164 47 86 248 128 142 158 51 216 171 24 144 159 252 117 206 39 219 180 189 149 43 60 253 145 62 40 8 66 246 226 114 121 43 243 
112 44 77 25 152 39 75 154 231 254 179 217 8 70 26 39 211 4 190 219 21 102 106 165 143 177 154 31 65 123 224 165 232 26 134 103 197 92 117 188 160 121 85 186 13 69 246 3 238 170 239 225 57 86 133 150 251 177 206 237 157 18 22 21 102 50 129 175 66 225 242 38 194 247 44 63 99 142 55 241 19 110 6 118 241 201 86 162 85 41 217 116 16 166 148 235 245 92 133 26 152 28 138 127 85 98 126 145 148 135 165 152 76 56 74 193 198 39 166 114 164 0 4 219 33 159 35 206 154 128 220 208 78 119 4 112 98 161 148 215 40 154 7 161 160 240 4 235 63 216 61 173 240 32 151 75 89 101 139 102 95 134 204 248 236 88 42 160 239 156 182 58 165 46 39 179 24 127 124 27 229 68 227 252 65 112 218 235 62 96 148 92 75 86 158 187 250 41 194 184 7 59 44 226 149 170 203 119 186 203 250 122 62 212 96 7 160 216 20 228 90 249 5 88 102 217 154 64 1 81 149 95 175 102 61 246 127 120 188 148 144 189 198 48 212 238 123 117 20 64 143 93 53 150 168 1 185 245 7 176 137 56 107 62 241 5 50 158 236 255 194 179 162 61 39 100 47 252 253 239 166 144 145 127 85 161 67 0 75 147 47 50 24 70 12 252 212 0 83 4 
99 167 164 124 246 52 103 63 213 100 175 28 93 176 99 113 68 128 159 252 37 156 88 239 56 227 63 66 96 63 232 77 108 216 44 150 150 136 204 232 80 144 86 165 65 137 77 92 138 157 132 158 77 246 203 14 112 119 205 184 158 170 57 164 143 250 32 170 138 35 159 135 40 230 189 49 90 1 150 104 173 94 186 142 205 139 208 184 72 106 127 5 149 42 142 47 85 117 73 95 216 235 39 70 227 208 171 105 177 1 136 188 55 45 8 115 173 65 174 21 73 36 27 210 78 165 46 22 69 178 111 94 138 202 174 75 11 180 231 244 77 114 105 129 176 113 55 246 243 2 175 76 250 14 105 198 207 4 98 130 232 23 90 79 168 167 122 190 39 252 58 124 54 58 130 222 158 145 15 190 169 181 25 134 228 142 51 138 34 48 114 155 196 13 209 216 56 105 212 200 192 15 108 166 117 67 27 252 139 247 88 116 214 66 53 234 141 13 63 197 79 16 166 136 99 253 158 164 68 250 4 145 93 85 69 28 17 115 124 3 254 10 218 191 131 144 75 161 127 244 86 32 92 139 69 114 77 77 135 89 211 65 82 64 134 54 141 134 18 180 236 26 128 50 93 72 183 137 163 210 66 169 64 67 83 139 153 128 8 103 85 160 238 38 6 253 196 26 11 139 
129 237 181 105 152 215 168 182 122 20 132 166 92 150 197 213 59 247 232 219 30 177 208 32 156 145 103 242 157 105 136 212 101 6 29 25 206 97 132 178 212 25 56 69 87 33 173 127 29 182 123 170 23 149 191 130 229 106 190 68 155 139 204 9 198 230 109 82 170 57 185 228 206 129 5 214 187 180 191 232 0 178 154 22 121 121 235 109 209 153 83 30 70 233 159 209 172 119 236 59 181 197 15 243 111 50 52 129 14 182 196 184 236 210 141 71 206 199 29 138 105 7 110 166 37 233 201 212 32 160 228 253 118 110 78 136 192 21 12 112 218 143 133 153 234 254 155 100 157 230 27 129 180 154 87 4 192 244 17 187 41 73 155 191 117 156 61 74 199 18 215 200 166 166 199 49 0 30 13 149 111 62 173 249 186 59 85 97 159 115 64 46 208 90 90 170 59 184 165 226 142 18 219 180 251 101 85 40 57 27 43 4 203 55 157 154 132 211 178 229 75 204 30 212 28 188 105 230 79 40 78 247 29 251 98 90 96 51 246 39 154 219 61 214 57 57 178 13 25 72 180 183 75 105 115 86 21 85 16 154 57 86 0 50 122 183 178 226 93 120 113 214 45 71 139 54 65 172 179 250 130 132 164 0 39 176 7 91 195 14 151 239 130 168 131 59 175 44 19 117 
122 157 143 220 249 71 93 74 108 248 105 8 197 109 202 231 104 11 162 140 47 208 69 12 177 136 158 185 196 68 207 59 64 8 24 226 6 196 250 58 65 133 156 224 236 237 109 149 149 225 11 145 96 129 100 25 78 93 27 84 191 229 45 91 54 34 212 143 93 164 171 47 73 188 19 42 254 235 214 49 54 153 11 17 94 10 58 64 226 143 192 181 170 249 116 253 229 83 138 140 5 209 184 81 10 3 152 141 4 78 78 228 211 157 106 181 50 84 16 167 244 134 86 132 140 103 237 75 211 4 4 128 6 49 105 199 14 195 241 177 5 0 27 214 245 84 240 36 227 70 45 118 12 169 164 104 110 23 224 106 138 155 8 20 105 174 5 186 221 101 231 63 9 232 133 46 35 38 100 6 121 199 219 214 178 98 116 10 87 241 148 133 146 130 95 240 53 47 214 81 253 79 66 223 25 238 214 21 230 123 144 5 253 193 96 239 111 25 140 18 79 221 83 194 113 31 209 187 114 155 34 181 248 235 202 56 59 250 84 178 197 187 58 199 118 27 5 232 202 52 181 39 95 195 99 73 177 220 37 29 40 220 50 13 86 160 71 243 121 244 73 46 72 78 43 244 236 189 18 233 76 28 183 241 141 139 13 67 217 32 37 192 96 217 78 130 157 213 128 183 
219 196 251 176 247 157 43 53 103 143 207 28 123 57 90 26 227 29 153 216 114 82 151 73 34 122 190 60 87 244 62 45 104 83 179 97 91 14 2 50 240 120 131 167 226 243 102 71 105 97 79 47 3 220 68 99 116 167 201 98 11 100 73 253 40 135 184 104 251 10 119 146 142 99 120 178 6 179 162 34 38 64 119 113 20 37 244 180 96 72 184 28 66 141 105 206 35 73 84 238 95 250 83 253 74 53 244 102 113 223 215 83 34 160 88 197 46 149 110 228 237 69 211 148 131 215 102 72 98 130 205 27 16 68 94 29 43 215 64 234 170 225 205 130 101 107 59 84 216 148 124 156 35 134 98 239 86 170 7 20 236 24 108 22 149 82 96 151 57 49 164 103 57 31 76 86 248 135 104 70 154 138 228 132 11 244 173 88 67 110 21 218 201 245 121 8 118 138 33 22 124 43 103 5 167 3 28 119 226 222 39 194 252 223 111 67 172 117 252 245 211 139 89 65 2 255 60 24 60 86 104 64 253 174 211 235 122 243 4 142 43 86 192 240 135 251 229 130 15 242 150 238 141 105 152 242 158 32 252 111 110 29 255 189 195 160 46 66 61 89 206 67 220 217 122 249 194 71 14 232 58 84 196 108 250 112 157 149 165 63 3 52 148 70 172 54 214 235 193 49 
117 156 64 61 251 78 159 5 53 41 178 30 55 129 206 151 160 9 47 209 32 67 151 144 55 59 56 83 63 117 212 225 172 36 35 37 147 156 117 59 105 10 152 203 14 99 252 150 9 154 21 78 22 22 1 171 222 99 107 187 5 40 175 122 105 89 62 162 169 173 69 196 229 83 137 152 197 225 149 146 189 141 24 181 143 159 137 172 17 38 12 23 48 234 153 35 53 163 91 93 71 104 86 200 49 106 77 44 102 226 227 178 66 72 0 174 147 198 118 188 88 236 229 14 201 165 220 4 151 106 64 253 116 181 242 110 214 185 172 49 248 80 44 31 34 53 149 224 43 115 18 2 60 29 188 73 214 64 190 70 23 22 182 43 57 124 95 222 91 166 110 76 132 18 185 0 229 186 158 244 94 142 163 167 68 33 90 111 98 163 136 17 61 15 133 143 157 165 230 65 72 155 90 39 17 16 210 126 17 65 229 145 53 255 114 210 249 97 135 41 114 182 129 140 146 189 117 208 168 25 207 191 38 255 57 106 167 50 191 193 48 49 48 96 182 174 199 172 225 67 10 31 16 97 243 224 157 137 78 151 98 190 98 127 124 58 211 189 78 96 199 240 201 242 72 9 235 132 234 93 134 48 173 248 67 140 36 52 230 217 215 139 212 125 231 170 210 180 240 198 
15 130 51 51 101 236 245 51 220 103 34 12 112 145 54 93 20 31 93 177 246 22 217 85 5 63 165 103 177 212 88 48 241 128 75 180 139 135 254 134 144 64 184 225 37 204 110 245 137 2 230 127 84 169 29 156 253 234 229 223 159 4 210 161 253 66 87 152 195 43 45 172 15 248 244 5 47 75 29 105 173 29 7 197 136 248 104 9 197 103 239 57 38 172 40 193 58 176 159 10 150 64 72 74 97 117 30 160 22 116 11 96 133 88 8 172 27 109 133 68 100 159 11 158 206 50 32 58 176 179 107 48 138 46 24 11 143 161 126 217 96 177 255 131 27 156 48 91 148 111 58 244 226 121 129 54 30 255 131 177 103 49 2 50 41 93 101 148 159 99 92 217 151 105 195 122 118 207 201 250 123 101 81 193 72 220 152 40 158 123 24 209 104 19 173 57 251 53 247 144 156 162 255 200 66 3 29 236 158 219 25 179 89 185 144 85 157 178 153 157 214 14 169 63 186 66 180 109 135 31 149 165 139 72 176 205 234 233 214 129 156 166 105 172 181 210 192 85 233 226 204 188 79 33 252 166 101 165 95 245 85 129 9 123 118 60 183 16 22 130 182 226 119 26 0 13 23 24 169 108 52 84 121 174 144 26 219 172 114 35 245 249 237 196 25 187 100 102 92 186 
78 54 132 183 55 30 40 255 7 243 18 64 135 240 232 154 33 99 12 249 232 166 192 163 216 81 142 13 94 174 231 243 27 109 10 167 229 153 39 170 14 203 196 121 233 158 97 169 139 98 87 54 207 21 6 25 157 143 47 24 107 252 159 226 3 143 14 91 135 117 70 53 179 8 136 192 99 70 43 3 85 129 134 11 47 87 16 131 196 229 198 133 147 56 205 176 144 4 89 123 40 153 205 200 127 18 36 189 252 208 143 207 7 39 95 31 17 86 38 10 213 189 25 251 222 74 185 132 74 53 179 174 205 237 4 141 249 82 96 23 188 36 213 54 42 187 172 27 124 249 144 214 89 126 242 35 85 26 171 135 184 136 227 156 128 89 50 169 169 46 6 118 171 42 69 95 69 167 51 166 121 40 149 14 216 143 23 165 255 145 235 225 98 102 179 238 72 197 161 71 23 15 220 132 210 203 38 114 224 82 189 105 15 203 126 218 216 90 80 40 229 149 192 185 208 56 233 76 46 25 151 141 204 94 172 230 56 237 194 153 131 36 17 12 70 203 147 99 227 70 103 84 13 15 116 55 139 100 78 93 56 61 93 163 79 129 60 71 229 121 95 250 183 133 249 54 38 14 28 209 128 187 34 211 129 232 77 133 26 84 170 202 112 25 59 178 40 226 84 77 
226 88 70 189 3 221 59 143 184 125 97 76 56 33 75 74 73 6 148 200 5 110 197 58 222 150 120 226 224 231 190 160 54 112 191 11 240 148 160 192 3 0 170 251 145 225 168 100 107 83 144 43 213 28 102 86 137 154 94 90 254 250 65 233 233 171 17 12 5 18 240 113 15 128 62 6 21 97 2 199 241 182 139 211 17 197 87 198 121 14 51 67 10 130 164 208 4 240 134 231 202 192 243 73 229 227 102 150 76 10 32 27 226 22 203 235 65 208 94 49 182 219 64 196 140 231 176 252 142 38 100 197 199 4 112 241 140 19 106 211 189 68 204 9 71 93 153 153 237 167 68 64 73 231 205 6 13 144 45 22 143 55 244 205 133 71 49 17 12 246 146 228 240 120 204 56 39 114 61 5 158 177 208 154 57 28 34 49 21 231 227 197 16 10 126 40 139 242 252 80 110 118 37 241 109 12 233 82 138 61 255 89 219 86 204 231 142 97 134 108 42 83 153 178 23 135 74 253 97 107 154 86 185 122 109 36 189 106 235 252 121 166 39 186 45 254 254 209 80 157 67 223 214 60 25 133 175 150 159 117 144 28 211 204 245 233 176 163 103 248 154 224 250 149 252 82 27 17 48 254 136 186 159 179 160 10 41 229 221 31 199 184 159 107 110 90 43 173 55 150 
243 32 190 166 24 242 199 73 45 247 40 22 62 159 227 16 16 38 146 122 171 10 8 237 22 194 53 167 98 173 74 38 233 73 30 246 216 165 208 199 235 25 175 194 120 52 86 29 175 246 27 237 32 63 171 60 126 136 238 92 162 209 49 122 210 218 131 118 68 150 95 243 222 221 140 170 64 97 66 3 4 227 142 230 68 167 247 206 93 37 98 32 243 1 51 188 54 61 181 209 99 174 188 245 141 172 137 117 157 14 237 233 152 86 178 12 32 40 54 203 62 1 89 156 94 37 153 17 155 217 124 173 61 211 47 246 128 239 108 203 152 35 160 248 241 181 78 8 187 171 174 91 166 132 155 120 234 37 172 163 139 22 160 179 219 238 255 30 64 12 254 86 55 136 163 88 153 105 43 129 30 25 169 164 31 22 239 91 160 233 177 154 141 92 232 138 68 232 117 148 84 109 7 187 132 38 62 48 24 219 17 32 79 88 109 209 48 31 30 237 134 90 243 30 42 19 29 218 128 167 217 129 68 120 79 165 135 227 185 168 244 114 199 141 88 82 66 8 98 7 241 215 167 94 185 85 232 163 7 77 152 21 115 12 153 151 157 186 71 168 91 234 183 149 23 111 64 237 114 113 59 54 45 193 8 222 74 106 82 117 110 137 147 25 138 94 218 49 186 162 
204 94 110 27 232 174 199 111 16 19 68 54 69 20 157 82 179 195 239 131 237 239 26 54 121 154 103 158 143 173 111 6 30 235 56 102 16 36 160 52 207 171 255 124 8 10 8 51 175 243 240 201 67 122 211 253 83 130 83 245 65 117 130 142 70 57 2 241 182 95 106 103 133 157 236 110 11 126 53 12 4 88 149 99 219 127 96 134 40 184 148 139 119 240 187 225 75 46 19 228 98 199 237 175 59 209 83 49 214 217 237 132 187 217 38 121 61 100 138 120 0 36 114 135 185 134 228 168 53 180 181 104 157 196 240 181 248 46 124 240 241 132 248 67 218 93 234 53 242 147 25 123 227 174 55 17 143 159 195 138 12 178 46 165 237 190 61 32 196 158 174 209 229 229 30 242 108 206 42 189 129 114 213 57 218 62 41 83 130 163 34 48 217 15 199 194 221 29 154 153 167 9 50 252 56 102 39 57 118 19 46 57 114 107 133 87 236 188 146 114 25 250 199 65 164 181 200 231 242 73 208 200 170 85 81 154 117 110 218 191 2 20 62 210 78 228 243 128 34 16 184 153 221 13 122 102 115 139 121 62 182 170 167 84 212 107 80 211 33 100 0 45 23 185 162 175 155 71 229 90 130 34 228 238 84 66 5 71 80 121 33 236 176 168 230 230 46 51 122 206 
198 178 97 42 190 234 161 250 228 251 36 141 23 218 93 153 8 2 47 139 66 103 10 28 104 172 87 37 190 149 22 180 235 191 197 95 254 143 132 216 174 104 120 194 230 33 109 195 129 182 191 219 82 61 122 244 103 28 192 186 142 122 107 172 25 243 244 115 223 144 148 115 131 246 168 161 249 221 90 148 69 196 126 222 134 227 186 156 52 98 234 76 166 200 194 223 215 182 181 15 105 213 22 243 234 13 126 209 87 248 109 51 222 150 52 61 232 66 18 61 87 228 157 132 12 105 99 117 173 112 210 219 165 70 85 128 108 21 192 251 8 88 238 201 212 146 168 159 128 64 201 255 89 12 160 10 202 67 150 149 35 137 17 126 154 204 152 64 144 118 55 198 21 231 37 125 173 34 164 173 84 198 41 9 193 65 189 133 232 64 163 103 194 105 59 161 80 77 38 94 222 152 171 219 133 139 89 120 243 173 238 15 111 189 120 132 23 234 186 157 108 71 209 20 17 121 24 235 208 178 72 0 222 228 228 225 96 46 212 225 45 155 79 108 214 11 255 151 228 113 96 251 96 63 106 196 153 31 111 5 33 228 70 79 25 192 169 129 174 183 220 225 228 83 143 108 147 154 6 107 174 61 119 71 203 18 180 158 224 196 9 150 75 202 104 114 22 149 195 99 
120 14 186 160 159 63 118 184 172 80 213 39 0 182 199 40 182 167 248 203 112 209 175 71 87 75 246 145 93 204 251 46 198 27 182 69 230 198 204 248 44 23 179 244 95 68 23 71 40 230 125 115 209 172 39 192 76 81 55 214 119 203 23 138 158 198 23 249 65 80 88 211 24 214 234 250 85 79 49 76 41 183 141 188 137 191 57 168 50 195 116 103 235 252 223 33 10 247 39 227 57 69 227 242 122 117 192 96 105 63 219 222 193 2 110 209 34 113 175 168 18 136 245 108 65 198 29 152 17 150 44 44 85 14 53 253 89 219 126 79 36 124 222 165 249 175 105 216 36 41 80 103 243 138 2 14 2 144 151 154 187 139 111 251 30 17 22 155 190 242 107 238 12 110 2 75 216 166 198 250 21 81 227 142 221 176 227 116 181 196 22 205 17 190 56 121 27 183 78 116 176 161 209 102 171 126 14 117 103 208 205 94 127 80 49 196 216 226 223 200 226 201 98 217 26 23 207 205 212 104 164 49 55 208 246 222 137 18 204 205 173 19 198 45 233 142 2 178 237 8 63 47 17 7 67 103 223 127 123 33 209 141 226 122 91 103 35 127 44 148 2 251 178 88 248 142 220 115 29 255 35 11 76 211 203 230 129 31 102 220 133 154 155 140 206 246 37 79 160 113 
30 106 121 167 126 136 172 170 223 103 76 84 131 209 75 220 151 206 227 168 185 24 53 98 185 207 49 78 156 110 181 219 231 254 249 120 26 137 42 168 122 210 85 89 19 67 135 114 254 39 51 171 224 25 211 161 179 188 210 42 201 173 170 229 13 182 74 22 141 69 186 177 53 28 1 181 221 73 71 187 135 89 55 207 225 201 167 126 18 189 123 48 178 244 198 185 26 252 51 42 223 162 164 237 153 173 24 17 233 204 210 226 186 204 184 189 198 14 249 34 92 57 242 11 97 44 83 124 150 55 125 92 24 138 47 131 45 237 98 20 61 178 113 13 31 232 125 28 151 210 16 181 28 152 0 97 222 59 151 89 7 206 240 83 65 228 164 156 121 69 167 103 227 229 108 101 63 22 80 149 90 252 53 94 215 65 109 219 47 11 219 118 247 43 84 184 98 152 75 95 6 27 174 177 227 75 11 17 161 188 247 208 25 116 176 69 23 158 1 32 94 131 102 251 237 181 113 50 129 141 108 245 91 216 64 155 67 206 150 57 205 68 59 116 219 34 201 147 99 22 132 217 115 138 130 17 114 212 15 106 168 173 79 133 1 229 37 205 13 85 84 7 76 20 228 41 169 238 200 112 68 17 189 173 116 10 117 224 13 240 245 7 222 223 60 56 126 168 37 238 
73 199 142 161 165 150 186 153 138 192 244 3 65 247 117 69 107 234 136 143 70 113 236 178 44 11 122 54 92 139 7 166 253 14 140 47 96 48 133 106 134 128 150 117 226 49 116 72 95 18 3 70 165 192 188 19 152 25 82 166 34 245 149 159 51 17 150 218 6 76 12 68 165 22 246 237 175 37 130 95 89 105 46 47 179 67 45 209 45 242 12 176 89 78 149 126 242 184 244 201 30 81 24 208 240 106 92 148 49 60 103 50 96 217 80 111 247 99 6 149 240 124 240 126 136 253 208 238 67 235 237 38 48 167 113 181 110 100 16 146 239 222 234 104 124 74 179 49 249 136 17 6 235 160 69 53 55 108 14 149 44 146 202 22 196 182 223 156 39 237 89 14 113 116 213 169 181 162 157 155 66 27 20 205 37 71 85 0 239 2 23 27 184 149 212 195 99 229 42 45 36 235 129 48 64 100 238 159 20 202 87 213 89 130 216 145 166 87 102 5 54 39 178 41 236 220 80 85 148 158 25 15 108 72 206 34 227 24 254 240 160 170 41 8 198 39 37 251 119 186 193 108 151 67 169 103 210 80 137 244 224 73 117 235 7 234 137 9 226 246 204 68 98 42 90 92 18 112 195 179 159 86 174 94 151 190 194 124 113 215 198 198 206 76 6 104 254 187 249 16 
198 104 34 68 96 51 52 248 196 199 121 96 38 21 116 3 192 1 198 17 209 90 78 246 230 16 148 47 88 161 104 92 22 213 198 151 164 171 253 5 100 147 16 170 21 221 93 130 153 114 124 205 251 194 106 170 176 253 231 231 29 134 28 24 90 165 129 230 54 124 254 170 123 60 81 59 115 152 175 3 170 122 174 89 246 245 98 11 181 124 198 57 86 81 94 106 27 63 27 217 28 140 127 16 144 42 1 184 72 45 179 176 124 130 34 92 202 221 126 64 124 243 251 205 10 234 118 122 223 13 92 23 96 197 200 94 43 196 235 204 156 132 177 175 150 240 161 127 128 97 6 113 141 203 76 74 65 57 172 113 49 118 12 73 10 13 32 189 212 116 214 29 120 133 241 40 128 45 243 106 31 104 65 200 113 109 130 89 3 37 72 119 150 226 242 22 32 78 209 85 20 162 137 83 227 24 186 68 195 162 224 196 175 220 120 106 175 63 101 161 89 152 145 179 152 185 215 39 172 111 33 77 114 180 205 23 230 37 86 42 230 182 48 53 57 164 243 130 207 171 188 203 74 122 208 78 190 100 131 35 181 88 89 206 119 19 106 17 136 148 11 4 113 208 170 103 195 168 250 54 90 24 81 126 223 177 78 112 144 73 190 179 68 241 192 255 169 39 40 232 
209 77 34 247 237 90 24 255 88 208 213 174 215 238 234 99 31 38 80 63 151 209 80 127 96 34 160 9 147 88 207 68 201 56 226 45 225 187 64 168 253 4 203 19 206 148 80 33 18 193 33 230 90 100 0 46 17 211 63 19 186 15 38 207 121 62 149 206 213 91 234 8 188 44 37 141 199 116 75 97 192 107 8 139 98 107 151 105 95 236 231 70 168 178 246 46 232 69 129 1 81 162 224 199 156 48 44 67 75 245 162 203 50 10 76 87 53 76 222 215 83 85 222 202 228 171 7 12 30 54 240 239 222 248 233 142 166 248 37 94 225 127 31 6 111 135 54 113 93 113 154 33 244 246 108 198 246 96 33 15 36 250 40 192 3 197 204 5 224 108 91 5 18 122 136 187 127 203 14 1 98 64 150 238 75 183 219 98 103 59 12 223 1 119 114 155 73 113 82 211 84 117 21 97 101 78 166 145 107 189 28 49 202 35 153 231 94 129 113 200 189 162 143 37 189 151 21 168 55 100 67 160 10 249 154 154 98 100 65 49 58 68 167 39 31 129 106 180 55 58 120 29 131 255 116 137 97 65 91 17 85 6 103 22 8 225 51 215 145 34 33 66 244 74 249 11 232 194 210 252 222 204 54 140 62 185 129 178 244 93 138 251 43 192 133 219 88 22 40 64 
123 241 13 109 162 182 88 6 174 77 153 103 89 29 244 58 120 56 127 73 126 210 235 144 66 248 103 151 2 127 193 255 167 58 206 90 74 112 13 64 248 140 135 159 178 23 249 82 184 228 53 245 8 138 198 248 33 23 211 243 12 3 70 57 157 99 44 176 247 95 95 224 78 230 99 73 241 161 143 250 135 37 109 95 152 108 99 91 80 134 146 150 128 140 254 25 230 214 239 24 174 109 152 14 56 195 247 16 28 162 252 90 108 99 237 47 57 96 9 224 88 172 108 42 101 1 50 196 9 249 223 57 121 129 255 244 63 139 9 153 61 4 137 156 239 6 126 12 240 78 1 175 192 240 40 84 196 73 42 101 142 54 196 188 95 131 219 183 234 167 98 143 91 174 126 229 152 118 232 158 199 30 148 241 16 188 144 190 164 78 46 34 254 244 101 72 105 92 117 130 194 125 202 152 127 136 35 96 240 27 243 142 197 184 7 206 209 119 106 16 13 247 134 35 224 154 139 134 157 242 21 123 78 118 9 92 176 122 191 50 126 94 103 132 242 5 165 109 138 136 127 241 8 44 121 145 188 146 254 29 5 46 2 202 22 250 230 133 246 108 156 134 202 165 11 39 87 235 181 247 195 89 151 10 155 213 80 148 27 67 134 182 169 248 134 152 162 114 42 184 
89 70 0 130 93 89 168 32 251 83 126 147 4 81 122 3 209 219 84 83 131 21 235 249 143 57 231 13 123 68 157 159 226 240 52 78 190 227 6 22 231 38 73 106 214 216 239 131 175 36 202 247 127 112 244 141 193 215 110 80 40 218 7 226 152 82 128 19 117 169 237 178 33 74 94 164 192 86 191 50 63 153 253 167 148 188 107 27 71 188 99 138 49 155 48 41 132 85 43 249 11 21 37 156 179 169 5 104 75 51 178 186 136 34 52 140 76 97 22 74 39 206 14 226 31 238 224 27 172 223 127 39 7 142 117 123 164 42 134 222 253 216 144 192 146 168 182 206 46 199 189 195 107 247 182 129 120 61 222 96 26 217 194 198 241 123 167 248 253 180 40 47 97 171 33 239 102 17 204 148 194 87 42 46 27 30 165 142 199 239 243 161 214 44 61 253 82 70 129 186 197 49 53 131 252 21 45 236 11 71 190 6 145 119 36 50 61 43 33 50 145 108 231 134 230 190 56 245 177 86 204 106 4 136 243 1 88 127 123 98 137 48 212 78 34 144 114 119 219 5 115 149 96 27 130 182 84 121 251 213 150 19 79 175 195 161 171 210 252 79 212 247 233 182 86 145 253 11 221 166 252 150 227 222 187 102 139 218 40 68 205 198 137 229 212 50 9 100 164 29 
112 239 0 83 50 192 139 250 171 78 45 103 169 197 184 54 43 180 204 153 104 6 248 240 19 52 33 154 222 185 40 11 61 197 199 31 108 53 188 174 179 195 42 97 233 122 60 196 55 110 11 156 30 169 194 122 187 104 0 144 74 136 125 196 234 59 241 3 159 255 49 216 157 209 155 61 196 157 181 177 103 250 17 138 81 20 116 141 10 233 54 188 86 185 236 111 255 183 69 166 212 5 50 158 242 223 74 162 66 23 108 36 67 193 166 12 10 47 85 80 135 32 142 197 9 52 189 53 4 163 140 177 19 47 7 40 57 87 253 57 108 206 169 70 84 43 145 202 80 226 175 236 186 115 207 84 108 225 56 61 130 102 142 203 98 101 247 159 250 160 125 170 73 171 180 62 33 161 156 107 43 21 200 136 43 75 192 16 133 168 165 176 1 104 19 157 203 143 75 43 190 34 146 156 225 150 212 53 50 137 141 152 163 176 234 77 99 17 43 162 94 114 75 181 7 17 227 207 85 149 76 243 11 69 3 183 61 120 82 83 16 76 45 248 193 155 91 99 233 43 214 177 255 37 115 117 30 201 197 8 8 95 63 32 108 113 154 164 100 55 118 191 66 83 68 52 140 191 99 241 69 3 137 230 110 171 101 23 205 248 131 240 237 214 111 217 102 14 29 11 
94 189 136 162 80 5 154 243 13 2 76 31 0 255 14 233 181 234 105 196 157 6 227 48 11 224 35 71 131 132 85 147 52 240 208 35 195 201 246 222 74 77 92 23 161 137 44 97 220 204 199 164 20 91 174 112 107 102 162 146 74 59 10 229 237 186 150 107 34 9 34 156 77 137 221 254 176 8 170 246 233 56 198 222 188 95 171 87 19 81 53 225 67 156 4 169 145 2 33 161 245 44 228 214 30 156 21 255 181 228 81 81 230 21 175 155 29 123 164 142 13 135 36 92 247 13 10 134 41 176 186 238 197 154 5 52 195 112 77 63 57 132 233 26 218 77 202 2 189 21 95 189 97 242 183 45 237 247 230 36 188 171 169 122 24 186 77 93 70 235 204 233 196 82 58 248 206 199 95 60 38 151 166 139 21 121 54 121 173 195 94 44 82 221 54 108 121 246 131 250 174 247 220 35 220 181 11 148 201 107 182 112 224 103 63 160 51 3 232 107 192 215 59 70 243 45 169 237 109 181 113 178 4 123 195 21 11 21 37 150 211 33 23 199 113 239 242 165 194 122 22 40 173 157 68 25 168 131 73 36 126 96 221 46 79 94 202 233 216 219 81 165 244 209 201 105 99 149 137 66 203 197 8 219 252 123 67 78 120 199 95 58 51 93 144 22 151 138 57 196 
203 109 85 105 53 99 21 125 62 195 202 30 85 204 6 170 54 219 254 140 108 225 51 86 20 21 82 17 229 230 88 208 109 52 249 140 157 191 67 43 136 224 127 226 104 119 88 189 226 36 63 124 139 186 13 161 170 240 234 199 64 90 110 53 69 152 7 179 53 206 155 157 203 84 110 53 12 174 69 61 136 190 204 198 221 56 53 67 124 87 34 225 176 206 197 27 220 2 69 136 4 118 100 248 142 134 96 192 74 89 22 82 177 17 109 17 106 68 242 99 19 176 192 7 61 42 163 169 184 216 125 179 18 160 232 103 90 224 28 43 41 96 20 35 228 133 236 5 59 199 142 41 245 100 141 224 240 86 81 7 99 131 117 220 103 53 109 16 182 201 108 29 178 171 132 217 169 130 16 75 87 167 79 190 172 220 81 21 208 59 23 94 101 108 246 170 12 27 60 27 42 169 22 62 236 34 177 155 136 112 160 139 198 206 126 74 192 127 212 77 229 191 60 214 68 250 199 197 8 60 157 177 62 233 227 55 223 174 226 146 10 183 101 108 145 34 98 244 183 180 221 49 56 203 10 150 138 148 178 214 99 126 215 250 123 239 155 176 147 53 94 230 182 191 39 151 191 141 69 229 27 229 54 105 208 72 199 199 190 164 125 133 37 203 52 29 104 36 6 80 
17 160 110 190 20 240 173 180 88 246 109 69 115 121 165 156 182 28 188 144 105 145 241 121 87 10 250 66 142 240 235 192 96 216 90 66 173 179 193 106 101 68 35 59 72 216 243 114 240 49 49 26 18 195 214 91 1 35 114 147 115 188 20 168 136 196 106 156 8 110 41 97 236 97 175 239 33 106 232 149 136 109 110 140 65 162 244 210 41 253 228 53 161 238 71 174 146 75 230 241 174 139 174 66 248 52 89 138 134 150 75 170 133 186 186 15 127 150 18 135 217 130 152 83 160 240 77 125 133 87 21 108 37 112 24 181 142 165 105 52 255 199 230 92 240 255 95 203 82 7 250 33 24 153 213 19 246 40 238 187 105 207 64 50 247 135 47 97 184 156 38 20 21 98 127 80 208 36 163 231 69 93 114 73 239 42 229 157 45 0 241 17 70 154 175 110 171 54 187 239 125 1 218 83 79 208 223 49 45 16 207 140 221 0 67 167 100 30 14 26 205 222 32 38 37 162 170 70 202 231 131 6 230 188 203 24 54 121 206 165 16 173 42 225 164 88 53 226 130 91 153 178 92 44 65 163 13 206 121 226 219 1 80 79 249 182 65 140 80 197 19 84 128 226 254 15 33 206 15 163 78 202 206 140 100 81 29 47 7 6 99 107 102 236 234 114 192 213 134 215 
40 29 120 232 133 151 145 61 220 200 155 145 210 83 244 209 108 181 124 115 26 50 177 9 244 15 25 22 67 2 225 32 67 231 195 6 39 180 45 148 94 175 159 85 21 223 84 168 253 192 38 22 78 59 172 227 12 212 165 227 137 38 153 143 43 140 189 88 111 34 24 60 46 236 228 150 31 84 55 58 158 218 226 193 171 7 153 34 54 162 85 131 154 39 247 78 103 117 46 134 100 199 154 92 212 229 50 253 249 156 227 175 215 107 121 28 58 127 195 237 250 226 242 155 126 239 67 130 127 9 222 56 14 140 253 28 217 4 80 50 170 157 161 46 48 219 180 206 2 139 113 109 225 250 68 214 61 100 197 86 251 175 148 21 118 89 135 165 196 176 8 220 58 65 184 223 50 146 89 128 11 20 234 202 114 83 19 217 224 112 196 240 100 209 26 197 163 23 130 31 29 80 32 163 178 110 114 235 100 249 48 217 94 0 119 43 54 85 39 79 111 250 138 120 66 214 54 241 157 172 52 178 109 78 97 49 25 14 21 122 78 118 3 130 2 57 96 184 179 104 72 222 240 233 93 23 27 38 177 65 109 2 230 132 58 17 147 43 119 8 234 179 121 114 152 34 255 165 237 155 115 245 61 46 109 39 134 244 121 41 82 92 26 0 223 192 15 1 126 60 
212 68 57 191 108 86 184 98 94 46 102 249 254 98 207 232 237 155 76 57 227 71 227 235 172 141 105 140 113 134 233 10 57 170 74 198 175 136 43 234 38 187 18 253 218 25 198 180 121 45 249 11 226 232 42 149 44 147 202 16 234 8 158 61 173 34 100 239 203 114 185 97 95 51 58 204 145 128 234 57 24 197 212 148 253 116 241 3 161 249 75 118 1 239 99 126 57 148 208 98 71 122 42 112 18 128 38 145 171 1 2 32 210 75 36 252 188 83 254 220 19 167 52 227 63 163 1 117 228 232 215 72 171 10 69 190 70 137 30 114 174 3 216 16 175 167 50 107 167 237 25 201 139 132 205 129 42 140 64 201 182 6 191 201 128 137 211 244 3 54 106 151 36 238 50 178 184 194 70 8 71 170 12 114 15 122 93 120 76 19 231 34 183 214 208 12 77 95 156 185 81 111 81 41 148 41 217 174 244 130 167 251 35 243 158 126 170 112 46 240 45 158 192 42 240 65 84 58 154 243 104 182 57 28 28 80 135 30 149 171 108 208 159 109 195 46 150 150 97 79 134 16 83 151 145 134 104 45 145 122 240 175 255 146 194 37 20 51 132 52 45 81 38 149 116 134 176 197 189 97 62 253 174 0 72 100 35 225 39 132 208 245 213 250 41 246 245 114 126 251 
19 211 107 74 44 183 111 109 113 30 219 136 72 99 238 233 148 111 62 225 54 44 89 210 212 60 173 138 216 236 165 207 188 99 21 59 134 32 216 75 142 163 184 178 135 105 141 243 189 30 169 46 156 15 116 58 114 222 84 245 118 121 208 216 8 76 244 207 58 182 247 71 144 186 27 136 4 248 213 69 77 219 46 113 97 19 105 85 57 70 230 224 212 2 70 62 126 247 208 172 82 99 19 138 254 205 205 177 198 246 12 8 204 13 147 82 142 34 127 74 176 221 43 242 252 112 80 40 167 202 113 122 213 13 118 59 96 67 151 214 213 77 123 99 192 27 161 120 42 35 0 66 95 11 234 212 245 169 54 190 9 46 158 226 204 158 102 131 63 132 63 159 58 227 106 127 179 111 32 140 61 253 50 100 207 57 237 45 199 151 64 42 46 140 33 139 62 253 44 138 33 248 141 179 252 162 33 131 44 112 216 53 208 154 94 217 135 205 250 166 123 33 182 145 158 74 192 31 51 18 16 119 145 7 75 187 35 112 231 152 180 134 145 28 233 225 203 200 15 49 218 231 23 46 223 30 223 210 68 67 180 197 89 114 20 25 63 94 184 55 6 230 210 25 18 233 147 186 195 90 240 203 85 151 166 168 4 246 123 138 116 161 199 254 81 165 52 150 50 69 
194 222 196 148 14 145 36 67 211 13 140 183 177 5 50 94 45 118 109 68 250 220 26 225 119 165 62 54 120 230 237 24 73 77 106 203 240 87 143 210 179 194 111 6 218 70 59 230 182 128 98 46 226 47 252 171 201 162 105 77 104 113 53 126 86 108 63 178 1 209 27 63 58 194 180 112 244 245 54 212 72 174 43 220 189 234 228 165 199 221 26 19 141 159 213 31 239 35 141 114 200 104 143 50 112 243 163 28 134 124 236 211 236 232 15 119 18 119 152 122 120 63 153 175 110 217 147 164 31 90 154 50 205 132 181 82 94 62 132 50 24 66 37 137 169 22 87 39 106 61 224 208 228 174 45 74 148 133 57 181 235 249 176 27 153 142 83 72 11 139 158 220 50 175 168 158 135 32 76 19 76 164 134 80 20 19 31 12 133 13 141 249 93 232 21 85 179 236 50 187 128 195 58 64 93 43 63 187 142 238 51 100 64 20 80 161 15 87 183 28 203 215 88 25 124 15 17 7 163 8 26 84 195 204 160 134 32 30 176 136 199 104 87 65 206 245 8 107 221 96 61 163 238 77 97 188 80 86 238 89 242 73 211 187 222 144 24 215 4 240 196 172 57 119 255 211 127 175 116 88 135 24 249 200 116 213 114 139 226 166 242 116 39 22 36 151 216 246 234 91 
144 9 67 208 236 1 114 66 218 170 93 14 20 102 51 180 231 217 81 46 57 229 103 128 202 217 214 145 186 229 93 57 76 210 245 155 233 239 249 181 104 79 138 53 140 49 50 142 206 192 199 76 93 253 147 164 100 249 177 80 139 71 186 154 192 177 162 182 55 42 220 84 175 4 197 118 248 99 63 127 178 242 156 141 87 212 191 9 124 222 125 125 83 3 73 165 117 15 17 200 222 153 99 72 57 50 212 121 95 227 162 175 26 215 152 155 46 84 50 215 154 240 2 191 27 1 82 131 242 85 11 122 231 35 214 185 142 66 128 229 201 153 163 69 142 215 131 27 234 100 54 53 70 151 8 191 234 41 29 91 191 233 88 116 89 178 124 206 52 154 145 98 62 109 138 106 150 90 36 184 148 235 17 75 9 59 86 36 200 99 242 86 101 53 192 93 60 45 158 176 181 164 207 154 199 71 158 69 187 200 68 24 51 211 12 66 106 68 181 151 189 151 24 156 107 159 11 221 153 123 132 135 153 199 2 50 107 15 40 255 132 137 171 227 207 3 111 66 242 26 237 192 210 173 216 84 89 145 0 158 119 134 118 122 102 106 241 213 51 173 112 191 122 5 33 194 113 99 130 114 39 37 198 70 14 141 122 166 184 114 104 69 222 53 188 177 166 247 101 41 
37 9 190 174 35 164 110 92 31 219 141 251 147 205 8 210 122 31 70 187 14 170 11 125 214 112 157 85 224 213 38 214 76 12 90 244 10 207 89 91 227 83 215 5 190 123 122 11 28 76 131 187 230 161 177 236 104 31 98 142 157 108 252 133 173 156 139 184 180 236 172 100 197 179 169 183 47 149 229 154 254 250 123 206 197 190 34 58 155 43 84 131 100 36 175 222 82 162 155 34 171 101 45 34 204 227 75 57 110 133 17 38 40 18 116 26 53 107 37 16 120 122 184 93 189 101 6 136 66 7 208 91 118 160 165 58 0 203 5 180 3 177 198 88 160 125 183 202 189 16 132 22 5 245 217 67 48 151 202 44 133 177 115 139 157 7 219 87 105 84 31 80 119 131 204 216 112 33 140 4 230 19 5 243 76 132 254 94 70 34 195 113 36 138 203 217 168 0 153 31 16 100 224 52 80 97 234 77 160 232 58 240 54 221 113 79 85 16 110 214 134 110 185 0 38 121 34 110 32 245 165 58 252 228 145 137 25 181 234 95 54 185 11 184 55 214 143 212 38 127 114 210 121 227 116 128 147 101 190 114 141 77 200 81 53 189 122 118 87 230 146 183 60 123 69 129 113 102 41 40 201 187 82 122 165 234 187 154 115 56 232 12 117 112 202 12 196 213 227 36 
148 92 171 253 185 24 49 118 107 246 5 243 70 170 86 247 148 233 88 246 207 217 232 100 98 198 115 18 176 22 20 186 87 127 252 217 182 119 23 188 173 236 237 222 163 54 198 113 206 74 17 59 174 48 6 163 219 183 139 12 1 103 84 97 41 183 79 241 58 128 63 126 191 178 166 144 234 70 233 15 217 115 175 17 25 37 138 241 105 171 217 161 192 175 237 65 145 108 106 240 77 27 240 226 42 174 251 178 35 193 8 250 63 206 250 34 23 160 187 117 146 10 38 122 244 216 37 129 23 6 22 124 247 48 116 16 117 74 179 236 84 145 107 90 136 193 185 19 176 137 227 88 225 60 58 62 165 201 69 74 67 237 27 61 65 167 17 49 40 237 149 229 135 157 90 86 58 182 182 143 236 200 72 193 219 169 221 150 219 106 148 195 158 137 65 221 50 104 16 109 203 254 107 70 195 205 29 22 223 20 183 60 212 69 50 217 10 185 215 42 159 163 92 21 175 67 80 1 211 92 185 235 231 231 251 182 17 9 251 195 254 67 133 194 111 233 235 200 245 213 239 161 248 92 227 103 254 129 15 83 42 105 83 212 3 15 14 222 120 57 62 133 32 171 232 202 198 154 186 181 36 99 239 164 239 125 115 226 20 172 71 123 66 120 40 79 168 222 107 102 
0 69 44 131 204 180 167 252 223 65 230 200 32 205 157 218 139 238 82 173 120 45 192 33 32 114 126 133 93 188 220 245 177 21 14 230 138 198 140 255 196 199 184 43 112 121 193 236 212 151 200 242 178 106 66 236 206 61 158 158 170 17 39 51 148 146 43 213 226 73 93 124 125 18 120 3 156 209 37 129 210 97 31 214 75 205 149 132 83 195 208 193 23 69 21 202 176 162 205 121 93 165 227 26 16 12 110 123 45 59 144 66 142 50 157 131 202 189 128 146 183 234 91 22 45 192 110 95 13 46 58 250 130 66 230 130 135 156 225 184 170 33 201 214 15 244 140 33 183 162 205 190 2 156 137 198 115 235 250 157 180 31 187 127 218 136 46 91 233 169 27 229 155 234 153 231 93 141 50 215 155 227 66 175 61 192 160 249 114 44 128 41 172 91 152 48 236 224 130 78 63 29 98 40 136 254 200 26 129 231 216 206 253 234 168 14 112 62 233 214 176 236 202 174 253 204 25 54 64 176 171 3 144 223 255 169 250 197 30 25 130 232 197 46 101 30 198 130 161 254 172 134 183 148 158 210 176 89 134 185 94 97 114 33 228 215 58 145 121 167 99 140 104 122 67 30 91 231 102 180 218 231 49 49 15 138 197 61 204 233 38 224 207 92 157 81 68 237 90 8 
139 12 94 26 60 132 152 198 104 173 78 75 34 227 191 253 62 56 7 152 89 102 66 212 26 8 244 58 182 9 169 53 186 92 216 108 5 237 13 79 19 216 71 240 130 218 159 21 206 4 43 139 96 183 34 189 199 204 65 133 69 19 109 65 141 255 153 42 203 159 234 225 229 208 25 75 0 178 26 159 71 88 251 189 231 196 14 194 94 18 74 217 246 243 239 84 140 93 105 251 150 129 119 163 101 254 140 3 167 84 118 196 47 155 61 215 249 117 78 11 104 65 216 223 211 145 119 148 64 222 16 135 111 123 252 190 27 200 104 193 124 168 251 171 16 53 186 128 155 178 41 193 109 192 179 62 227 213 76 44 48 235 85 119 93 117 192 90 143 151 116 44 137 150 243 125 113 142 58 97 215 99 233 12 243 249 163 159 46 168 184 66 229 234 1 115 105 87 12 157 74 212 121 237 213 7 164 97 219 14 133 34 180 112 212 19 132 83 112 170 189 240 1 255 229 69 220 34 154 9 40 178 211 229 63 171 104 225 87 128 213 29 98 106 59 193 51 255 167 54 225 6 151 151 112 138 186 98 174 45 248 116 92 191 178 52 142 15 75 14 85 1 231 35 154 225 114 62 77 247 229 10 192 92 196 131 77 12 235 171 63 59 139 126 240 237 112 39 46 193 
133 116 227 13 153 136 245 48 99 208 108 36 196 56 211 83 77 158 224 172 1 134 87 245 92 16 43 99 148 40 230 104 30 253 76 204 116 180 59 255 22 93 214 174 206 38 227 148 57 206 112 147 131 93 189 3 114 19 86 74 166 158 128 172 31 144 214 101 255 15 52 245 145 206 212 188 139 61 183 198 144 253 71 232 249 151 58 12 213 109 185 201 46 241 194 55 143 20 203 1 194 2 168 187 222 12 174 118 130 229 25 146 91 18 171 212 236 156 150 184 142 8 156 9 181 136 117 174 118 115 113 199 70 243 94 249 5 254 172 5 59 135 207 160 161 245 229 127 227 212 153 177 164 202 71 49 194 205 97 188 220 148 17 224 18 75 31 86 12 139 22 145 62 137 162 151 106 142 61 16 102 167 10 156 31 157 1 106 222 39 77 7 202 95 242 115 175 115 179 122 253 157 51 65 20 85 90 32 190 197 250 175 253 125 179 36 8 104 20 220 144 254 2 55 71 188 94 169 163 209 226 14 223 27 76 62 68 81 191 226 166 130 102 134 49 190 90 239 102 19 198 174 96 187 73 245 92 147 155 170 120 207 116 186 187 236 169 176 86 231 152 134 41 173 199 186 137 210 200 165 65 133 96 9 214 196 232 233 16 204 242 157 181 212 48 37 152 250 146 190 
210 126 175 179 80 46 102 118 142 33 197 239 161 168 41 20 123 130 167 186 107 79 171 170 227 71 223 248 126 44 79 144 65 125 202 18 34 237 139 224 198 20 25 117 143 99 107 248 214 93 80 16 117 4 14 251 137 146 73 218 118 106 39 79 43 78 178 74 167 210 126 32 187 17 139 222 18 158 108 220 112 190 169 149 55 212 99 181 47 28 54 116 134 156 100 35 22 88 47 4 231 198 134 95 245 129 228 210 51 65 118 233 207 11 124 239 184 165 241 3 94 77 110 110 185 170 76 51 140 3 9 232 235 175 236 197 251 205 236 251 249 53 207 70 125 174 143 198 0 97 1 11 156 141 184 111 20 125 40 168 20 183 7 157 186 119 249 121 84 91 107 254 108 96 191 29 2 13 170 195 24 238 219 245 116 68 222 31 161 251 63 169 55 220 242 204 92 4 242 164 139 149 41 134 148 171 144 147 228 146 151 141 7 54 199 234 107 218 166 39 103 13 219 95 123 218 146 28 218 64 34 109 37 226 237 57 122 254 136 210 173 163 29 205 213 31 13 18 11 183 217 47 110 156 66 242 107 26 175 54 59 17 208 253 172 169 129 191 37 66 241 2 228 170 3 43 139 147 244 148 219 68 63 222 191 142 189 137 140 2 17 193 135 97 67 123 168 84 171 193 
157 93 17 74 18 14 18 78 48 121 197 152 99 231 159 221 97 205 148 76 104 251 127 102 198 23 196 16 159 74 52 231 235 57 49 211 190 55 18 223 204 184 201 72 44 9 194 211 92 63 15 100 134 110 195 205 1 27 155 228 27 243 228 216 22 189 152 197 112 141 203 133 104 58 69 202 189 19 113 105 185 206 118 249 110 193 163 157 64 85 16 30 163 183 130 61 38 208 144 71 177 120 4 233 10 230 132 70 158 107 114 71 127 97 16 50 169 94 232 127 137 173 107 231 192 254 216 189 36 92 95 129 7 96 135 179 189 164 205 229 88 123 141 20 182 223 38 56 190 171 90 26 230 11 243 102 248 48 172 1 23 72 78 156 253 173 26 138 134 92 103 206 114 170 140 121 102 50 0 51 53 18 192 23 94 87 241 196 214 181 199 176 7 124 165 192 24 199 134 22 111 246 155 43 116 95 53 29 152 65 230 74 151 249 227 29 249 121 173 40 223 245 241 115 252 223 172 20 226 22 146 0 127 91 177 33 231 4 82 169 84 244 32 165 106 202 140 213 192 89 111 187 157 89 241 242 255 91 171 193 226 3 8 240 190 113 241 218 82 0 169 196 160 51 245 109 57 236 129 230 186 223 127 164 151 71 145 212 23 215 233 238 160 244 174 141 53 33 162 126 
61 187 3 23 134 230 175 202 137 199 139 250 240 244 36 12 85 40 151 194 77 60 175 196 165 82 78 128 235 84 14 52 48 157 39 73 13 245 148 227 228 195 113 182 104 126 168 27 96 101 204 99 168 112 69 107 120 134 174 112 232 240 123 37 180 14 223 3 61 72 237 225 209 72 253 196 44 102 81 248 63 100 248 96 48 92 243 10 161 246 151 6 53 222 50 121 80 118 241 237 31 200 1 235 217 190 245 204 68 149 104 204 122 143 227 96 237 232 1 202 169 12 208 234 217 7 123 87 141 61 38 174 186 91 26 42 130 141 34 117 182 242 52 190 154 77 84 12 232 253 182 210 23 47 35 195 220 82 157 231 242 203 70 239 23 234 126 198 87 29 76 104 140 100 255 247 38 5 21 12 40 129 91 75 115 198 86 58 71 166 226 83 7 136 25 87 60 94 118 230 221 215 58 77 206 213 15 159 166 33 236 7 181 94 56 92 70 59 50 246 33 237 144 192 84 221 102 143 51 157 74 178 158 33 182 203 130 44 174 221 162 8 162 165 152 122 149 46 22 245 127 160 114 14 240 88 98 48 247 62 4 145 66 83 33 100 134 138 178 81 34 217 163 34 255 143 216 191 186 232 110 92 5 223 67 241 74 67 184 234 146 13 181 32 166 241 238 9 115 51 
101 43 179 188 48 215 202 109 125 19 238 179 211 216 139 92 155 126 230 169 222 116 0 164 80 52 189 179 142 118 69 110 164 164 171 174 210 143 205 230 144 96 123 183 207 209 219 190 130 157 11 177 93 52 9 170 220 180 208 194 136 21 196 226 118 163 80 214 16 178 206 163 23 141 167 27 233 175 187 174 0 54 3 131 188 148 116 200 98 136 39 70 100 77 184 56 227 17 236 93 114 168 150 76 29 130 187 8 170 218 244 212 30 49 20 72 131 251 11 165 233 152 10 102 171 133 232 23 243 212 197 106 128 217 237 136 167 39 254 165 152 187 78 215 227 118 135 40 59 209 148 234 121 204 193 74 228 39 29 40 175 213 35 38 195 174 154 255 191 100 186 27 61 184 144 96 88 237 164 74 107 125 216 62 26 12 147 27 151 154 31 19 30 252 80 185 194 141 103 90 108 33 53 145 33 58 132 22 131 127 178 215 155 105 159 74 213 64 202 1 76 70 182 127 72 50 147 74 5 223 26 65 183 70 185 48 202 170 240 162 110 18 251 246 83 252 177 181 177 80 172 35 140 147 170 20 54 93 51 1 21 13 124 91 166 187 140 31 194 110 157 171 33 143 197 208 28 158 213 40 183 36 130 170 222 233 194 123 239 102 121 7 121 125 85 81 68 104 246 135 
145 240 83 218 162 223 89 141 125 183 213 75 238 164 147 189 203 176 199 92 123 54 173 132 185 153 109 202 150 53 65 144 189 150 217 215 251 232 255 84 255 175 119 197 94 185 41 133 218 80 130 94 227 180 23 159 94 200 139 111 166 11 179 97 208 202 249 73 52 148 254 77 40 239 132 63 15 73 138 42 147 49 184 42 46 199 254 129 239 113 121 232 123 208 150 35 82 243 121 216 83 202 160 161 131 221 195 96 10 61 255 211 126 187 52 104 100 89 172 82 244 254 253 220 29 110 48 253 201 120 34 45 98 114 43 120 149 226 254 209 86 126 208 168 36 87 189 191 142 81 103 57 246 214 224 244 149 203 202 24 191 195 188 240 104 115 232 249 232 103 251 57 251 243 69 210 12 107 26 215 179 150 120 94 124 97 233 215 234 209 171 156 187 59 15 201 110 183 31 77 3 210 131 65 2 131 166 121 190 97 20 89 219 18 39 234 14 7 226 45 36 102 29 176 70 72 226 94 123 37 24 155 110 140 94 145 114 24 58 196 195 159 115 237 14 172 187 5 52 48 145 160 76 116 102 124 231 82 255 90 151 165 26 12 178 254 84 208 83 153 74 220 162 143 255 58 85 76 126 214 119 68 192 214 104 226 207 41 38 193 44 99 202 31 110 200 86 143 45 166 
173 237 30 233 227 151 127 233 183 218 182 134 94 171 53 119 131 152 160 223 139 254 50 33 29 123 93 246 226 166 176 189 137 254 254 18 15 33 189 161 61 63 172 60 114 205 185 44 162 126 33 197 159 111 217 62 151 161 45 191 222 173 167 186 238 179 50 127 173 148 127 11 238 97 168 33 57 19 19 157 207 124 154 4 233 125 232 95 65 122 38 74 211 11 216 72 229 244 1 89 69 88 142 207 210 41 241 93 61 227 13 113 17 122 82 195 241 144 41 46 33 236 146 192 73 40 11 13 117 169 181 200 95 213 178 148 241 127 209 23 6 166 109 80 113 96 146 43 64 17 98 83 66 224 183 72 198 108 10 177 166 186 148 243 132 115 178 2 84 76 142 120 26 197 252 228 245 22 162 100 93 102 92 118 169 63 223 11 212 63 156 221 128 16 231 3 59 154 88 194 2 118 113 167 3 166 130 210 167 132 202 149 208 249 223 62 96 239 80 48 250 9 136 57 12 145 245 31 13 178 106 124 3 231 194 204 73 179 199 197 143 147 82 231 34 49 179 83 110 218 82 224 193 50 151 108 81 38 8 112 129 35 177 215 96 133 201 17 114 83 146 99 180 41 129 129 218 117 159 94 219 230 47 67 175 34 145 31 87 184 102 30 31 85 245 124 32 58 206 156 
8 237 172 84 30 47 160 139 128 47 108 7 175 253 45 128 78 65 62 249 39 45 88 80 111 176 254 19 75 237 24 149 147 235 222 65 213 142 247 47 157 198 226 245 243 6 150 192 38 248 101 163 200 111 38 46 250 157 147 67 234 134 240 37 153 180 238 210 226 44 206 147 184 162 201 209 175 233 176 42 189 173 208 196 66 100 24 225 71 130 126 180 3 236 158 116 164 176 164 174 76 243 109 223 89 43 233 66 233 142 196 231 157 201 69 5 158 246 118 145 222 200 133 15 161 9 106 169 59 71 202 126 27 202 27 60 8 201 10 241 171 221 25 30 78 181 141 14 227 12 135 101 72 216 113 252 201 196 155 236 231 225 38 233 87 152 34 210 78 228 243 133 252 190 249 248 86 216 112 134 25 141 148 134 12 24 9 34 133 5 123 103 46 230 130 152 9 71 200 200 178 228 109 167 229 25 170 157 63 153 181 21 73 99 229 28 178 242 23 42 220 180 80 63 155 190 164 50 57 190 86 70 189 49 64 255 108 214 117 52 145 98 38 100 122 117 194 78 195 205 97 187 215 186 99 159 179 209 84 96 237 229 19 118 245 51 52 52 156 221 162 229 210 154 137 27 180 171 115 68 198 17 177 126 124 253 252 173 0 136 92 202 47 164 73 126 228 82 16 239 
122 22 121 218 140 168 167 226 255 237 63 39 67 37 205 27 213 102 99 145 9 73 131 23 6 227 62 134 18 247 158 215 16 105 66 56 70 246 72 95 100 35 112 31 194 115 125 57 234 221 223 116 86 125 144 240 123 138 60 183 6 136 164 149 101 191 68 42 137 235 51 61 234 53 76 83 204 98 139 128 193 75 185 126 112 141 76 252 148 129 137 56 72 111 235 208 129 254 200 214 220 239 50 34 154 11 28 236 232 90 189 154 100 150 58 214 222 223 127 228 91 176 109 50 96 18 59 49 109 16 22 100 199 106 11 183 122 142 39 17 159 195 221 44 219 168 167 165 40 221 240 79 216 0 50 205 215 219 92 96 48 219 118 253 210 196 135 163 149 164 183 235 120 6 177 225 44 103 75 18 215 238 105 230 18 87 30 48 51 49 21 4 210 73 48 201 134 102 110 142 240 54 18 162 251 137 2 94 97 189 109 70 114 121 176 81 17 159 123 132 255 123 47 197 92 65 139 239 106 182 136 34 149 45 129 93 176 181 151 78 130 145 84 104 129 232 143 55 221 190 143 240 192 35 115 77 213 170 208 151 7 29 157 4 139 111 76 68 32 242 58 87 149 202 73 161 140 162 203 64 127 158 163 157 0 144 166 65 69 110 72 235 227 4 116 223 218 230 187 128 
210 169 177 33 164 82 148 25 28 15 47 21 254 37 254 179 70 42 147 76 180 116 56 16 136 209 214 89 139 120 22 57 78 64 197 85 182 16 125 247 184 151 130 94 98 61 234 89 27 89 1 20 43 164 235 49 126 238 139 26 164 15 164 150 29 33 62 155 212 236 76 100 233 162 139 194 179 205 173 183 6 133 183 65 177 230 168 116 75 193 91 203 48 146 174 192 198 178 228 154 5 206 72 135 54 152 19 234 250 188 144 246 143 22 126 124 79 34 182 1 121 180 14 20 52 233 124 223 209 93 127 251 81 158 186 137 39 225 226 126 63 244 219 62 62 116 30 109 12 64 94 1 144 45 107 156 186 252 86 26 199 137 214 101 192 68 234 145 68 229 192 37 136 92 214 182 156 7 95 187 240 40 232 156 22 150 59 12 201 179 132 153 47 157 178 129 91 169 32 200 22 13 117 135 223 220 201 135 48 56 9 14 3 195 156 249 149 86 70 11 106 246 77 133 145 3 219 247 41 179 164 85 36 191 200 77 75 92 251 216 130 109 227 16 78 247 193 65 148 213 84 66 164 173 251 6 117 34 25 110 50 75 189 97 246 100 131 31 213 196 181 210 27 15 182 103 216 173 161 155 156 123 45 89 127 192 212 67 100 98 52 143 127 90 181 20 21 101 108 164 
131 252 63 157 130 135 74 187 169 206 130 48 52 176 152 247 3 23 33 101 230 43 243 1 23 198 210 149 8 40 76 133 95 237 225 96 63 60 103 181 202 64 173 40 228 220 95 196 57 154 41 147 129 229 31 108 3 121 93 13 87 23 234 106 113 125 227 68 219 149 213 252 66 237 106 170 52 103 72 106 40 50 54 246 191 248 128 122 73 89 157 163 139 153 16 249 192 149 140 112 221 252 91 57 25 187 1 222 173 185 28 142 216 197 142 182 39 205 222 209 243 80 220 128 43 21 132 221 84 30 37 12 205 216 195 20 88 148 185 237 214 58 162 219 82 60 122 250 65 202 1 25 8 69 96 203 191 245 15 188 53 254 246 66 52 144 211 52 6 95 219 255 55 83 164 246 157 128 66 234 150 88 177 251 145 31 115 173 208 160 121 63 108 31 71 56 153 142 84 66 43 4 175 59 89 106 232 138 193 120 46 175 173 224 181 30 149 200 91 78 229 126 138 13 255 103 96 22 132 57 13 229 208 106 125 202 195 233 56 61 199 11 134 113 14 200 214 44 28 39 96 213 134 247 10 207 249 192 136 5 125 249 200 198 251 123 141 212 253 54 90 183 182 35 145 87 66 121 220 202 47 36 204 107 59 115 192 44 95 17 9 45 13 54 75 141 183 30 38 128 
144 187 22 161 150 167 152 138 208 92 143 162 212 167 229 55 141 90 117 205 59 66 41 181 187 88 95 225 9 59 146 246 3 222 54 163 112 126 227 50 64 216 182 92 21 152 245 98 3 20 241 89 148 58 49 197 16 199 204 106 251 187 23 95 222 9 128 100 75 146 186 117 27 84 27 160 250 223 66 19 38 9 252 121 115 227 105 135 147 236 90 209 148 132 254 227 170 163 190 141 47 202 101 126 232 58 132 20 138 101 21 115 124 162 94 213 223 36 24 33 204 45 209 190 220 127 143 169 238 20 182 197 36 14 43 115 47 241 186 99 205 16 181 170 143 69 222 20 224 229 135 187 67 243 248 216 220 148 17 218 50 195 49 181 51 70 86 125 121 225 133 51 203 201 108 223 231 91 70 222 126 14 255 126 129 167 152 200 155 172 206 157 255 26 246 5 99 90 44 195 76 114 172 45 141 121 128 58 10 77 92 221 194 136 198 145 13 175 121 53 33 173 12 27 219 128 207 92 189 51 246 110 51 12 249 248 26 6 58 228 130 129 233 182 179 57 36 29 111 117 99 200 119 129 20 123 81 93 130 98 71 183 251 165 179 23 50 60 122 90 226 5 215 97 180 20 90 10 99 74 48 95 30 41 164 14 46 230 230 26 216 192 11 207 133 145 86 251 32 163 
182 91 192 196 143 84 135 157 189 227 202 63 215 215 113 255 176 62 161 132 36 29 153 30 17 100 218 89 163 32 139 211 213 243 27 74 52 193 40 249 230 173 160 37 236 68 38 243 164 247 183 124 146 207 141 35 95 92 67 39 34 239 59 116 223 9 61 191 77 18 96 209 221 78 46 35 247 14 3 172 135 35 182 247 184 152 123 120 255 161 8 32 92 206 247 47 221 132 108 74 99 174 247 205 168 176 188 98 129 156 209 211 97 169 231 28 31 225 45 197 249 25 113 110 216 38 136 172 214 78 241 19 253 253 181 148 81 185 145 10 17 88 87 15 59 113 146 20 78 16 105 177 83 174 198 57 30 96 183 146 210 78 20 67 163 103 98 207 224 83 247 66 48 169 95 9 28 99 255 6 205 143 248 228 23 71 78 168 183 226 74 137 217 108 28 2 222 84 197 37 91 101 52 50 101 247 175 104 12 103 117 27 37 196 162 7 77 203 82 228 42 22 9 59 244 144 83 119 52 44 167 63 204 215 145 3 56 171 17 213 19 101 62 123 221 25 46 194 251 36 26 21 255 99 190 77 42 162 255 203 47 87 208 196 58 145 86 221 49 43 74 248 58 69 160 77 125 244 102 188 43 57 238 97 191 48 47 106 132 138 105 37 87 61 8 93 174 122 203 231 
217 224 37 120 136 239 228 186 142 191 16 158 228 242 22 243 241 231 37 56 8 48 217 174 51 71 23 178 47 124 56 74 183 50 105 254 6 75 81 233 151 225 245 15 47 55 217 241 29 239 104 95 192 125 150 142 75 219 196 106 197 126 228 45 84 138 221 49 186 66 49 2 32 194 221 184 19 240 129 132 204 176 192 136 180 87 234 236 39 99 216 46 120 105 24 185 54 78 75 186 174 186 202 47 177 202 144 64 152 5 84 211 132 146 245 91 235 168 27 240 80 69 28 165 81 35 28 22 231 232 121 64 234 156 102 150 211 97 213 81 198 94 155 7 208 253 206 127 109 86 114 196 77 235 85 120 87 149 56 107 239 190 47 108 116 209 75 95 13 239 117 144 166 228 157 71 53 89 21 157 66 74 55 141 166 187 78 78 147 167 180 224 212 58 55 230 86 64 193 179 232 220 57 167 63 125 164 188 61 14 144 92 115 109 178 118 228 31 206 208 11 66 215 159 32 194 88 85 152 208 18 186 235 144 230 62 153 18 246 141 111 132 8 101 6 166 43 164 142 126 156 166 201 76 234 205 90 192 89 97 64 107 132 155 158 116 71 252 189 140 220 227 83 35 68 95 6 220 233 66 44 63 129 119 213 175 53 149 11 155 3 179 88 248 97 127 137 238 35 138 
178 209 158 230 114 84 14 243 120 249 53 118 70 204 69 235 53 81 0 29 186 187 30 243 231 94 239 141 53 103 65 143 128 203 132 189 83 125 44 201 102 228 87 104 101 140 176 171 243 28 147 141 239 136 114 201 246 135 119 238 41 72 106 180 48 96 214 145 127 8 103 136 215 133 151 66 16 231 137 95 23 246 53 14 51 106 198 219 140 90 64 201 237 247 102 161 201 122 219 137 124 91 135 216 212 196 60 41 208 69 154 175 167 201 48 200 12 201 227 212 177 191 148 71 10 222 253 253 83 0 220 206 212 224 84 99 100 137 144 71 44 14 169 65 173 124 202 226 5 13 146 90 109 158 185 144 7 99 247 113 215 218 33 135 14 253 150 206 143 188 217 196 172 170 127 192 48 247 76 132 163 158 153 21 201 223 248 203 108 240 27 164 91 240 242 221 179 28 20 196 93 69 96 200 216 130 228 210 57 34 254 216 112 228 192 175 204 107 153 32 194 236 50 63 234 42 151 248 74 164 151 235 215 12 109 122 57 252 160 31 207 229 39 3 243 72 209 205 127 40 228 184 143 191 4 233 137 112 87 255 91 253 231 235 4 250 72 2 86 129 122 80 250 40 16 48 180 48 146 26 232 255 33 187 94 208 89 75 66 170 124 27 111 142 204 109 237 245 56 137 
183 122 59 13 194 211 2 133 60 5 205 59 17 216 151 81 180 137 249 12 28 192 76 115 13 193 14 25 152 230 134 55 229 77 171 253 48 206 67 42 18 48 72 219 2 156 143 160 27 81 172 213 32 154 16 48 189 253 116 150 15 182 123 51 103 100 146 201 75 1 27 72 190 23 204 160 194 49 81 211 26 144 57 78 84 32 15 121 7 171 199 141 90 75 93 166 197 37 184 25 28 84 212 7 201 36 32 50 88 129 37 16 58 175 105 30 194 59 147 119 116 49 207 165 127 143 116 183 136 250 229 147 169 176 181 142 186 190 14 58 207 115 83 127 1 20 4 238 114 209 226 81 139 248 84 135 136 105 10 143 55 74 224 226 252 251 5 6 25 76 92 96 44 238 34 74 249 40 210 101 106 203 69 48 212 104 30 218 124 192 101 85 90 124 114 172 29 31 13 150 111 56 211 75 121 220 220 150 170 83 154 44 180 18 4 60 216 233 244 71 100 126 206 50 122 250 99 154 18 2 21 103 66 233 59 164 190 36 199 142 155 254 38 234 88 141 103 156 30 228 160 118 71 138 141 78 30 43 123 83 229 142 100 161 29 199 92 18 1 174 43 87 84 143 60 72 92 35 182 121 47 191 232 14 45 204 234 208 206 119 129 128 158 169 68 107 133 58 253 62 
76 98 82 28 93 112 165 238 202 190 56 250 145 228 149 184 31 44 45 224 18 70 63 200 67 61 251 237 4 170 232 207 166 40 131 3 63 7 41 131 169 69 54 72 206 185 111 27 35 146 157 168 115 0 123 212 222 49 210 80 33 127 227 110 24 232 5 52 129 190 143 176 2 159 248 138 110 168 61 224 68 230 131 77 120 13 254 75 118 109 17 188 101 33 183 195 168 138 33 216 171 252 161 28 220 182 198 233 247 24 201 174 135 16 39 250 170 214 144 214 20 217 0 88 86 249 44 117 96 246 31 23 69 40 37 111 63 113 232 141 243 113 217 46 246 248 209 213 143 193 248 29 191 93 231 77 126 109 9 45 72 20 71 24 216 172 228 83 52 184 165 157 233 26 54 7 152 135 201 6 177 55 0 199 127 225 13 194 101 230 24 146 103 205 224 4 235 239 166 110 193 115 71 66 98 125 168 226 117 163 86 182 152 161 110 125 92 77 187 224 145 205 31 77 197 7 52 2 7 89 50 104 241 138 20 163 229 1 246 103 150 53 194 13 202 101 11 230 95 137 57 207 140 136 231 5 106 171 137 59 179 82 82 234 201 230 85 233 250 14 234 61 2 38 83 50 209 237 159 171 143 125 207 182 222 129 56 99 95 162 40 215 119 66 204 156 83 109 81 59 
41 12 74 13 193 92 82 78 53 159 242 115 245 18 197 189 13 30 217 15 171 210 89 253 219 145 105 37 150 8 82 194 251 99 223 126 220 193 7 136 124 229 203 231 151 46 98 14 163 201 148 176 86 37 100 213 104 167 241 46 154 160 158 165 247 124 113 57 90 60 185 9 48 38 244 174 127 186 239 206 40 233 47 238 105 130 144 136 165 237 44 94 104 27 126 13 166 189 200 229 67 180 177 248 216 201 51 113 181 159 180 40 34 229 115 115 235 208 38 62 27 201 226 94 7 99 58 34 142 143 171 43 160 19 56 126 253 56 81 216 63 195 249 66 27 39 40 228 228 249 110 30 80 164 218 213 127 94 26 11 57 91 227 179 120 64 148 195 38 218 22 138 39 16 6 68 154 22 22 236 92 228 176 81 206 231 221 108 217 246 102 241 47 135 57 36 211 35 13 238 219 23 73 48 117 109 34 87 40 26 4 49 92 121 52 255 29 248 179 203 28 18 101 251 246 125 114 39 185 164 237 40 165 87 180 113 47 193 151 163 76 155 188 91 235 160 65 78 195 65 36 153 80 153 96 82 24 163 89 99 51 171 122 152 10 2 29 246 95 246 171 79 142 1 4 19 18 65 33 105 74 40 248 126 125 117 159 29 29 99 181 129 72 32 254 103 148 128 77 103 
12 243 167 131 118 181 165 1 216 68 26 118 58 23 246 36 172 141 106 133 139 36 77 40 1 235 191 188 203 58 12 107 63 160 211 105 141 29 103 204 69 145 117 158 25 117 231 48 229 201 9 178 236 77 234 1 100 244 6 192 54 150 33 170 255 229 118 38 90 162 17 28 97 17 122 8 113 170 147 77 46 17 195 203 199 72 84 179 124 36 26 154 93 253 86 205 84 170 217 229 101 172 109 155 53 170 112 221 201 30 194 33 145 77 226 249 165 124 83 231 78 97 69 115 200 216 113 124 70 215 69 204 55 164 65 239 200 69 161 68 170 57 60 84 21 101 172 99 13 81 175 69 228 148 205 115 0 141 59 94 222 84 0 3 87 240 86 192 34 203 83 102 155 99 200 143 194 65 106 50 135 47 47 116 69 166 251 193 140 134 124 28 35 9 82 179 77 250 116 183 76 34 207 106 36 4 48 122 161 202 99 141 155 126 157 29 121 125 23 134 244 41 252 93 30 223 133 4 162 41 98 123 77 52 93 121 205 132 58 188 185 230 225 157 210 166 191 231 137 3 105 233 193 224 130 202 213 188 224 29 221 228 234 181 45 231 68 187 31 75 175 253 19 126 42 137 179 15 93 123 124 30 56 19 122 18 216 11 82 138 170 39 134 149 210 13 245 37 206 87 
161 193 86 231 181 123 135 122 199 34 65 128 90 184 206 44 167 38 196 199 157 47 44 73 38 163 227 42 172 213 65 118 220 78 249 32 169 195 64 152 148 69 50 159 43 184 113 91 208 134 15 166 188 149 174 172 68 118 229 181 90 223 230 63 86 91 94 80 247 64 157 10 164 225 247 128 248 6 106 200 126 153 129 82 185 162 119 119 104 118 160 85 7 42 5 219 153 78 78 32 165 216 230 249 127 95 89 202 200 138 1 156 56 199 225 112 155 64 209 211 26 11 220 179 188 160 230 113 45 145 145 55 189 117 98 140 171 37 32 38 164 44 125 255 135 120 249 171 107 86 2 232 227 157 96 119 129 40 208 42 152 138 239 63 70 254 90 236 178 157 20 59 147 212 40 24 242 20 143 168 48 203 83 221 74 148 245 72 92 170 13 46 100 163 48 221 73 91 22 64 28 46 252 178 157 106 72 16 1 3 108 18 242 137 12 219 216 88 99 206 87 15 227 164 24 67 27 187 205 116 222 177 111 63 162 50 202 214 38 14 60 174 88 143 186 119 117 9 19 81 114 178 121 61 155 180 61 209 122 129 218 49 250 103 53 58 204 100 35 0 10 59 44 123 26 199 143 125 214 144 133 231 233 156 202 29 124 136 90 183 19 215 120 122 177 137 245 134 67 239 
175 208 59 191 88 211 124 100 121 131 118 151 182 131 146 51 83 151 208 69 247 92 174 99 176 55 77 64 56 139 207 125 119 47 3 193 72 31 68 11 128 113 158 71 45 139 51 32 27 148 221 22 157 40 21 208 137 80 20 179 133 177 55 179 129 3 168 105 133 197 59 102 173 47 150 200 114 105 149 11 42 250 237 33 210 131 15 196 12 173 79 11 100 96 69 59 215 54 115 224 150 47 41 29 7 166 166 65 13 131 128 154 137 179 70 142 33 213 99 231 64 54 69 111 93 0 191 189 129 174 172 78 3 195 214 216 150 188 22 218 135 67 188 120 63 165 48 134 15 134 218 227 45 212 64 8 249 249 110 224 133 85 155 219 85 235 9 62 99 90 45 189 102 16 16 75 84 186 245 49 38 254 60 93 219 109 134 253 191 179 26 77 237 17 136 173 19 14 140 247 117 105 52 15 53 81 69 188 209 216 220 182 237 166 81 0 83 234 96 119 56 151 139 172 193 204 186 239 197 147 37 172 213 207 115 251 121 112 35 114 189 233 44 61 236 228 224 113 156 52 22 158 234 11 136 164 7 109 122 199 244 228 157 5 137 118 50 166 188 212 114 22 32 212 46 240 172 33 179 91 190 49 240 153 95 120 219 221 201 220 16 93 39 104 187 169 155 68 185 59 
133 229 250 79 3 129 42 245 180 198 144 100 194 203 54 145 31 71 74 0 14 1 196 218 230 135 73 65 18 35 79 224 93 11 131 198 109 216 103 116 140 57 64 52 175 233 47 173 176 222 158 181 223 196 221 102 185 169 13 116 247 250 62 189 203 174 212 34 102 193 47 150 189 228 139 116 141 115 36 22 156 167 158 163 67 13 165 40 41 54 209 235 81 176 204 252 87 54 182 12 246 36 200 130 206 46 56 204 100 80 93 243 107 8 20 115 66 196 98 73 189 150 91 77 40 47 66 194 137 11 241 44 38 233 123 97 71 126 17 227 61 106 34 109 163 107 198 204 228 209 93 240 254 50 115 67 133 94 232 58 234 149 77 41 253 248 144 91 177 62 220 98 31 168 187 172 206 55 126 87 50 28 222 70 114 112 227 117 111 37 5 137 1 61 146 172 131 57 79 151 147 213 98 240 19 242 111 215 115 212 2 188 51 141 45 115 163 185 114 138 238 108 226 218 86 105 135 92 193 149 0 62 117 171 107 54 32 48 136 23 27 170 26 162 239 13 145 158 25 118 231 43 10 27 200 83 114 130 245 226 190 242 234 119 223 40 191 220 78 74 76 147 77 33 144 177 111 130 84 240 90 13 11 255 204 27 253 28 220 241 164 229 131 58 86 107 90 180 37 137 
165 41 4 116 145 161 43 146 186 214 188 144 240 232 166 175 59 82 201 94 28 29 92 14 22 83 140 66 109 183 102 229 46 179 247 225 111 146 178 237 216 239 18 166 99 109 128 226 95 169 118 65 187 109 229 5 129 39 212 35 161 153 74 153 240 209 111 3 112 92 238 105 210 183 157 92 57 6 96 65 65 8 75 236 64 75 6 113 204 156 118 54 125 194 153 77 243 108 178 1 27 103 167 175 175 20 167 216 252 26 15 115 232 88 143 136 51 30 137 250 253 156 185 165 137 154 27 168 64 106 9 4 249 27 164 103 119 240 118 66 51 16 86 33 92 127 139 60 29 77 52 73 30 14 231 149 77 138 152 83 222 181 188 52 144 225 175 56 51 50 83 195 103 82 251 243 166 103 135 49 133 66 208 6 54 217 70 48 82 248 215 246 213 51 19 184 107 31 142 202 234 194 134 131 31 71 198 144 205 246 202 142 243 100 36 217 78 231 31 158 31 77 161 56 46 206 86 185 15 62 10 198 164 136 87 169 227 87 129 161 217 22 158 124 239 27 250 104 109 31 185 7 60 242 190 193 240 108 204 94 6 167 235 212 105 107 14 93 59 234 242 205 211 174 73 35 2 207 24 94 155 105 94 146 50 77 246 58 35 247 190 208 215 193 249 155 66 86 242 201 
176 104 227 189 194 166 20 170 179 232 71 97 224 173 84 103 136 200 17 75 208 86 116 54 10 243 252 196 54 46 76 18 201 58 26 25 174 230 71 58 139 206 79 25 69 211 228 175 198 202 214 155 254 113 54 185 39 167 187 246 78 220 100 99 15 198 95 136 160 85 42 250 17 234 248 48 209 196 86 146 117 186 14 211 181 48 76 129 183 68 255 218 145 72 130 226 9 117 124 178 158 221 5 19 205 162 10 75 141 102 242 55 28 2 129 154 253 123 253 181 66 50 144 24 7 90 238 183 63 175 55 64 179 101 31 172 71 95 76 21 127 162 0 199 67 9 247 153 223 58 147 126 78 216 54 87 184 251 239 11 57 221 90 218 228 214 193 238 8 138 135 51 177 97 199 105 114 55 56 120 98 85 84 3 101 160 185 63 173 17 207 6 128 101 171 39 59 22 51 1 151 137 131 80 43 137 144 70 50 244 11 222 143 180 137 109 14 241 224 121 237 133 212 207 155 177 243 208 191 14 189 12 124 198 8 18 243 3 163 133 10 168 58 115 108 64 121 227 210 51 116 173 128 64 71 143 18 39 249 124 120 166 167 55 64 167 222 33 19 184 72 80 131 187 139 224 4 223 110 142 55 207 62 130 111 41 112 109 110 49 135 212 111 199 56 172 106 150 204 38 
147 143 199 204 35 150 199 205 92 122 174 149 199 43 3 161 193 39 150 146 53 54 99 128 171 87 185 144 130 250 156 201 121 111 103 35 117 159 182 225 126 250 130 33 10 176 142 178 126 36 2 37 242 158 86 39 52 63 114 14 16 59 20 177 207 66 113 125 254 63 31 197 113 69 50 90 135 198 166 92 174 7 253 79 42 208 40 113 19 104 171 75 157 193 253 135 157 239 45 1 72 222 203 33 61 69 6 103 198 214 18 71 90 184 205 56 103 54 161 8 79 185 172 114 176 243 30 242 233 94 227 216 218 229 131 156 235 224 70 113 79 70 155 28 138 30 186 7 48 55 137 145 240 25 188 169 210 59 65 155 189 119 219 41 60 186 13 222 129 0 57 159 171 128 9 131 68 35 14 229 14 59 167 183 255 114 37 24 138 0 44 41 32 34 92 29 247 199 49 144 10 140 40 26 97 234 36 35 146 174 15 249 136 170 196 31 131 171 45 233 96 171 168 69 27 71 176 220 146 115 185 90 139 108 91 9 249 238 179 165 123 168 7 108 38 237 168 116 132 172 29 65 220 162 125 151 180 206 29 141 149 37 107 227 14 136 26 149 251 243 128 176 8 247 60 101 112 106 27 92 11 93 61 75 135 78 115 198 245 159 236 89 136 71 17 212 154 200 173 230 
240 97 81 237 63 132 247 13 239 138 229 127 30 166 212 44 232 23 82 123 230 162 101 103 244 64 113 212 56 20 91 35 96 159 239 4 42 55 127 139 42 181 205 135 200 111 44 15 136 102 225 93 142 192 207 224 97 120 84 140 239 84 110 117 209 23 34 156 209 248 30 8 169 84 157 25 14 160 139 26 237 161 233 21 245 223 116 235 85 87 129 163 199 112 44 3 205 48 177 93 58 176 26 172 245 205 27 224 250 33 58 117 161 50 50 74 35 232 154 177 90 69 194 194 200 80 222 246 219 82 102 241 111 69 188 158 149 138 16 129 147 218 129 73 44 127 132 165 33 196 138 89 247 170 221 145 251 220 203 117 132 229 7 253 120 161 76 7 17 241 67 167 225 179 167 190 20 242 167 206 246 89 140 12 181 238 155 183 103 253 61 169 78 81 93 44 91 170 18 14 242 108 126 248 237 149 246 251 227 241 98 108 170 145 231 242 26 121 196 221 20 153 122 185 195 255 48 35 34 74 85 220 191 98 135 28 190 102 180 41 32 230 127 39 70 83 229 50 176 179 32 170 11 153 203 206 107 85 72 141 213 104 95 152 0 59 39 188 92 16 42 111 84 56 196 169 208 134 204 245 255 5 118 199 83 230 120 16 205 188 108 16 122 236 118 107 62 94 38 128 
208 121 160 246 6 79 250 151 83 20 229 98 142 213 144 219 244 102 201 166 113 157 102 84 27 189 227 125 255 53 76 15 33 139 93 229 190 147 233 156 212 228 120 162 229 140 52 143 247 3 6 185 223 94 252 2 191 197 238 245 206 39 97 18 87 44 171 101 5 108 88 94 93 222 205 220 140 147 43 139 99 164 118 112 160 105 247 194 111 235 222 252 48 156 44 48 123 70 208 158 97 66 16 133 245 234 43 57 12 80 61 118 64 49 98 244 59 36 30 59 50 23 253 185 175 252 118 18 148 192 21 183 93 125 218 186 165 240 220 225 235 45 49 249 151 145 18 108 56 249 59 22 16 49 145 85 210 176 7 95 170 130 194 217 126 133 124 165 116 216 38 251 180 145 209 187 111 174 206 1 32 79 20 250 17 34 227 247 33 30 167 192 198 116 31 43 78 194 190 237 106 138 82 175 236 228 227 101 208 111 222 219 121 141 115 144 62 208 59 200 37 175 30 221 238 126 116 214 84 157 106 58 143 239 167 39 29 141 48 158 194 188 137 33 206 29 30 128 158 36 225 240 101 203 51 93 45 136 8 1 24 124 70 54 236 237 111 136 206 246 128 15 78 125 25 252 164 102 221 113 57 6 28 150 106 219 176 233 136 122 36 213 35 200 28 135 136 109 240 253 
136 134 155 95 123 154 212 147 133 208 122 12 24 95 53 226 186 69 91 40 9 60 16 122 252 234 178 213 107 88 116 171 210 165 72 55 82 252 3 15 248 195 187 248 66 21 116 253 223 115 252 195 183 182 20 23 43 72 208 201 158 148 65 189 52 187 81 63 217 137 237 151 134 167 106 221 191 18 33 15 97 203 93 97 154 209 120 212 57 76 64 10 40 11 159 89 54 48 124 30 26 42 220 84 181 228 77 101 152 60 132 63 198 183 69 171 187 115 131 218 173 93 201 65 17 163 216 168 97 109 146 125 29 200 22 109 16 226 45 54 212 125 229 182 152 158 123 72 33 133 126 81 15 226 50 22 98 70 51 209 60 216 90 3 232 73 228 11 28 10 209 248 123 188 139 156 94 232 200 225 212 240 177 97 232 69 68 48 34 219 247 252 80 218 158 89 133 151 142 86 99 194 3 84 150 225 191 24 161 252 244 30 221 154 100 48 190 237 199 56 89 74 109 83 35 220 36 38 252 152 92 117 108 115 137 241 44 211 201 82 232 68 199 166 67 109 223 233 28 66 131 213 15 123 221 251 63 68 181 19 83 54 150 145 191 134 44 121 69 124 241 115 187 39 9 34 14 80 105 178 135 172 63 176 77 85 142 31 44 123 25 200 148 87 131 209 229 97 180 145 
233 195 127 163 162 13 129 57 71 42 76 179 137 147 197 113 26 194 202 229 112 234 24 236 199 229 108 94 101 110 233 227 33 144 186 9 38 94 248 148 245 229 206 22 169 95 219 191 127 170 215 117 149 248 122 39 242 199 153 95 199 20 147 23 244 203 235 206 206 131 54 219 32 104 56 0 112 120 74 66 131 243 254 248 35 12 6 35 31 229 82 253 148 186 121 213 107 93 90 25 35 226 3 181 208 155 210 155 100 71 217 163 46 134 135 150 160 144 133 133 85 39 223 96 83 202 100 196 141 44 79 19 172 228 39 202 14 102 227 15 15 50 82 138 136 75 186 118 150 235 192 248 157 117 135 175 140 171 28 140 98 33 18 228 241 241 105 195 225 177 181 132 249 162 123 158 154 42 223 193 140 133 124 34 254 183 148 19 199 197 105 214 242 36 234 179 122 114 146 72 82 100 142 33 168 0 30 136 107 12 61 158 11 198 132 171 128 213 76 179 141 128 19 74 70 30 33 168 208 205 106 0 104 103 183 14 166 178 1 240 3 215 29 54 154 22 159 60 43 183 248 184 101 68 225 143 101 245 253 237 122 108 185 148 43 162 120 116 123 34 237 124 107 117 199 177 193 221 148 125 8 70 223 73 216 121 156 78 87 147 199 167 0 181 71 171 163 254 24 123 
173 182 169 215 170 204 131 54 8 131 44 21 30 104 75 143 109 135 12 46 37 222 198 1 235 18 220 238 217 97 225 74 198 216 255 167 200 198 153 237 248 112 47 173 117 6 130 177 172 214 249 216 214 192 68 33 193 234 63 5 212 181 25 10 78 239 181 149 206 74 80 255 24 12 101 236 22 9 205 216 29 206 43 243 114 32 135 47 13 165 57 151 156 224 9 226 203 99 148 72 195 63 242 148 240 192 149 123 8 87 116 44 73 216 105 40 2 229 216 84 84 170 146 76 58 204 249 251 199 155 100 105 175 143 197 211 9 242 137 1 83 218 191 212 183 90 125 31 140 249 127 183 32 99 18 206 181 95 48 124 201 1 237 159 155 33 18 229 234 12 7 39 0 120 246 249 239 190 45 127 27 67 196 130 248 55 128 194 21 131 248 142 90 252 246 147 142 221 32 242 27 116 216 149 22 27 96 194 122 106 66 240 180 171 239 218 101 142 166 211 99 31 151 89 1 244 73 236 144 171 57 33 37 148 196 242 157 170 70 88 223 200 132 28 97 25 71 233 238 209 74 167 166 26 86 4 70 81 172 83 169 115 163 154 143 210 146 230 158 13 240 226 166 62 186 168 41 117 21 215 27 102 53 230 230 94 125 184 177 124 232 112 226 29 167 134 225 152 12 27 
31 44 166 137 88 54 174 63 21 167 161 204 116 182 47 57 43 210 84 156 203 219 197 234 66 145 141 13 164 77 248 54 43 239 176 117 124 23 38 135 43 152 51 239 130 41 0 72 126 94 35 217 27 215 10 106 209 184 157 86 95 88 31 226 199 62 85 205 154 73 235 40 117 46 19 104 204 40 111 186 230 234 49 150 41 217 129 151 152 120 31 138 154 35 73 197 253 1 223 186 58 52 197 203 251 82 137 96 218 25 69 55 108 94 199 252 126 71 240 26 158 186 90 208 222 21 61 135 212 32 148 99 229 64 123 24 196 237 220 255 53 101 74 105 23 162 45 51 161 138 32 154 236 103 151 81 177 150 197 209 85 131 189 241 34 213 215 182 216 229 85 108 100 117 70 245 239 159 171 98 26 11 217 192 136 101 30 52 158 14 167 75 134 18 161 139 122 91 159 78 63 36 60 208 239 176 1 134 252 59 137 177 114 49 226 52 124 158 55 162 42 229 172 156 113 182 138 90 116 58 156 135 1 144 217 82 95 125 66 194 71 95 14 73 48 99 5 157 208 248 42 195 223 132 156 108 30 85 190 133 152 218 150 10 39 19 115 27 59 70 211 81 215 244 131 82 220 11 8 163 138 93 62 190 68 81 63 101 147 216 134 53 110 163 85 126 185 148 83 82 
11 114 122 220 180 224 48 243 255 144 180 239 180 180 188 188 225 181 93 45 218 40 42 146 127 254 160 140 189 250 194 32 88 105 0 11 231 13 93 85 32 90 209 41 85 229 236 228 63 25 189 108 251 43 242 195 82 81 64 220 61 47 6 173 168 146 45 133 119 97 82 160 199 209 39 249 118 215 22 95 229 227 40 203 252 203 38 241 111 5 254 21 64 26 103 32 134 87 200 243 108 198 86 251 124 93 125 5 30 116 130 84 91 125 102 241 231 239 13 67 95 131 160 223 207 163 47 161 119 31 155 252 207 35 179 142 200 102 157 248 85 163 120 236 42 77 63 136 195 127 240 226 169 50 238 228 241 178 164 90 5 83 108 73 167 95 175 130 50 84 77 120 35 76 63 79 217 189 123 53 153 98 23 245 213 121 178 201 174 47 16 112 183 89 4 129 252 100 147 255 67 143 86 45 145 87 32 164 240 51 225 162 112 130 202 165 108 194 178 57 14 2 185 14 21 154 43 77 214 25 167 44 129 127 128 193 166 173 99 19 248 25 58 119 80 198 81 26 245 116 183 218 26 20 232 90 168 126 168 85 62 102 50 50 118 140 146 217 107 52 80 198 120 214 78 91 66 22 243 123 248 246 137 84 217 75 228 124 247 110 69 64 59 51 126 57 170 31 86 32 
230 213 46 226 248 210 229 247 76 90 250 240 253 178 240 80 84 144 247 157 139 208 200 183 214 104 209 104 164 158 146 59 33 121 71 146 0 117 199 243 121 122 172 163 141 15 180 118 145 204 103 229 234 13 250 97 22 238 116 231 236 115 15 213 36 6 225 252 25 39 187 246 206 95 82 185 47 117 156 109 154 229 125 123 158 142 163 231 3 171 175 223 10 4 149 148 245 102 69 72 202 80 139 168 85 239 51 93 108 76 114 222 119 197 129 136 47 186 139 240 165 136 201 120 134 187 236 32 158 127 187 159 156 88 253 179 21 19 153 181 203 253 252 112 46 82 187 51 35 248 121 37 5 109 12 217 233 255 219 34 39 59 138 41 22 167 218 188 22 180 202 233 212 238 3 204 201 118 114 165 4 178 55 45 42 67 190 43 187 55 43 66 150 128 252 13 192 165 233 110 97 184 15 34 15 136 78 153 79 23 240 5 89 79 139 178 28 240 40 149 130 205 164 39 245 56 87 116 34 187 244 110 253 9 176 136 5 51 167 128 201 31 123 124 171 55 62 89 228 94 146 64 200 40 14 122 75 74 228 133 197 79 193 103 242 141 245 66 61 88 212 41 62 117 92 50 129 209 24 204 137 115 67 83 20 176 49 226 161 158 235 105 48 203 26 255 73 46 38 121 
63 93 158 59 182 1 219 78 99 135 224 179 19 25 133 247 239 205 213 8 254 28 180 71 235 149 197 222 9 210 138 84 148 172 205 95 58 171 63 249 217 192 96 181 139 55 158 84 224 231 193 147 106 172 134 72 127 23 138 173 58 99 106 252 195 171 41 60 208 91 210 90 108 229 94 123 248 181 215 145 111 102 190 44 238 54 171 148 115 183 51 20 228 200 14 152 84 196 121 123 131 249 218 154 163 92 163 173 98 122 120 215 36 178 148 123 144 162 105 82 79 223 134 186 16 233 190 81 208 94 135 195 88 109 160 224 7 142 247 242 209 112 201 77 136 51 11 39 90 216 9 170 156 246 77 72 198 174 194 79 190 224 25 189 89 159 108 85 31 227 33 242 78 126 18 28 34 82 234 217 84 192 210 197 224 100 78 101 12 255 97 185 166 180 248 16 141 120 134 32 115 196 235 86 224 140 154 107 122 117 251 56 133 67 14 203 166 144 82 186 236 196 229 183 16 65 236 101 252 222 53 107 139 151 27 198 144 131 170 99 25 6 4 237 245 71 3 228 115 228 32 239 109 229 148 115 133 239 189 100 175 186 194 91 240 197 122 233 101 73 138 44 134 107 206 159 172 181 251 54 209 199 130 171 151 74 183 18 140 38 50 180 173 245 117 26 41 183 208 104 
103 199 130 237 73 14 33 247 179 118 60 236 71 161 62 150 115 220 149 191 174 78 20 254 254 117 150 208 190 212 229 234 158 229 218 206 235 85 197 157 17 112 14 44 94 219 29 89 8 129 120 160 114 207 43 233 171 36 109 164 55 131 128 24 19 140 217 248 243 170 129 56 206 141 187 30 156 219 231 156 95 34 166 221 96 18 63 30 187 233 66 191 29 46 107 154 205 162 200 147 233 116 30 112 243 180 138 236 140 10 100 6 126 168 104 159 0 125 24 68 54 171 92 73 248 60 108 23 212 16 239 198 86 26 101 239 134 205 194 187 179 208 91 64 111 249 6 14 219 121 125 4 37 84 4 105 78 21 76 56 49 191 150 186 193 6 27 90 146 191 172 182 155 150 150 242 58 255 200 81 120 111 56 6 143 203 130 71 169 33 210 164 235 150 5 151 178 159 11 92 28 116 144 2 203 194 219 195 229 160 246 145 95 197 15 241 124 248 30 12 144 199 200 3 10 124 131 132 177 77 252 155 46 211 182 202 203 190 243 91 122 198 215 245 25 229 203 110 244 195 32 224 140 114 244 255 151 91 90 169 71 120 181 191 207 196 101 52 36 240 166 99 0 88 180 166 45 53 52 36 0 20 207 234 36 135 32 62 152 26 208 47 251 136 255 113 8 47 230 104 
93 194 187 131 128 62 213 203 35 31 17 188 167 211 116 83 224 111 18 104 24 161 46 62 86 229 162 89 224 252 130 143 254 155 252 98 1 96 130 141 132 9 44 221 242 232 87 66 72 146 147 38 28 216 188 253 223 248 102 30 95 20 126 209 143 226 47 169 139 166 3 20 215 93 75 48 231 59 192 224 229 88 106 32 174 167 193 149 30 39 19 104 141 93 37 85 153 1 29 255 38 248 159 135 164 130 55 92 145 181 247 85 62 42 97 253 213 246 135 46 155 219 112 225 115 192 190 68 164 95 142 13 219 62 160 14 116 224 184 10 245 60 67 200 219 110 62 101 154 173 84 238 223 125 70 47 24 37 144 197 54 100 74 123 177 96 76 211 205 223 149 226 29 185 238 97 69 142 202 2 3 180 113 0 113 115 93 250 132 117 228 1 217 120 24 240 177 70 236 251 58 231 152 139 16 21 62 74 3 240 205 121 27 243 38 138 217 39 125 235 192 150 2 32 20 3 193 20 226 216 199 177 64 96 135 174 214 54 124 168 157 254 15 117 231 82 186 181 160 255 110 169 211 114 50 73 111 109 14 144 76 255 39 27 105 178 43 242 120 6 239 166 156 30 87 156 113 186 119 168 77 101 247 221 197 240 188 164 115 30 196 12 247 161 82 97 60 69 76 0 
253 108 225 105 135 186 110 150 192 17 163 140 104 192 226 47 159 247 231 90 167 127 174 47 236 167 145 172 65 130 178 127 109 79 152 28 230 57 29 12 220 65 135 136 121 120 245 70 104 113 253 147 148 246 147 162 50 250 44 36 1 207 36 24 208 153 93 229 66 3 42 166 206 48 107 197 9 245 249 203 40 69 68 118 192 236 58 13 209 128 107 240 3 149 107 115 47 49 120 236 33 128 93 11 157 200 150 106 159 158 181 101 231 91 5 44 181 202 108 22 210 35 150 57 207 61 79 55 145 255 49 90 14 24 128 228 81 239 82 160 196 221 243 189 174 155 135 220 251 246 241 104 60 202 244 38 238 45 152 13 255 235 208 87 142 51 89 216 243 143 229 143 255 25 121 123 132 237 20 175 24 218 145 169 23 93 206 224 231 207 14 156 128 221 156 10 43 57 178 144 137 143 152 94 216 187 16 70 114 57 242 205 150 220 20 130 107 195 108 142 66 138 121 141 28 189 222 156 108 146 81 179 30 215 179 54 215 41 128 198 127 103 106 93 253 102 65 154 65 230 22 89 136 197 160 135 219 115 223 53 217 166 254 234 183 79 126 62 133 204 145 164 179 95 196 136 211 223 225 154 160 173 20 105 64 234 76 51 198 231 228 251 251 221 131 221 94 223 65 159 
105 12 11 136 22 9 72 117 162 175 188 41 145 0 173 229 242 96 69 56 228 2 56 25 89 160 167 51 26 111 67 128 12 82 181 25 177 77 62 77 241 61 154 240 27 199 43 245 39 143 83 64 62 170 34 181 124 85 49 149 244 231 205 10 244 4 88 0 139 20 237 55 73 243 67 150 70 234 212 195 101 223 62 240 218 200 233 248 234 102 234 170 242 47 39 100 171 140 188 229 172 68 158 92 49 56 126 196 26 82 241 116 55 184 205 242 194 69 214 9 45 57 154 27 31 47 153 184 185 80 169 110 29 199 153 227 49 116 21 34 160 229 201 51 34 130 202 238 254 7 49 16 205 56 9 143 128 208 107 43 164 186 231 70 229 131 38 245 209 16 206 87 223 140 166 38 176 165 251 139 148 248 66 55 80 201 254 175 31 248 228 231 246 48 61 19 12 98 141 186 154 114 114 12 223 48 206 117 104 137 40 114 142 255 80 164 64 86 66 35 3 144 77 20 54 28 117 126 155 75 21 89 19 3 201 232 169 183 138 73 210 150 27 75 243 3 165 127 36 70 158 146 52 129 238 217 237 229 85 46 153 37 7 251 197 43 154 148 68 11 34 202 119 53 155 189 204 238 135 241 133 1 215 164 187 177 15 95 162 243 166 204 14 218 171 199 54 83 175 183 
184 18 222 31 222 204 111 112 32 167 63 34 234 239 184 2 159 10 248 206 221 174 47 255 3 81 73 230 240 225 206 250 14 182 6 113 144 197 96 13 247 22 20 57 219 120 8 84 232 115 241 77 39 126 186 112 126 114 41 127 123 63 192 5 77 221 225 231 19 134 54 60 90 35 80 94 224 4 142 65 158 211 65 4 6 203 13 198 138 37 147 187 93 211 76 127 125 113 184 170 241 121 185 164 79 182 57 187 130 251 19 114 202 20 49 28 4 253 242 170 44 82 206 194 32 7 60 17 167 89 211 225 177 4 176 238 225 183 25 117 72 197 95 143 116 29 9 189 169 124 46 196 110 225 35 187 75 66 87 98 210 125 122 181 220 145 229 193 21 14 54 183 187 202 58 63 162 214 17 14 124 176 140 187 87 186 218 206 103 235 100 27 6 197 245 78 249 135 30 198 245 163 217 167 97 114 108 42 94 39 144 56 5 2 211 56 239 198 59 37 251 108 44 227 75 25 139 211 144 78 36 165 136 94 73 109 197 38 188 249 175 248 208 98 204 216 202 226 63 235 141 229 143 44 119 99 170 97 134 108 42 78 191 5 214 40 208 50 108 76 244 84 158 49 23 181 90 155 59 98 78 18 26 57 172 147 12 66 42 133 44 67 78 238 182 142 232 231 180 30 
224 78 218 226 49 186 174 89 54 180 236 95 37 36 40 71 217 9 181 41 212 109 198 125 132 153 211 233 197 133 62 88 168 146 55 76 114 123 221 117 232 137 165 130 202 7 0 55 158 246 56 192 174 2 155 69 84 180 220 190 117 232 182 9 76 130 210 57 105 93 235 50 249 132 48 115 71 165 234 50 131 194 94 174 195 42 245 193 71 168 154 180 1 250 100 88 84 132 117 82 29 70 34 183 240 12 84 217 164 228 45 96 17 213 239 156 24 206 26 25 228 221 213 116 112 161 143 110 73 2 230 63 150 31 200 45 85 136 216 92 231 174 19 232 207 152 179 49 183 215 83 118 179 187 85 166 202 199 129 114 179 99 238 167 220 209 38 187 177 98 133 165 26 234 226 242 69 113 114 22 167 43 232 0 61 171 225 241 24 83 128 141 24 15 85 51 248 67 132 138 138 1 35 92 68 128 227 168 252 201 243 242 240 180 33 222 9 19 67 253 97 45 213 231 2 110 227 138 241 92 42 193 107 205 122 41 110 87 94 48 123 9 255 110 155 88 70 57 160 92 65 115 173 61 200 167 248 232 96 84 207 6 95 137 217 46 81 178 159 89 155 178 74 151 94 50 174 1 158 56 136 239 164 251 4 107 160 246 131 229 147 59 154 40 108 10 94 140 113 162 
223 109 225 87 242 221 216 229 52 150 114 4 75 50 51 60 111 159 167 251 42 205 69 229 91 169 153 107 129 79 163 159 54 123 122 70 250 65 52 47 50 255 10 196 112 143 184 223 245 193 35 223 117 8 62 250 26 115 46 213 203 223 173 81 173 108 172 168 234 45 60 186 178 36 174 161 128 109 249 139 159 185 93 201 236 254 70 35 221 109 115 111 194 165 87 98 75 38 192 165 75 8 182 43 187 237 166 195 2 52 192 233 116 111 157 226 24 23 37 8 174 127 176 98 240 7 107 119 25 146 254 100 164 58 107 45 86 66 57 81 126 75 211 161 124 203 43 81 128 188 162 80 148 145 44 213 221 110 175 59 29 152 173 14 125 43 35 102 138 11 177 115 125 28 250 90 191 182 78 63 172 83 135 163 152 139 48 241 15 67 237 83 97 33 22 202 94 67 166 126 95 48 84 83 134 14 255 188 70 22 79 212 37 70 154 171 192 85 4 221 16 236 235 106 237 19 130 193 208 234 187 30 221 153 107 22 33 137 169 113 24 213 118 55 114 251 164 13 22 216 240 194 104 211 114 38 199 88 55 27 90 136 44 238 13 46 61 231 214 245 191 30 61 217 11 145 27 220 108 116 162 250 60 200 157 94 73 47 249 214 126 255 133 133 191 149 246 216 20 236 
46 187 10 110 190 12 86 9 169 79 188 134 107 164 47 22 57 247 58 46 139 119 158 149 216 73 61 188 160 125 54 77 176 65 82 6 162 84 159 200 163 190 90 235 121 191 18 213 196 5 11 203 131 33 225 6 219 60 109 10 20 6 236 51 229 240 94 145 241 155 45 246 145 144 15 76 212 49 45 44 196 240 133 173 235 190 141 122 22 198 25 40 89 92 126 198 83 48 248 181 179 200 73 186 251 45 163 81 133 228 200 68 195 31 112 125 202 53 235 24 18 80 7 189 119 101 52 45 132 106 230 26 241 195 59 60 106 253 222 161 147 190 43 69 72 252 148 226 41 110 67 9 86 64 0 114 119 11 86 145 0 4 241 105 179 116 75 165 102 104 136 229 6 169 158 86 220 238 184 133 15 81 221 117 106 0 204 239 96 53 43 25 77 104 225 74 255 195 193 29 117 214 104 196 230 140 104 159 6 93 166 13 132 198 0 131 215 246 51 219 58 203 252 238 245 252 126 100 223 152 228 203 33 175 71 231 60 78 210 73 78 177 36 35 145 181 245 91 36 140 253 222 14 180 17 55 128 42 144 96 90 219 253 216 241 91 237 245 15 217 36 124 60 83 251 111 60 6 5 38 217 41 241 161 227 218 178 29 116 89 222 229 120 116 84 107 109 66 34 151 
104 20 166 95 89 169 243 152 143 161 117 12 127 52 217 204 193 36 39 200 91 240 49 156 66 75 49 173 30 204 174 117 78 231 159 27 44 28 211 71 146 110 144 52 157 23 123 7 176 122 183 95 188 89 81 45 191 72 220 198 139 98 88 54 201 58 89 215 61 21 101 35 76 86 157 199 187 57 159 248 185 196 172 10 32 251 6 63 248 84 156 221 61 106 233 131 225 245 26 188 21 250 111 213 197 63 227 236 97 2 15 74 227 234 76 243 14 62 24 122 243 85 187 26 186 78 42 3 159 1 43 242 59 52 186 4 5 19 171 204 24 218 146 163 55 213 224 63 14 138 78 136 186 53 127 166 140 116 224 95 10 68 212 160 55 44 14 89 21 184 61 142 103 41 239 172 187 107 175 25 168 71 113 14 85 218 49 169 58 70 214 62 43 167 92 239 146 73 50 124 252 24 225 92 215 87 239 12 121 149 3 167 101 221 73 183 202 46 24 74 77 42 211 73 8 18 13 6 211 242 240 20 194 25 223 91 239 204 90 107 121 60 34 17 204 181 158 40 35 23 126 178 76 138 158 40 171 110 45 14 130 145 14 201 112 165 126 181 55 241 248 115 194 70 85 128 102 53 56 12 104 127 169 9 191 205 0 130 28 161 5 46 40 141 85 69 12 163 8 146 
55 44 144 202 91 157 228 28 185 198 223 9 159 77 226 118 47 91 193 255 97 149 221 143 76 78 141 45 161 250 195 25 120 230 236 24 79 39 23 12 79 209 90 199 210 105 113 33 35 156 169 72 132 48 253 88 118 60 126 44 52 148 248 115 129 136 210 6 163 206 54 121 176 188 114 239 8 186 158 51 35 248 127 5 141 92 172 178 46 191 239 232 207 88 238 199 218 120 11 59 97 120 136 138 98 240 239 41 74 42 177 212 183 215 13 221 130 0 51 197 253 63 170 9 121 46 239 62 12 32 95 96 145 15 86 104 239 214 153 28 159 160 241 43 104 161 25 121 109 4 218 184 106 36 117 56 59 254 65 0 158 231 149 29 57 122 232 58 223 213 55 113 15 5 168 97 189 190 108 129 85 79 233 179 254 214 25 29 28 176 45 52 24 52 119 25 99 161 134 41 184 84 147 208 162 63 28 157 63 150 206 156 67 203 168 224 63 189 94 95 36 45 251 3 3 113 203 253 22 108 120 93 4 189 115 223 97 55 149 8 116 145 7 114 62 95 95 101 183 65 11 166 91 91 243 148 229 5 90 112 91 195 5 253 74 119 160 73 83 213 93 202 230 24 222 172 78 243 85 106 238 203 234 156 202 35 93 16 73 88 236 27 57 142 119 49 19 234 226 180 
128 2 187 10 29 145 28 242 123 112 211 24 107 193 193 231 120 109 128 158 180 210 73 166 184 181 20 35 230 126 0 201 241 164 246 240 160 102 137 235 206 188 33 150 182 141 89 47 109 34 165 103 176 219 56 184 224 32 37 248 75 155 196 47 173 164 87 166 247 253 237 64 78 192 135 13 87 149 122 29 178 40 20 146 196 219 130 249 186 184 241 219 202 169 244 142 188 235 38 81 170 192 16 153 4 100 77 165 214 67 235 88 78 105 21 72 121 58 239 19 77 99 194 242 236 16 89 144 39 96 171 28 65 21 186 156 246 145 186 133 188 254 118 137 73 204 240 177 85 96 71 171 161 10 222 101 56 56 187 219 245 234 45 45 69 102 178 244 46 45 23 214 145 45 225 88 172 56 236 244 226 181 82 108 191 150 142 93 55 138 226 23 46 115 246 172 62 26 193 71 180 33 172 191 219 58 245 108 126 151 82 58 168 162 216 251 174 237 26 2 111 108 149 237 219 226 76 194 178 153 175 62 142 86 193 105 36 140 122 110 199 208 106 170 46 141 160 3 118 249 202 123 106 71 158 4 3 31 120 151 43 75 68 128 198 179 158 252 243 139 56 5 143 203 124 109 252 223 115 42 32 160 230 241 176 132 195 6 174 17 193 82 48 152 71 182 100 31 139 159 
209 159 247 218 223 112 208 170 154 1 25 24 179 204 181 139 199 137 205 152 228 162 113 27 74 232 130 135 110 132 207 122 69 48 126 149 190 167 174 138 145 89 90 118 55 100 128 114 57 192 131 100 174 185 207 28 255 163 187 156 238 201 179 182 215 166 150 221 53 88 93 53 103 81 254 236 181 80 143 205 142 143 175 18 19 62 34 122 218 49 187 156 235 214 127 123 15 105 7 90 75 107 38 210 167 80 204 33 51 120 42 197 76 96 23 74 28 26 179 96 96 250 74 48 110 147 123 240 118 225 153 181 8 200 81 137 214 189 141 190 188 196 153 130 253 154 132 179 208 51 202 244 27 103 47 0 126 232 238 62 147 119 19 150 116 87 38 132 126 2 9 106 85 28 35 43 40 165 191 245 55 114 174 94 146 222 52 179 35 189 34 140 238 145 63 164 152 1 236 232 38 134 8 206 8 104 18 232 86 233 141 185 89 191 169 199 77 200 31 241 101 250 93 3 16 153 227 136 123 172 237 224 87 177 82 146 220 144 172 227 14 206 185 167 63 3 1 87 213 142 185 100 77 135 232 203 128 245 200 234 37 65 111 145 152 235 174 93 218 124 58 65 216 188 9 102 240 36 255 53 177 150 202 178 226 76 11 11 198 15 182 112 159 169 187 38 113 156 230 215 
8 20 3 45 60 27 71 159 116 12 235 138 105 74 26 131 45 49 13 236 107 77 117 197 240 202 25 197 106 44 192 169 112 65 81 205 195 83 57 249 212 161 13 125 134 17 112 128 52 31 56 149 246 25 204 143 32 142 208 151 12 4 5 123 26 233 106 73 244 204 168 29 23 205 172 55 143 82 150 80 1 252 210 46 239 218 132 119 56 220 42 195 222 138 125 244 12 245 151 202 88 238 91 178 69 119 18 223 12 119 82 156 156 178 36 225 223 247 101 36 63 155 109 113 105 39 239 189 80 78 32 120 117 34 28 97 103 135 133 158 133 231 109 12 11 39 118 212 77 218 55 63 61 181 226 203 51 67 36 126 238 218 77 122 214 206 177 210 131 228 78 156 131 10 175 71 88 69 16 47 193 234 194 111 59 17 209 246 198 71 229 222 236 131 102 249 0 92 227 172 164 120 181 0 141 72 223 246 139 242 57 27 195 143 206 93 63 151 130 29 170 153 248 133 84 48 178 28 125 50 122 151 207 42 1 243 44 9 199 192 170 24 58 192 220 49 34 176 84 47 60 102 101 163 37 28 46 201 122 12 211 186 62 61 14 226 124 156 231 181 45 78 191 158 91 69 147 56 135 17 127 193 73 249 129 204 54 75 128 53 6 240 141 90 247 67 104 136 108 36 
70 180 218 71 209 108 228 210 113 13 197 40 202 53 239 255 134 123 241 185 84 94 158 241 48 124 108 84 230 5 26 178 209 110 150 84 233 106 29 145 253 22 164 156 60 115 119 160 250 26 32 15 177 43 138 55 70 135 102 22 142 63 206 111 17 76 40 29 14 128 78 168 191 188 236 22 221 100 41 3 103 16 137 244 160 132 17 233 87 227 173 49 106 31 208 130 141 180 90 73 72 150 190 63 63 103 100 61 182 238 76 81 84 197 245 17 39 81 125 47 233 247 9 78 130 141 103 20 205 15 242 129 159 148 182 127 6 128 213 186 206 250 42 177 74 161 43 14 81 122 20 50 134 45 66 21 220 114 220 77 90 198 185 108 28 98 126 143 155 109 7 52 46 113 9 76 208 12 245 146 35 232 31 26 181 236 31 45 130 180 119 84 187 63 119 179 198 232 94 152 134 152 194 84 220 57 50 74 110 110 25 69 167 129 229 15 255 157 105 63 124 61 128 82 120 228 244 253 166 15 158 194 80 103 206 194 226 60 237 210 172 47 96 208 228 46 176 56 234 166 232 242 208 243 63 110 26 28 247 243 194 189 133 52 128 68 242 37 72 96 129 12 19 183 146 219 226 216 198 189 0 112 100 239 136 192 252 209 40 78 74 61 36 219 92 23 158 150 247 37 
20 143 56 33 42 110 119 13 170 101 112 199 201 99 165 221 172 139 254 162 42 228 179 130 212 82 107 146 50 197 166 107 80 176 88 57 121 189 214 15 67 191 246 126 204 231 114 101 66 60 142 10 169 69 251 106 216 8 250 206 197 57 197 159 3 171 42 123 137 10 121 136 181 204 160 9 145 101 149 47 84 186 244 49 44 217 234 159 58 231 81 243 222 89 28 105 54 104 246 16 225 190 38 33 9 118 182 144 160 67 212 226 233 239 120 62 59 8 71 198 2 214 184 40 6 143 117 111 240 206 4 32 10 66 166 130 70 163 127 61 130 235 248 38 10 194 98 90 94 58 220 138 54 188 118 149 196 67 150 92 57 199 155 210 138 253 193 82 116 61 68 54 190 195 201 165 190 27 249 172 30 215 111 144 224 131 212 99 160 219 72 214 25 59 4 78 235 86 62 58 156 43 77 163 220 53 14 4 13 226 134 93 2 71 201 131 7 18 26 186 34 192 83 133 153 16 136 189 180 183 231 225 196 85 226 173 100 168 145 238 255 255 81 148 147 242 178 9 180 81 144 193 211 90 127 19 192 47 109 71 110 135 130 240 247 163 75 124 223 132 24 9 157 91 162 122 87 65 241 202 238 40 125 161 58 17 148 37 151 128 251 19 160 45 216 14 58 253 207 55 
213 48 108 253 238 220 193 55 216 154 80 112 189 127 43 129 224 78 89 102 36 235 124 74 210 19 177 228 151 75 184 6 204 22 85 115 250 107 245 242 158 102 149 160 41 62 224 138 75 119 151 123 113 89 54 19 141 160 213 25 21 117 76 18 78 157 154 19 202 241 136 211 47 14 137 4 59 77 229 228 5 246 22 15 134 176 114 151 87 60 11 86 188 99 212 131 226 45 5 132 101 84 192 3 21 248 244 68 250 148 130 182 150 49 158 200 105 218 120 253 187 79 28 67 149 254 151 129 17 46 92 111 211 126 230 170 216 142 158 8 111 252 254 40 132 146 247 78 36 189 144 110 62 65 209 135 167 44 223 51 97 8 104 123 29 85 65 239 254 55 78 247 160 107 163 100 89 127 232 74 191 67 2 18 106 123 240 203 251 214 242 193 92 36 241 81 74 195 27 251 17 90 206 185 151 202 183 143 156 98 59 100 64 83 21 16 198 99 65 182 151 229 25 84 138 232 191 152 98 175 186 246 153 97 228 247 92 2 131 212 214 162 182 67 177 212 19 145 218 98 142 241 133 63 156 20 114 189 153 249 110 0 103 7 28 179 89 89 245 249 79 89 142 167 34 144 25 176 66 188 47 225 157 35 205 206 195 40 156 12 72 28 117 160 106 86 36 184 244 134 
108 153 99 70 76 217 70 242 129 206 235 186 76 70 55 245 117 120 214 184 144 59 149 168 127 118 11 12 56 216 127 39 201 201 6 196 153 160 236 18 240 22 85 178 185 250 36 15 135 39 28 238 215 180 69 70 149 106 146 81 225 123 192 227 18 112 129 251 251 100 218 151 110 112 202 205 255 102 44 24 10 194 222 240 248 221 35 157 189 100 70 76 165 9 129 99 81 120 28 18 252 141 217 42 4 196 144 51 165 241 23 185 7 49 100 230 123 32 246 86 1 76 113 38 15 234 136 78 141 200 31 49 36 131 177 115 184 250 240 11 51 2 172 153 133 92 246 249 233 228 133 24 105 10 89 6 164 134 157 77 207 72 210 130 250 174 42 25 148 250 50 125 50 3 180 97 140 43 220 80 200 144 153 140 252 135 70 21 238 70 138 8 30 224 125 42 6 119 12 197 160 172 158 179 41 91 248 184 37 134 93 21 163 142 250 89 194 169 130 123 116 144 22 38 130 120 103 84 208 68 30 30 227 249 124 210 160 114 61 71 86 85 195 109 255 69 112 40 195 89 84 95 190 205 8 80 3 248 217 38 225 126 41 205 101 199 19 5 31 176 78 181 41 128 84 130 102 29 195 161 8 128 3 233 85 102 41 45 170 72 27 200 192 142 245 121 46 0 172 114 
47 125 242 171 166 239 89 124 95 126 186 107 152 4 216 67 192 193 65 102 126 81 117 99 245 218 74 203 71 138 143 65 87 65 240 209 212 138 25 131 115 208 31 47 123 207 27 146 135 72 24 162 135 249 47 31 9 204 240 107 183 79 4 155 32 100 17 206 187 58 222 189 40 123 184 148 186 199 20 1 51 98 117 138 206 41 144 35 131 203 174 0 134 53 83 168 17 78 29 75 99 229 238 85 9 231 78 67 92 214 10 181 75 118 33 197 90 202 225 152 235 62 78 50 188 38 195 143 178 103 220 239 213 116 146 113 155 125 168 227 105 227 71 217 87 238 229 252 52 194 107 165 202 143 150 171 98 9 157 121 139 24 21 99 24 208 18 58 104 163 144 29 234 213 17 147 223 49 135 215 98 251 115 115 166 37 79 16 128 197 42 141 37 199 146 78 52 223 182 215 247 194 204 153 230 150 177 11 108 167 207 253 238 91 68 42 10 104 65 12 28 68 175 244 7 222 25 89 50 139 198 112 208 67 37 254 101 13 111 107 133 184 135 23 223 204 37 241 123 192 51 69 64 109 119 213 185 195 115 44 25 187 137 47 124 140 99 245 111 34 146 216 179 204 117 204 62 53 93 240 131 149 238 99 243 40 201 89 196 224 104 110 241 87 72 58 130 7 78 37 
13 189 100 124 125 75 99 197 18 125 53 80 169 79 59 15 62 93 236 167 175 155 191 199 194 70 75 185 106 27 173 55 70 198 43 127 107 157 23 170 99 142 245 57 117 86 224 241 39 244 41 233 2 94 66 225 149 114 218 213 189 47 74 210 35 37 48 9 5 42 89 34 58 79 229 210 112 19 165 176 185 214 200 68 70 144 183 97 113 194 61 181 1 173 235 159 170 195 187 64 212 91 243 213 158 168 76 68 33 236 84 244 249 233 17 226 2 152 231 242 95 30 187 131 193 252 89 69 229 134 19 79 95 150 171 108 151 129 116 182 17 74 179 103 241 22 75 235 190 224 154 58 102 110 158 100 130 132 92 109 220 87 130 92 46 68 75 143 45 194 163 81 198 150 140 175 168 70 192 135 2 207 151 225 142 154 44 130 206 173 187 191 150 31 78 144 202 206 153 229 105 84 34 61 202 54 165 116 38 95 182 220 87 205 168 144 223 139 174 5 44 223 64 226 27 196 192 18 186 154 94 23 82 29 57 161 165 148 198 95 116 74 118 21 68 66 147 239 98 39 107 21 37 130 177 127 115 48 32 11 134 18 97 204 240 6 47 165 221 22 185 23 153 240 72 88 82 150 33 165 30 87 173 216 64 254 215 61 167 73 182 162 183 157 108 173 76 247 78 115 
252 38 69 69 157 56 115 205 7 50 26 91 27 4 186 121 5 187 122 197 189 249 201 0 212 162 69 98 109 217 220 48 138 43 49 145 137 9 65 158 238 124 70 184 98 20 220 30 252 34 98 190 192 38 163 76 101 139 181 146 92 146 34 7 13 141 70 162 100 77 248 240 140 221 109 101 250 113 88 240 174 153 86 209 181 186 138 175 243 191 132 229 31 12 104 30 15 179 76 33 54 235 225 238 107 190 86 9 235 1 121 22 162 137 32 166 166 156 199 81 5 166 122 5 192 45 246 157 23 7 11 181 7 203 68 189 18 133 202 77 62 174 134 184 96 91 134 228 154 180 162 89 35 168 95 151 70 223 19 173 174 240 74 7 224 213 105 136 9 156 145 217 250 94 198 0 113 117 81 52 154 234 98 239 213 45 250 70 186 9 8 118 90 214 211 191 200 241 151 117 217 105 115 84 39 251 130 20 92 65 73 61 173 38 81 61 164 157 20 183 35 147 30 31 166 33 108 132 200 7 24 172 9 86 56 102 206 108 3 28 169 37 53 168 219 80 181 104 23 96 117 149 137 100 154 208 23 58 222 254 231 255 50 86 33 201 167 184 246 153 142 65 225 139 222 28 44 80 215 155 183 222 229 134 245 102 199 179 55 135 240 214 45 193 46 155 169 44 137 242 
167 106 110 170 139 218 13 66 169 14 255 252 10 128 44 50 109 128 236 237 141 113 108 180 162 53 84 162 42 230 166 188 233 199 233 129 47 122 136 194 89 115 117 179 154 172 17 67 252 154 80 169 161 97 24 63 79 68 235 148 44 95 198 188 197 152 73 235 85 211 23 67 69 101 128 233 239 203 94 94 167 157 60 13 252 189 190 32 59 212 61 152 53 255 177 157 66 197 212 18 134 77 132 109 115 205 105 198 143 70 217 45 120 111 248 65 37 238 36 255 110 206 144 215 207 46 46 5 105 54 211 30 73 80 150 233 237 148 121 113 4 131 75 88 118 249 204 110 164 93 19 130 241 27 45 121 129 84 7 157 65 212 141 55 39 68 20 95 187 160 245 19 214 236 123 135 169 35 0 188 2 113 82 84 203 161 92 165 211 217 2 12 210 133 76 131 167 145 199 118 227 219 40 211 139 232 51 97 26 214 219 82 198 145 171 27 4 74 100 131 78 37 232 250 36 50 86 45 81 159 119 215 111 44 89 218 173 222 57 142 208 248 166 89 120 39 228 128 165 253 143 60 121 160 128 17 64 196 245 91 173 214 235 42 102 122 207 79 196 56 86 183 211 114 170 248 161 154 198 42 181 162 35 248 221 179 148 246 45 33 110 54 68 159 237 22 209 175 211 91 
86 93 82 132 44 45 44 88 200 82 25 194 60 32 105 222 0 196 234 84 243 51 12 229 157 96 67 67 183 178 173 38 237 181 245 156 226 16 119 160 117 183 165 239 67 97 169 23 108 61 76 209 155 224 22 144 64 130 182 90 32 107 165 215 16 168 7 168 253 2 210 249 48 49 49 90 208 76 43 202 169 132 128 21 43 18 211 97 182 110 14 3 21 194 3 151 72 158 79 79 134 237 132 139 130 40 135 170 238 201 54 32 61 3 78 201 174 176 140 126 134 139 19 229 156 159 14 141 27 255 150 58 132 184 214 125 242 4 109 136 162 192 19 65 178 32 128 149 41 162 138 15 56 64 141 169 192 234 15 226 19 51 164 16 255 75 16 248 9 45 172 156 246 25 11 84 144 69 220 32 166 208 18 61 85 247 67 246 134 139 78 189 184 162 65 122 0 142 122 35 77 11 12 141 241 188 100 130 93 217 44 19 44 34 111 47 100 23 254 117 248 106 19 71 145 181 53 32 141 105 91 39 72 6 84 4 155 146 102 242 163 68 54 21 196 128 231 15 237 8 134 206 29 112 166 167 38 210 71 169 177 196 253 43 130 135 78 168 253 129 91 205 233 237 195 207 117 210 196 2 120 49 163 168 253 131 78 6 255 99 65 190 113 135 166 88 130 244 192 34 
30 114 137 58 184 62 154 233 71 0 76 50 142 252 29 171 161 140 85 140 165 206 233 6 215 154 159 214 208 183 115 25 7 78 57 98 151 158 133 10 66 242 200 199 182 208 187 128 16 116 1 96 159 125 8 42 234 229 48 204 244 54 47 54 190 251 180 108 14 117 74 218 111 144 127 233 121 21 70 207 82 33 155 171 117 214 101 209 178 80 160 98 118 219 187 33 77 99 63 129 165 44 178 3 213 195 187 190 94 52 135 63 112 125 106 148 176 67 202 164 56 196 57 194 223 13 225 129 187 108 37 201 229 41 133 42 124 113 194 113 237 147 67 121 113 111 184 68 215 42 253 74 131 39 65 17 183 51 103 254 17 0 172 107 85 213 139 250 109 131 222 40 174 155 69 37 93 222 203 227 114 245 199 108 155 99 1 122 132 183 22 65 86 6 30 144 126 152 139 24 175 226 84 11 42 180 84 234 61 180 237 152 9 11 240 178 137 94 193 35 208 0 182 242 146 102 193 95 230 219 79 47 74 116 111 68 232 71 55 112 24 216 99 139 37 212 64 195 84 2 201 52 34 118 15 185 206 8 222 1 23 4 157 229 71 35 118 248 112 186 183 96 246 50 120 229 77 184 127 72 4 53 96 214 3 129 232 60 17 212 188 157 153 125 62 226 173 214 176 82 
75 119 156 98 223 170 115 206 10 31 116 232 162 225 207 48 250 137 11 38 99 178 165 92 242 172 250 207 132 117 102 119 0 228 174 29 220 40 155 109 227 113 232 76 53 237 95 108 143 246 62 29 204 138 223 102 172 251 152 84 213 231 225 146 23 107 180 58 244 148 58 235 96 22 163 28 197 65 85 175 74 48 74 201 85 68 179 226 78 209 226 24 167 22 102 201 25 115 120 96 48 214 150 111 9 119 109 255 91 197 252 36 180 159 247 212 5 200 105 248 97 149 158 196 2 233 64 68 141 99 192 56 150 214 247 34 103 250 14 157 253 97 155 240 84 172 12 227 229 254 73 210 108 177 149 255 238 72 181 44 251 165 85 106 49 125 167 44 1 8 77 159 182 253 121 62 178 189 83 161 251 206 155 149 247 140 143 114 116 27 15 169 235 160 255 157 6 177 237 180 95 10 243 173 139 129 223 52 87 60 146 179 81 33 166 108 139 142 84 197 155 74 148 226 230 188 133 121 31 91 16 226 10 102 200 110 134 213 21 250 202 143 146 196 239 221 179 125 175 31 171 159 108 190 141 0 115 97 177 168 131 100 89 223 137 134 148 139 174 225 99 185 147 32 27 122 219 236 10 240 235 167 93 168 237 93 65 42 27 247 73 207 58 178 16 211 100 208 31 171 
11 142 17 153 59 85 245 125 31 52 243 238 199 142 51 137 40 16 250 137 101 230 22 153 77 47 125 230 36 174 49 119 166 194 102 193 73 152 231 118 195 159 182 159 204 60 242 234 37 192 254 69 217 151 224 171 195 193 231 62 80 135 145 151 134 102 171 90 69 80 186 13 205 20 154 42 129 26 101 114 235 83 151 133 255 112 111 176 164 82 152 6 112 194 8 178 179 99 41 139 184 228 54 233 71 122 232 183 110 142 83 202 130 179 10 113 96 218 138 78 248 201 214 100 13 201 94 112 54 159 37 125 41 190 35 179 56 187 233 112 28 1 131 154 242 198 162 51 131 62 251 45 200 14 234 128 174 3 91 123 22 4 234 87 32 69 73 18 169 190 226 123 18 220 190 137 67 118 166 240 240 2 136 246 27 9 28 131 219 216 198 120 91 121 191 66 37 225 112 175 161 107 30 0 216 133 204 63 126 169 93 211 48 144 250 81 250 162 179 149 28 176 105 18 14 229 235 102 193 250 95 49 40 170 228 40 247 102 117 101 171 73 16 1 202 78 24 229 108 193 249 221 250 243 10 239 54 50 183 234 123 248 223 65 70 99 123 26 246 229 129 163 208 61 8 165 70 166 172 91 121 78 52 132 252 9 114 183 219 71 107 247 220 68 184 135 4 126 44 255 
93 108 183 160 247 109 138 229 45 255 124 90 41 49 173 177 171 91 105 19 5 12 79 180 107 68 178 170 105 227 63 255 181 98 224 5 39 193 225 233 6 192 82 139 133 82 172 141 141 79 183 171 189 105 170 74 176 97 148 83 126 123 252 65 133 47 196 121 105 33 84 218 89 83 244 150 148 153 120 64 44 78 35 38 10 70 198 224 51 3 40 41 74 44 170 238 85 58 43 165 196 117 42 224 175 31 42 34 95 239 91 241 16 193 118 44 245 139 233 159 125 147 52 213 213 223 147 45 174 237 221 48 64 165 172 34 142 140 190 215 236 58 155 201 191 14 120 103 133 32 92 175 21 119 129 254 39 125 253 39 22 175 161 195 229 153 34 201 129 2 118 95 69 100 129 239 195 159 241 124 194 237 103 55 131 25 215 77 73 236 49 4 23 233 65 6 188 58 212 252 13 233 28 95 114 83 85 139 164 218 169 22 180 219 81 95 80 224 254 106 66 22 119 235 57 1 131 160 204 110 9 228 188 169 118 130 121 241 95 199 232 41 104 219 100 208 100 81 3 51 189 252 26 225 22 4 3 96 48 58 29 30 10 169 21 170 77 109 100 36 230 201 25 243 245 115 217 181 230 50 36 124 221 171 217 55 88 120 253 110 16 123 184 51 32 114 160 85 104 203 
59 214 52 185 190 159 25 135 27 115 32 45 59 34 39 33 136 255 131 111 175 147 234 12 164 147 145 103 230 16 145 66 4 238 143 192 96 151 156 191 51 240 90 103 209 141 96 3 47 33 224 16 162 56 135 148 233 40 165 178 110 68 142 122 201 84 64 6 134 66 70 194 40 22 220 11 109 36 83 252 212 132 183 132 93 195 176 188 144 216 166 120 192 90 40 29 145 240 143 178 184 8 222 57 2 204 237 63 152 81 199 178 129 18 80 243 104 158 43 44 160 141 218 228 101 184 39 208 101 170 195 236 127 81 46 203 202 249 214 43 217 124 131 205 61 178 242 132 76 47 192 139 33 46 139 27 228 200 83 61 76 106 38 222 97 133 252 33 135 135 224 249 184 11 80 246 17 76 231 95 144 224 57 130 28 163 255 72 197 241 116 12 78 24 254 173 232 12 17 226 65 93 80 206 189 103 246 213 3 201 117 173 188 24 93 184 151 212 126 145 145 154 81 229 115 156 148 132 156 79 53 183 0 99 113 213 113 248 61 17 30 15 229 150 89 62 243 214 157 169 82 30 207 45 179 110 196 222 48 137 4 180 47 72 205 129 138 51 91 38 237 82 103 7 127 65 238 188 196 131 51 10 194 24 7 17 98 82 72 198 26 228 168 164 201 60 175 159 226 19 
4 90 205 66 232 153 138 215 3 249 152 104 99 223 21 167 194 174 38 55 7 61 153 190 16 136 201 60 175 165 194 155 242 250 166 135 168 174 80 127 32 93 54 44 52 16 148 242 134 108 199 198 10 41 246 63 197 198 248 239 212 123 114 243 175 112 64 201 175 44 23 98 206 80 104 120 175 133 135 34 222 179 12 166 88 116 122 142 78 200 30 254 38 10 58 68 195 34 99 177 6 253 40 167 148 58 244 244 218 38 54 94 79 235 190 127 249 4 106 212 51 244 3 16 173 56 98 182 180 122 215 230 180 7 203 119 251 131 163 71 191 220 232 207 99 124 165 251 246 195 17 56 253 180 110 206 114 238 49 112 12 222 99 17 193 52 71 250 138 147 61 26 102 141 230 157 161 206 137 192 86 151 182 227 51 111 41 223 124 21 240 155 82 184 209 218 54 106 230 87 201 211 138 20 213 34 121 239 145 73 50 118 33 106 160 252 93 140 250 237 211 147 232 94 15 111 231 232 26 147 238 183 64 169 82 222 22 132 231 237 188 86 104 198 96 35 24 172 3 117 170 157 128 82 94 226 202 107 110 228 117 150 168 65 120 126 92 31 49 153 120 193 169 91 242 88 26 170 102 27 174 145 1 153 138 56 157 78 11 20 45 117 79 91 92 30 248 187 113 128 
44 75 118 144 224 194 153 211 87 231 210 112 229 72 198 137 249 47 236 203 91 210 238 68 177 202 82 117 72 198 89 169 17 129 39 133 234 241 37 223 31 194 164 212 49 2 195 20 214 30 146 129 64 13 119 249 162 203 209 111 241 9 220 65 232 35 213 197 78 82 94 37 123 35 35 110 25 39 190 227 40 236 216 151 68 45 145 59 43 70 34 52 122 234 193 241 183 24 198 123 148 75 11 77 114 242 152 103 37 31 128 158 247 131 6 54 239 154 4 178 83 35 142 235 107 211 210 96 136 74 66 205 69 70 246 255 13 23 75 230 221 83 209 236 75 202 100 133 200 188 152 7 34 74 91 189 77 43 213 54 98 160 147 227 232 170 229 226 83 122 132 20 202 41 120 117 45 169 57 173 87 252 21 226 160 163 209 209 166 90 147 29 78 2 0 230 5 223 161 158 76 3 139 24 115 10 63 226 164 8 207 213 36 192 66 234 214 23 58 80 1 200 212 187 82 88 208 254 37 77 242 220 0 155 167 27 96 95 236 219 185 207 108 38 184 113 232 200 203 140 220 97 227 221 96 184 121 138 76 82 207 92 159 68 120 40 34 69 26 142 72 7 115 230 89 200 154 120 207 36 135 235 1 45 214 1 254 189 200 129 188 11 139 116 114 125 187 147 66 189 
40 1 27 15 218 54 222 226 82 59 191 164 19 29 239 219 97 156 120 114 73 35 104 80 225 253 49 48 209 197 80 172 18 30 45 154 246 165 66 156 105 36 128 243 118 9 238 148 13 22 148 126 3 89 151 74 90 95 165 4 195 165 147 57 97 79 69 81 208 28 207 31 102 154 217 183 184 150 72 128 96 215 27 138 254 12 146 33 125 2 150 162 152 26 85 141 156 251 45 220 111 132 203 147 209 4 148 153 226 174 67 198 228 71 212 61 67 34 162 252 210 78 204 177 88 14 220 207 75 137 171 226 219 195 127 32 51 204 119 64 251 56 41 143 33 206 137 64 217 133 13 3 226 172 14 218 11 104 114 40 247 99 136 11 29 195 51 236 18 89 75 85 11 27 64 2 158 213 0 58 200 27 27 96 52 130 37 197 186 16 93 192 39 240 139 1 60 106 47 34 249 19 215 127 27 65 209 72 227 194 2 212 25 206 22 56 81 57 218 25 109 237 229 190 99 152 126 105 64 162 186 232 109 98 229 103 49 145 35 136 120 255 87 182 211 132 68 182 191 58 243 126 42 233 84 75 51 195 39 238 50 82 29 102 248 174 59 180 88 243 128 235 230 242 199 135 254 39 239 255 8 236 56 158 251 235 240 142 32 217 80 54 25 98 161 198 33 95 162 15 
149 79 46 153 180 5 26 239 163 158 93 62 179 182 115 30 231 220 3 176 177 66 191 233 253 185 139 45 112 221 226 32 242 141 118 185 106 159 23 152 200 209 214 153 73 2 106 169 246 162 211 216 111 103 61 176 230 65 38 197 110 145 195 142 118 150 160 115 144 39 136 39 120 168 164 56 81 55 230 229 49 38 169 47 224 174 145 51 221 225 185 182 162 225 13 2 41 80 244 241 175 7 51 71 184 11 14 68 83 188 175 122 159 80 204 221 142 128 133 25 233 129 139 40 149 54 135 35 20 164 186 88 78 166 224 158 146 226 91 229 216 251 141 17 73 9 134 9 1 70 223 10 19 9 229 66 205 249 251 154 62 122 57 211 246 108 89 212 13 21 212 66 103 91 72 82 53 55 29 219 191 102 104 176 98 98 15 44 212 144 47 14 176 187 186 135 46 193 101 146 49 140 193 132 136 68 167 228 109 195 218 124 82 74 232 176 222 114 81 15 50 101 235 40 112 77 133 159 126 13 203 128 7 48 106 210 195 30 116 112 249 150 5 20 66 88 39 181 143 34 243 19 109 222 249 144 136 26 226 65 110 184 84 69 150 231 22 85 161 82 117 157 223 151 230 202 21 250 236 101 126 91 60 95 15 101 32 237 255 9 25 150 135 42 200 137 231 154 14 53 
169 70 115 20 41 173 196 199 85 151 0 104 178 3 118 28 160 97 39 231 222 1 113 197 80 204 239 246 0 50 155 153 100 99 53 124 223 194 233 51 137 150 44 103 51 3 231 113 166 58 215 39 44 236 51 246 82 4 144 50 235 149 3 169 88 17 133 126 7 189 155 53 58 97 54 10 10 68 215 135 171 87 248 85 241 177 168 83 19 59 117 229 176 173 142 143 15 185 41 194 171 133 35 245 239 95 230 248 62 173 144 133 54 34 82 25 54 56 21 1 29 218 100 184 85 96 134 112 17 193 234 239 210 4 201 156 48 248 6 218 215 37 89 148 208 2 172 25 2 105 197 43 248 71 38 82 228 152 49 119 228 147 144 173 133 33 212 82 134 148 92 87 222 150 121 220 255 95 207 0 93 44 255 247 42 236 131 93 100 60 217 201 18 149 227 166 203 196 142 62 119 155 178 24 90 231 57 132 78 162 132 116 79 105 10 141 61 48 66 126 222 52 196 145 35 49 171 127 172 213 61 137 141 117 206 196 83 0 225 181 66 49 145 29 225 8 47 22 185 122 45 95 89 104 58 245 157 206 175 227 48 61 42 90 80 139 120 4 209 201 185 150 101 117 190 165 26 241 182 186 36 52 10 168 221 192 133 29 10 211 184 120 96 226 157 218 71 67 122 128 
221 42 8 80 62 214 213 177 3 12 231 160 8 197 162 1 115 36 236 50 241 170 142 230 67 173 221 49 250 6 155 223 126 11 24 10 85 189 156 236 162 66 9 241 236 149 189 16 33 124 182 92 219 186 249 214 225 134 52 134 241 61 162 202 189 84 47 237 51 144 221 251 1 121 102 212 89 12 35 128 241 176 44 194 79 107 193 240 67 86 232 1 181 78 88 232 160 237 150 33 95 184 94 137 40 154 68 114 214 146 155 247 235 168 150 141 213 37 173 219 112 3 66 204 205 163 133 226 50 190 149 205 97 158 232 60 29 142 236 243 235 143 238 29 22 76 60 228 245 80 134 64 112 119 138 12 193 162 241 95 120 175 115 25 194 169 66 188 234 59 166 126 32 107 228 156 122 133 101 240 56 84 20 198 76 152 8 236 26 181 99 8 124 169 122 46 9 64 54 178 151 139 186 59 254 142 69 25 31 57 90 217 37 154 31 22 11 80 4 146 95 67 164 133 69 146 240 52 190 205 138 198 42 101 111 83 12 96 217 63 14 81 100 198 69 136 111 215 181 134 197 38 24 180 125 125 219 84 30 82 106 183 7 159 173 176 14 238 210 74 104 179 78 182 201 223 30 135 203 178 83 34 148 209 205 111 179 152 71 213 76 177 148 102 117 230 39 86 223 51 
217 178 185 32 231 78 209 78 58 0 253 79 236 11 185 186 7 222 17 127 144 255 194 121 196 66 156 66 161 62 42 75 168 1 149 44 226 3 198 56 33 89 203 85 136 43 124 11 77 104 94 218 190 184 199 209 130 179 67 92 34 80 55 94 200 160 196 127 70 188 238 200 89 252 254 109 47 105 36 233 40 117 97 80 218 234 164 225 87 33 52 219 178 116 77 147 191 245 14 194 27 97 147 35 108 79 94 62 234 173 251 126 31 109 227 138 234 124 162 210 202 244 53 104 89 146 182 18 23 106 59 157 105 217 251 116 226 188 178 113 192 223 71 242 186 185 172 48 249 86 7 204 100 148 15 171 32 146 184 4 87 102 18 183 57 14 110 225 65 169 196 173 186 232 81 109 129 191 132 233 12 96 27 246 171 105 138 75 14 92 156 145 8 81 92 185 146 231 54 146 19 128 90 155 223 174 97 22 253 232 51 93 45 130 40 121 41 220 109 241 44 217 170 224 177 146 225 74 125 76 154 176 223 168 61 226 55 26 191 21 181 156 128 53 99 164 116 125 102 83 130 68 129 239 41 26 218 147 105 19 1 37 225 99 46 137 53 43 202 20 178 147 49 68 53 25 183 174 72 41 233 55 143 237 21 135 99 102 12 187 188 188 38 90 84 210 135 139 9 30 
161 133 131 184 250 70 24 176 47 136 236 165 58 241 93 147 240 138 158 237 205 114 161 236 244 212 59 38 114 22 131 98 195 83 123 171 151 12 242 163 214 26 168 26 225 231 180 223 27 222 35 214 168 32 226 75 116 121 222 134 119 146 105 160 56 104 224 149 144 252 138 153 177 77 196 176 102 131 91 121 157 109 58 74 34 45 69 130 173 50 132 27 31 103 132 127 9 170 250 157 110 128 170 59 202 7 135 142 82 44 28 8 126 29 42 113 197 2 147 57 167 232 118 13 241 253 156 168 61 3 19 236 184 255 24 49 40 49 59 221 45 73 189 52 198 216 61 114 24 5 147 23 107 129 253 131 118 189 121 194 220 90 113 169 246 225 157 34 211 180 38 196 125 68 7 167 126 133 185 118 163 159 15 197 0 231 95 165 52 13 226 118 239 150 93 253 177 141 1 183 212 118 144 108 204 132 194 6 174 12 231 164 239 56 205 235 110 0 228 156 181 86 160 108 124 161 31 16 111 109 12 151 50 97 195 252 161 113 182 252 92 85 15 37 131 57 151 48 190 182 214 144 129 1 124 75 142 98 255 9 187 232 134 106 245 92 6 157 133 115 170 47 146 71 121 32 231 8 51 60 247 239 123 168 30 116 59 188 42 193 69 16 26 102 54 218 38 78 160 119 
255 242 104 71 87 204 108 190 164 15 105 184 33 149 29 13 22 25 168 102 90 166 56 79 22 79 229 141 203 33 218 177 151 86 182 237 180 203 50 39 65 181 3 76 69 143 2 231 241 87 138 242 37 249 33 235 54 12 91 43 239 188 252 116 213 7 93 201 175 45 17 130 70 97 199 159 106 197 114 93 53 149 168 7 148 162 72 15 2 3 96 93 151 7 78 231 66 110 37 130 83 216 82 247 60 125 127 90 152 31 183 151 108 61 203 78 173 138 245 225 3 157 188 203 205 234 23 51 101 241 213 192 165 181 60 176 170 112 241 36 215 133 24 190 29 182 187 110 122 151 112 137 192 66 54 28 152 77 161 127 198 249 55 45 175 172 25 210 24 162 230 166 48 223 220 250 209 104 64 16 3 178 0 48 194 91 152 248 1 24 50 244 238 239 17 111 120 166 47 136 14 123 37 136 170 21 76 114 15 187 34 220 79 196 239 254 143 78 168 9 14 51 19 186 100 57 44 46 8 137 200 248 21 99 120 113 78 15 176 79 95 23 40 121 102 179 131 26 177 133 47 244 201 134 140 248 176 65 80 19 104 63 42 74 180 194 165 9 35 182 80 184 73 228 28 144 80 105 5 173 176 102 244 100 58 250 228 214 91 109 68 197 159 174 157 167 116 0 117 249 
49 240 115 214 86 138 196 200 21 204 188 222 18 91 193 255 104 117 101 125 236 39 210 237 181 192 107 55 220 133 176 233 128 166 98 209 13 113 232 202 190 198 242 214 97 203 92 109 91 224 85 21 235 214 192 51 179 91 218 33 116 185 30 128 25 193 102 208 247 1 82 62 83 62 237 188 36 30 142 87 27 36 253 197 225 225 215 62 160 105 52 142 196 5 134 103 3 39 197 251 154 163 201 202 218 27 247 185 228 187 31 101 177 39 165 182 85 178 223 183 132 209 191 165 85 207 178 70 70 194 199 123 128 189 20 25 93 71 86 245 40 12 215 62 36 211 149 16 207 176 160 69 103 123 196 143 174 128 104 196 235 120 182 120 49 185 252 209 227 169 82 151 120 120 126 139 124 15 20 250 215 67 226 145 82 79 138 115 87 129 113 137 248 51 216 25 52 253 73 155 117 41 53 200 92 103 219 243 193 194 107 156 246 211 108 67 76 53 91 122 217 57 149 62 120 218 119 135 16 243 195 30 26 175 69 175 93 65 183 31 252 214 227 31 179 200 7 2 94 21 125 203 187 15 155 139 112 85 217 234 80 1 49 3 218 35 204 117 2 111 218 182 53 50 194 171 151 139 123 118 143 215 57 144 133 109 77 23 234 140 70 105 121 145 93 241 189 109 16 65 
212 87 12 97 114 190 80 103 41 130 144 72 231 99 215 238 192 186 113 139 237 103 8 44 21 10 13 145 204 118 90 60 90 98 21 200 189 98 215 124 241 22 13 32 110 161 159 15 243 93 208 142 130 206 102 92 171 212 10 139 14 36 241 141 28 248 188 146 29 6 157 18 119 175 188 165 45 122 217 27 166 192 50 201 176 169 167 33 196 87 28 134 140 96 31 94 162 130 202 104 155 146 235 79 68 182 99 128 43 212 204 57 97 74 95 227 127 224 20 162 231 250 10 42 76 19 42 212 117 102 8 241 61 238 9 94 223 145 203 89 112 153 193 146 173 99 30 133 247 91 245 8 156 40 158 32 88 35 91 25 28 14 59 214 13 3 63 101 208 170 188 214 5 175 0 78 17 115 56 87 33 2 146 122 108 70 158 16 184 122 250 85 31 224 46 190 19 183 213 141 160 104 254 162 241 0 209 148 22 226 118 0 4 190 50 33 221 189 211 161 114 254 79 175 7 70 168 82 86 243 18 253 214 50 88 99 60 114 124 140 66 25 158 41 168 117 30 37 121 245 5 124 144 153 161 80 90 167 112 58 222 160 64 222 250 114 147 194 239 239 72 96 32 126 120 121 22 16 159 173 200 86 252 73 25 50 58 96 163 107 79 29 179 164 165 87 148 143 119 102 
17 94 127 53 53 122 206 153 85 120 251 225 81 73 127 175 22 176 96 6 103 249 13 163 222 233 137 145 45 241 204 248 170 166 103 54 11 118 102 48 109 147 122 234 156 52 88 86 142 253 92 106 48 187 114 117 102 85 54 179 76 0 90 31 195 177 72 136 41 216 9 231 103 75 102 240 49 128 77 231 137 0 118 181 133 24 69 59 83 210 243 230 122 36 233 132 98 102 108 86 23 9 127 102 74 135 5 26 153 150 39 10 16 161 245 15 239 120 80 156 173 71 7 82 62 197 64 206 146 173 26 198 94 114 144 84 30 47 161 145 91 220 173 102 41 200 35 159 245 67 89 65 125 155 187 30 32 75 40 166 88 110 153 0 133 122 4 90 236 42 128 125 255 188 169 164 223 93 70 142 31 226 41 210 203 184 87 115 168 30 105 180 190 145 50 45 20 136 162 31 187 98 234 5 13 157 225 107 55 72 167 3 245 187 136 246 157 133 35 120 95 166 203 159 203 255 45 117 147 6 51 76 147 190 41 81 14 231 31 100 59 113 142 39 0 55 62 85 253 234 102 86 204 75 22 16 135 158 210 255 139 91 127 136 124 38 132 138 138 1 41 55 242 193 66 34 199 190 18 152 242 207 106 52 120 118 17 174 251 87 104 244 132 239 78 124 127 130 66 216 
7 85 199 139 100 30 13 27 210 185 205 103 132 28 117 59 233 141 133 34 46 19 57 123 4 42 104 207 163 186 172 98 15 74 195 8 154 113 53 58 170 142 55 105 188 185 208 146 169 250 58 19 40 184 139 189 149 116 149 42 241 183 10 81 41 72 228 87 155 163 3 169 214 167 24 71 161 143 195 99 64 35 248 42 242 47 167 226 190 53 156 53 111 95 164 204 222 183 241 32 111 154 191 141 222 106 56 169 60 132 149 211 52 114 135 15 147 97 213 17 8 213 70 151 39 155 193 252 180 0 179 10 31 64 177 17 75 65 95 53 147 129 144 12 15 77 174 105 19 53 93 114 249 188 91 249 33 84 170 9 53 137 242 190 178 124 33 90 164 147 84 150 177 111 250 54 88 30 54 224 123 146 134 46 27 82 163 2 100 112 168 26 233 187 117 228 48 53 86 147 113 200 224 114 155 52 28 120 152 76 232 29 210 98 153 109 246 0 229 91 248 217 1 87 87 254 6 35 162 85 153 226 59 72 203 114 91 186 62 251 86 63 138 200 32 140 222 86 16 44 235 171 229 117 253 233 7 187 107 35 15 195 50 111 136 122 221 61 247 231 168 231 26 95 228 137 110 248 157 18 243 64 123 155 51 46 230 248 129 88 109 141 127 103 105 99 227 200 221 124 
122 165 161 99 109 20 192 6 195 142 30 200 39 162 94 211 235 234 2 171 78 63 212 9 250 41 133 230 209 153 149 214 233 219 114 151 213 198 228 234 39 54 168 161 50 188 92 250 21 147 155 43 245 214 104 62 137 241 208 31 220 86 203 244 78 113 100 172 220 221 25 219 162 216 133 197 158 244 60 184 183 16 247 160 254 135 241 213 51 167 144 55 139 101 72 125 176 78 189 202 10 193 39 129 61 92 251 91 243 180 200 183 219 73 94 49 242 185 54 117 1 51 14 86 102 47 212 26 24 92 197 24 230 218 214 134 255 170 83 140 183 99 198 156 136 38 26 6 87 211 0 199 249 125 146 162 246 28 54 115 141 130 198 191 248 145 238 143 241 170 213 127 116 104 255 18 199 143 114 72 184 63 23 115 38 110 100 70 194 149 56 47 23 168 6 231 200 76 54 71 25 69 200 93 177 45 59 191 159 108 173 31 154 100 67 32 141 236 203 104 83 0 160 246 190 182 206 182 223 116 119 83 129 97 118 77 247 25 65 75 24 165 20 178 135 170 76 118 56 224 17 49 47 198 55 114 139 149 102 87 196 114 121 94 49 231 37 120 205 148 219 95 58 34 239 42 6 121 249 31 46 51 124 200 224 80 197 73 133 43 22 240 255 172 4 14 47 192 30 5 
187 6 207 163 14 204 134 174 160 57 19 192 119 203 85 85 238 5 18 35 181 97 38 170 25 140 224 11 133 210 169 29 73 215 230 190 155 137 32 103 219 82 98 4 28 146 227 2 223 76 229 169 33 32 221 172 153 121 212 254 59 7 13 232 0 112 232 89 233 66 6 125 66 45 174 144 36 111 112 245 61 143 8 130 211 78 133 31 7 219 170 143 87 70 148 141 103 55 157 27 1 224 129 23 90 48 191 15 151 73 66 86 143 53 65 87 211 212 100 42 236 25 40 101 227 118 132 53 7 149 205 173 234 73 215 93 173 196 93 39 125 10 162 78 94 166 89 208 39 155 194 246 206 157 23 41 230 129 38 7 102 243 63 182 172 103 80 120 194 82 79 128 223 153 216 5 49 73 24 148 217 138 233 170 56 206 62 130 105 78 194 44 14 183 188 223 80 32 54 144 33 64 94 195 196 222 44 162 144 136 69 76 241 136 32 111 175 20 103 25 115 197 160 203 135 75 12 208 221 94 207 204 83 247 82 152 53 193 230 77 3 202 170 159 117 127 174 109 189 215 88 149 12 206 7 13 87 21 247 48 91 8 101 85 223 224 243 166 57 42 77 48 19 120 13 54 111 86 220 203 233 127 218 160 60 81 65 26 8 127 69 167 211 6 62 83 77 98 8 150 
216 1 170 112 71 248 55 184 230 245 242 178 187 116 181 223 12 54 148 25 34 239 189 223 76 64 162 237 38 228 91 15 26 46 69 56 40 179 240 206 227 68 56 73 188 31 177 252 131 101 73 50 43 207 40 125 206 157 219 75 240 208 178 186 8 153 102 174 61 17 255 32 109 42 245 185 115 230 150 159 170 199 167 143 173 134 78 44 97 8 48 150 54 141 214 63 169 43 85 250 14 123 46 85 140 146 115 41 105 50 43 111 135 66 248 85 47 124 247 146 14 102 232 246 125 131 143 69 6 202 89 69 35 87 67 22 72 97 248 194 36 108 57 21 37 191 130 175 58 25 235 87 220 160 76 146 79 26 164 116 37 95 188 183 5 14 7 10 170 128 205 171 46 250 136 56 137 39 143 195 85 197 241 36 212 158 164 147 51 186 223 118 16 211 196 119 59 9 66 218 185 215 58 13 15 70 224 129 189 96 101 185 8 232 211 161 252 72 56 32 178 203 6 240 207 12 186 174 77 175 188 45 126 78 134 16 77 182 9 152 200 84 76 186 219 234 87 117 94 134 79 98 83 181 226 141 104 244 230 131 196 103 60 172 255 206 251 219 114 180 202 36 178 233 142 238 87 51 70 72 2 65 50 129 158 224 59 242 229 114 143 31 38 155 140 255 70 61 223 151 
6 167 237 206 131 9 114 124 3 43 103 196 238 95 42 164 27 181 217 202 77 109 254 169 254 178 114 205 91 133 123 107 143 247 56 61 68 155 63 140 103 59 132 143 44 202 125 243 83 154 131 187 169 207 124 74 209 20 183 190 68 140 23 128 151 11 116 25 253 135 62 72 12 201 99 81 196 104 115 151 205 248 3 109 0 127 79 42 41 40 35 123 11 60 251 254 165 77 105 12 180 181 183 214 121 63 205 179 188 35 86 184 17 56 31 138 90 101 191 112 141 88 125 172 184 123 110 12 66 36 222 188 115 13 241 94 54 3 138 92 30 226 108 125 168 192 160 183 192 105 22 69 134 12 143 249 81 51 185 210 244 248 156 209 65 118 54 9 204 127 98 246 242 141 255 15 25 250 77 158 56 115 154 208 155 170 31 8 224 75 37 121 70 50 108 244 39 219 204 254 194 25 29 38 62 11 85 150 236 76 240 231 205 107 149 58 84 155 246 132 108 171 248 41 189 56 20 205 43 33 252 102 160 59 130 150 12 70 182 57 170 32 79 58 132 57 77 170 57 71 220 19 254 59 122 9 227 115 92 3 88 49 14 105 239 76 91 238 99 37 108 32 218 221 52 61 103 197 11 73 211 22 152 93 157 227 245 66 63 75 14 63 179 243 74 46 54 180 110 213 
76 144 190 116 4 235 101 155 125 247 22 62 169 113 244 11 81 139 175 251 89 41 240 40 70 79 248 222 253 218 132 244 205 111 243 93 176 178 170 250 206 184 184 178 67 190 182 197 34 27 241 93 186 115 204 103 24 46 95 160 205 40 100 243 241 170 84 2 103 154 205 3 99 238 55 205 42 102 167 50 25 123 3 144 233 147 104 163 49 118 200 157 44 5 216 121 189 42 41 140 176 11 148 93 67 131 220 182 229 210 143 251 61 147 45 187 110 239 140 133 154 17 123 253 165 217 166 46 59 213 186 34 20 109 201 176 118 93 239 150 252 105 54 200 151 75 183 7 210 241 2 180 90 229 192 231 189 13 151 188 114 148 78 237 26 40 50 166 5 102 184 148 248 146 99 64 45 140 232 155 156 255 145 217 121 220 223 131 254 7 115 200 106 80 46 21 74 164 152 229 247 132 126 217 96 183 224 11 9 60 10 160 84 131 0 156 0 221 31 250 239 48 2 253 44 239 163 193 44 73 194 21 84 161 139 141 188 63 115 210 51 69 99 61 131 228 24 164 246 207 202 116 24 240 11 0 191 91 243 25 73 128 122 223 37 164 37 214 149 146 229 61 177 141 60 155 176 138 161 154 99 156 38 24 2 176 88 124 43 122 102 70 40 175 134 235 113 117 149 223 
113 24 253 243 141 254 220 225 99 221 99 37 79 43 124 15 52 214 175 23 121 54 70 112 81 64 175 224 64 252 35 206 219 57 133 157 207 127 141 56 36 69 37 238 195 100 19 129 54 204 217 121 176 117 217 190 77 153 189 102 154 33 22 204 88 93 67 226 125 247 149 200 124 42 177 157 198 47 53 149 145 248 158 75 216 33 105 89 163 36 120 39 136 204 184 0 114 236 1 107 161 80 61 184 242 244 205 217 97 116 40 115 204 196 197 53 250 33 60 105 219 71 168 200 17 229 79 147 176 78 133 223 66 113 205 49 15 11 66 74 155 27 53 68 111 151 24 222 28 93 154 21 126 108 20 244 62 84 36 172 154 235 151 231 105 66 141 90 89 215 215 153 124 12 164 48 3 216 93 239 73 189 205 133 19 250 133 81 22 1 127 116 185 43 1 43 29 171 196 92 90 193 86 110 12 48 189 94 15 241 93 15 134 41 28 226 34 89 195 135 161 212 167 19 148 119 138 82 102 148 188 94 154 47 133 112 84 109 200 247 27 73 224 231 221 137 206 84 51 240 150 63 231 182 230 176 180 53 249 5 76 229 187 137 160 138 46 72 91 172 12 34 175 72 174 31 85 197 44 2 207 41 198 33 241 141 130 115 159 207 23 235 216 134 10 4 244 59 23 158 
41 214 210 8 84 86 142 94 246 197 126 21 125 107 26 212 198 67 196 133 223 171 172 173 17 95 241 248 30 168 9 25 199 209 98 208 145 219 73 76 201 114 12 180 198 31 91 1 110 190 244 14 252 51 128 242 0 89 183 141 166 59 203 97 60 135 4 163 239 63 167 146 213 178 29 8 49 171 81 79 242 232 90 53 124 205 90 99 171 90 166 234 21 91 39 31 144 222 0 169 245 234 112 216 35 110 250 57 70 120 196 103 89 167 62 35 233 227 3 167 28 75 4 56 243 111 227 251 204 192 157 9 43 69 108 197 185 143 236 110 141 238 124 240 171 229 231 0 202 220 68 103 91 21 26 158 198 225 200 156 247 20 36 236 25 182 99 2 161 251 57 207 143 117 64 147 240 137 158 243 168 32 227 75 110 158 48 69 24 24 158 171 25 194 221 121 72 166 28 55 227 156 41 133 211 118 218 248 49 123 171 36 10 23 168 250 95 208 142 85 112 124 45 207 59 177 16 217 63 126 96 11 133 88 6 184 225 87 16 198 118 163 86 188 120 41 93 29 54 146 123 245 87 117 60 177 99 203 5 51 134 164 247 38 145 25 22 143 66 130 171 165 197 233 231 227 122 190 200 91 249 203 65 77 84 107 149 248 156 247 4 176 166 130 169 49 14 198 163 51 
125 93 115 63 40 53 165 192 153 62 179 93 178 101 38 134 239 198 254 77 235 29 84 120 38 126 62 212 5 71 243 204 26 82 47 57 166 111 217 124 92 17 228 203 104 71 115 200 176 238 64 88 90 38 62 178 142 2 125 182 125 132 78 129 162 200 169 62 71 127 203 62 76 159 35 76 36 89 111 58 32 76 35 192 240 248 10 135 103 117 47 128 126 100 254 122 156 39 167 244 20 77 195 47 239 80 58 136 237 131 100 5 198 70 110 46 181 124 0 30 55 63 28 217 17 210 74 224 144 214 242 3 20 193 9 119 208 141 239 40 203 173 152 80 42 69 235 73 178 154 103 160 137 200 12 106 60 179 121 219 6 63 82 20 80 196 228 61 116 188 12 212 198 191 84 68 213 178 96 186 238 59 137 52 226 119 199 219 9 240 212 146 135 201 142 207 206 60 158 169 101 71 87 51 231 161 224 9 78 243 150 40 113 69 172 3 204 182 20 211 128 113 163 46 154 220 112 219 152 19 125 229 42 148 153 238 53 60 132 198 29 114 85 60 68 162 25 52 206 237 189 250 168 30 46 214 200 224 190 225 182 47 202 22 75 13 153 172 184 118 136 164 203 149 100 158 110 56 24 240 113 130 136 249 137 223 188 179 152 61 65 136 46 122 204 103 80 24 33 22 
121 56 51 202 223 198 141 245 247 241 240 95 59 222 62 120 43 157 150 237 146 92 193 121 10 218 205 254 194 31 247 212 127 107 207 96 225 108 150 233 232 179 235 168 182 105 167 30 151 62 5 171 62 163 6 91 82 57 19 3 41 137 228 141 211 245 162 144 90 238 72 36 72 104 79 244 106 139 138 148 212 172 79 21 37 123 215 215 12 126 231 159 11 190 176 233 123 192 245 128 209 182 107 75 31 247 101 106 222 173 176 130 234 205 188 84 206 77 253 149 66 145 145 249 242 38 35 146 129 178 15 88 206 43 199 9 118 72 117 51 154 53 226 142 226 139 150 144 193 127 65 60 251 90 89 59 101 41 5 45 236 181 58 65 217 181 35 3 84 67 199 118 38 141 230 99 195 205 35 240 135 123 105 116 64 192 135 138 237 47 29 101 197 176 188 99 123 188 73 228 193 208 162 92 11 27 132 167 149 122 173 157 167 167 61 231 24 174 98 17 17 160 52 223 19 138 222 229 59 168 255 82 197 215 80 13 208 73 134 3 96 124 122 191 169 109 135 59 139 9 51 245 89 228 18 70 222 45 232 239 162 226 14 245 105 64 23 176 253 126 178 30 45 186 210 125 22 52 13 24 161 186 66 97 77 99 127 64 47 128 34 171 55 208 62 119 180 243 64 109 
26 33 210 161 3 28 255 255 117 99 152 39 99 169 215 123 118 133 67 117 13 107 211 63 130 219 86 125 175 216 18 109 176 156 172 51 235 138 72 110 78 100 240 15 216 190 58 107 91 179 37 143 128 214 69 211 11 107 32 178 96 216 215 216 70 86 9 125 236 236 244 242 42 158 221 121 8 226 178 90 132 83 239 51 144 169 190 144 91 233 98 187 209 217 213 214 101 183 176 38 14 42 76 178 143 121 39 13 252 251 137 112 122 207 103 11 70 204 135 157 249 187 229 67 10 196 86 141 148 39 107 215 89 45 152 215 8 93 149 114 187 242 5 212 196 141 86 191 169 40 232 35 109 75 113 240 17 130 160 40 91 14 0 56 214 219 32 136 26 178 241 81 77 176 111 175 234 247 131 247 193 163 40 74 64 0 206 106 240 250 251 205 66 212 56 240 140 29 43 238 79 224 1 81 187 28 15 40 117 115 184 90 151 38 145 57 249 65 195 90 175 19 177 165 210 225 219 168 132 220 2 48 46 79 142 27 12 29 44 104 236 107 187 144 50 154 105 25 32 120 25 104 84 183 9 215 146 158 177 7 196 254 238 120 63 104 95 86 72 157 15 150 215 70 85 66 155 229 249 17 61 12 152 59 233 205 74 139 11 113 129 182 86 108 53 235 11 145 62 171 
120 131 1 219 191 108 78 24 216 241 137 74 217 101 8 124 117 60 189 235 195 195 21 92 65 15 31 179 25 51 241 194 163 183 72 95 42 69 110 185 243 164 97 236 123 235 49 210 1 238 170 28 68 253 51 162 142 206 246 248 241 183 65 66 209 32 44 73 163 57 125 206 243 232 200 30 172 6 219 230 148 202 89 73 22 133 164 48 68 144 0 225 28 131 246 212 10 168 247 193 175 176 66 254 225 164 8 8 243 30 205 96 54 184 17 152 191 197 48 173 107 63 135 151 33 1 216 31 87 54 239 241 216 18 134 242 196 192 103 211 216 155 208 231 239 160 27 49 201 35 158 194 12 194 209 66 136 152 174 204 191 179 94 255 165 199 17 81 164 35 46 167 227 229 172 35 200 106 191 61 188 9 184 22 46 1 38 8 218 175 66 130 75 5 138 19 158 55 171 196 138 183 164 171 157 100 41 189 200 255 69 228 30 222 68 82 217 228 208 20 158 176 90 234 2 21 188 86 76 202 28 243 124 99 19 8 141 128 14 93 248 69 245 77 121 10 11 29 21 83 22 140 92 2 191 171 236 203 59 239 54 233 43 133 133 15 193 229 60 162 37 170 94 37 23 161 84 245 213 32 235 54 63 153 157 13 57 110 17 15 81 7 229 250 162 35 170 163 247 107 
48 48 52 77 4 135 242 7 56 7 106 2 98 117 148 98 231 57 144 219 122 202 68 198 223 103 71 116 245 8 253 194 243 148 4 237 242 84 207 168 172 168 145 108 131 248 93 16 197 238 139 153 46 226 93 83 174 150 227 33 109 36 27 17 13 52 93 51 47 114 246 172 56 64 20 6 85 167 226 202 188 148 243 81 53 65 228 215 217 241 61 209 26 224 153 128 4 122 7 199 195 203 175 58 100 55 185 119 224 107 106 185 86 147 144 170 152 205 33 121 233 222 31 45 5 37 190 57 98 205 201 80 182 70 66 122 185 245 73 104 44 42 62 4 26 83 42 77 94 112 91 98 101 199 79 220 53 217 212 97 174 148 108 119 16 202 246 149 190 226 139 128 66 206 167 213 144 61 137 225 143 17 220 185 213 19 150 135 178 229 33 35 113 57 185 227 218 65 21 179 252 102 73 104 41 61 235 81 65 183 116 15 52 152 234 167 194 42 188 214 133 50 238 165 50 35 117 60 28 146 229 251 249 234 73 199 233 97 82 162 180 42 181 127 83 236 206 84 179 116 137 112 181 167 130 15 121 186 107 44 220 165 175 150 63 212 84 70 139 32 38 240 113 255 18 216 247 247 208 231 48 89 197 254 74 43 39 138 207 102 98 89 36 98 186 172 86 142 50 141 
21 100 173 98 1 156 84 195 37 160 55 137 193 65 55 39 77 168 35 62 186 143 33 107 251 177 80 100 196 126 171 67 146 20 49 33 235 107 67 231 231 207 77 97 239 148 168 148 197 5 191 82 196 157 113 11 106 122 183 230 19 14 135 16 7 24 248 84 183 210 166 237 68 108 88 152 65 186 224 237 186 42 67 238 117 248 26 225 119 165 56 91 202 165 141 158 126 88 74 36 238 59 70 124 69 96 161 85 64 27 167 217 53 255 247 60 84 8 228 148 45 26 27 235 114 170 134 146 254 187 113 185 23 13 236 61 240 145 112 193 114 31 197 0 60 107 34 97 233 54 151 205 145 193 168 189 146 135 59 151 144 43 180 58 186 176 94 215 79 232 13 4 97 47 1 11 218 89 14 136 188 232 250 51 173 130 39 250 178 163 113 83 59 144 90 208 96 140 101 243 106 77 191 69 149 177 36 162 20 174 1 215 86 135 214 111 136 70 223 201 91 102 243 110 7 208 172 162 144 9 200 57 71 169 207 172 149 15 246 108 244 83 68 118 62 124 243 40 42 243 25 83 19 56 136 145 252 212 242 217 210 143 81 80 240 226 133 98 233 175 63 18 129 48 31 142 252 46 25 7 156 115 29 191 101 129 247 100 35 132 116 156 174 134 198 225 109 226 41 143 
25 251 199 59 195 45 217 71 25 4 16 179 229 172 51 54 214 169 9 142 131 200 121 20 173 86 240 147 196 143 3 90 173 89 86 144 195 51 188 200 28 104 159 213 13 136 163 224 240 24 134 184 36 137 75 104 86 103 151 15 255 211 91 236 46 51 179 185 136 40 14 58 141 193 144 21 29 238 180 228 58 55 54 137 15 173 48 193 49 33 131 253 38 149 120 109 36 240 167 93 26 246 24 196 245 118 169 26 28 197 175 107 60 108 224 170 75 30 113 71 199 237 123 3 63 189 163 4 21 248 250 36 130 131 34 143 218 241 179 141 18 247 220 156 127 32 78 194 224 194 85 33 159 49 72 204 84 50 36 217 139 179 116 184 199 185 116 195 199 153 117 21 7 107 131 160 138 188 70 122 215 131 38 120 66 86 178 254 108 222 67 21 13 137 220 190 241 126 85 135 65 214 185 91 4 9 236 158 229 166 145 122 55 72 42 115 54 197 129 66 144 168 72 224 36 226 252 225 9 188 15 3 210 16 69 7 16 185 95 191 25 72 247 105 8 248 171 59 5 229 125 63 199 120 122 97 86 38 154 199 22 90 232 96 1 175 226 192 52 99 35 43 173 9 63 239 83 125 239 247 54 29 110 158 25 54 34 193 46 189 127 24 32 64 41 198 86 27 88 46 
119 239 129 9 41 80 51 181 31 190 63 208 82 215 27 6 142 202 136 39 49 15 115 125 48 86 25 92 90 189 111 250 225 69 193 129 22 135 153 99 116 163 226 238 224 122 77 32 47 29 244 188 233 132 62 157 76 132 2 75 148 251 239 204 122 78 43 189 251 21 58 161 90 20 34 120 104 110 204 148 3 21 174 168 221 133 167 34 127 178 42 186 141 62 159 75 75 240 6 226 96 98 222 21 218 249 69 151 115 26 96 9 18 155 253 18 149 120 119 177 206 200 218 210 203 239 72 32 91 20 156 27 205 214 76 106 251 58 148 114 136 232 209 39 101 152 43 34 154 199 118 245 67 174 90 187 216 116 178 243 178 163 51 142 203 217 78 70 198 192 87 50 47 63 230 151 3 242 126 2 115 216 108 147 229 76 242 156 60 55 165 107 89 131 20 99 225 211 170 82 65 113 214 254 240 135 104 1 244 147 63 215 168 21 33 54 188 138 234 157 125 158 233 48 87 158 135 195 152 44 41 53 118 54 88 255 84 41 32 12 65 97 181 204 194 229 93 132 209 81 137 232 37 19 69 235 180 218 211 214 119 76 147 151 109 248 39 92 226 139 211 97 241 70 42 6 72 175 231 37 43 135 25 162 188 253 131 68 121 33 66 195 6 155 176 34 45 157 137 62 
35 22 76 168 12 41 228 176 194 221 136 194 210 22 224 246 200 196 105 226 173 90 26 179 205 130 72 124 190 14 199 205 157 50 82 136 155 241 44 240 184 214 8 3 207 228 39 10 211 207 192 110 88 109 164 205 85 103 34 77 40 52 40 48 218 72 172 169 165 136 74 238 179 2 47 143 41 219 53 6 100 136 79 143 130 65 40 58 37 179 7 62 115 246 246 144 98 190 35 180 50 213 134 212 59 201 196 15 232 226 84 19 4 86 224 238 52 192 238 33 197 207 191 246 168 59 119 20 187 254 127 81 75 192 40 199 214 147 145 42 21 224 202 89 57 161 57 50 118 209 61 171 190 33 18 30 207 237 245 229 111 110 136 39 246 49 119 241 14 200 92 137 183 191 224 255 142 210 35 4 78 92 95 255 151 19 200 94 238 243 182 42 6 120 5 223 61 16 188 122 106 208 238 211 214 102 222 45 136 79 102 12 198 74 154 71 216 12 168 93 15 53 3 12 6 131 192 32 40 69 64 138 114 19 15 177 122 189 12 13 177 129 202 241 229 129 55 168 10 116 123 196 57 155 35 179 249 246 127 147 190 185 72 71 175 250 134 203 172 172 177 196 144 208 23 92 179 234 125 76 180 178 9 58 117 13 96 70 102 59 11 224 7 82 31 220 168 235 29 200 
115 27 23 125 173 165 20 244 57 109 182 91 94 48 26 104 202 115 0 238 214 185 44 174 11 249 12 111 229 79 154 81 216 242 132 94 145 102 138 98 126 243 40 252 144 85 118 246 64 181 76 210 208 216 169 165 211 151 86 41 239 143 198 13 226 25 65 143 195 125 66 77 138 98 29 88 211 137 228 139 223 187 140 27 220 0 76 110 102 18 70 49 77 17 105 165 153 120 150 57 203 80 1 94 102 164 219 151 174 52 46 207 176 109 8 240 130 153 219 177 204 84 36 176 135 63 75 192 5 248 202 132 50 73 146 61 25 159 170 224 170 190 26 108 186 180 7 122 75 11 31 21 14 67 56 205 38 128 51 7 47 127 39 151 127 206 188 145 171 61 212 91 77 144 113 7 5 118 211 224 190 191 224 67 51 201 201 177 177 59 235 33 30 246 243 155 58 73 70 2 37 100 160 50 34 16 250 75 154 157 178 75 100 27 230 227 67 205 32 131 176 218 57 184 218 70 119 183 236 33 249 58 142 254 85 138 174 167 127 221 128 15 237 227 195 136 248 156 71 54 134 108 172 196 230 113 108 85 251 20 28 190 157 222 238 242 60 142 123 189 198 104 191 182 203 207 101 111 224 22 69 238 65 148 44 97 186 246 219 13 199 217 82 136 250 153 78 40 157 99 
16 187 153 146 96 120 150 56 210 54 100 250 72 220 153 34 184 25 124 239 47 85 34 47 22 231 215 16 181 136 192 52 245 7 190 3 106 63 148 69 144 71 77 240 85 232 216 62 216 84 246 3 113 20 86 62 241 67 253 238 43 250 236 39 179 11 253 100 229 242 15 31 41 8 98 159 118 250 68 18 21 122 238 219 168 52 169 45 106 4 53 217 184 102 106 100 209 46 32 93 218 121 77 237 37 227 109 176 178 250 39 195 246 243 45 31 220 156 100 37 10 146 69 121 101 180 131 20 215 215 237 149 80 188 151 216 10 63 52 202 18 208 199 124 4 39 123 118 21 52 206 77 87 85 245 120 57 204 124 95 77 112 46 181 79 162 52 8 98 131 129 150 156 101 109 99 197 127 159 136 92 228 49 206 219 182 15 123 61 150 160 108 188 96 169 100 223 21 110 164 180 25 26 188 90 159 96 160 195 97 99 254 184 148 211 207 30 27 89 45 119 251 54 100 172 15 39 75 9 253 139 213 137 104 199 227 84 103 234 92 134 54 141 128 50 44 254 121 167 237 157 51 241 225 133 110 163 229 111 18 212 64 212 194 104 216 82 179 145 166 81 191 148 103 230 181 209 148 248 244 254 149 161 56 179 50 214 179 43 74 75 96 73 199 145 148 217 209 129 214 
25 66 222 240 119 90 54 70 157 181 9 103 171 121 46 226 195 212 113 91 203 166 129 221 110 122 10 114 100 187 30 241 244 37 217 24 183 121 69 218 158 117 123 250 54 3 11 217 43 177 158 141 12 97 218 50 77 65 134 133 146 254 239 175 43 53 138 94 218 43 218 26 221 189 148 215 40 154 2 198 243 175 165 113 116 227 30 7 238 5 79 244 234 2 189 181 196 92 56 235 106 215 191 174 97 118 158 35 9 165 217 81 33 184 205 48 141 148 21 3 87 172 171 232 245 48 79 174 202 128 45 230 239 231 186 61 50 134 223 9 95 142 89 33 191 179 96 242 223 221 134 207 146 32 227 137 57 238 111 64 66 139 175 120 239 194 148 111 89 215 160 175 180 188 74 223 212 135 164 222 240 36 59 19 167 71 62 254 64 165 227 19 54 100 7 201 244 208 21 238 221 79 40 61 143 151 116 50 105 30 226 29 75 210 250 118 156 11 6 112 146 190 116 208 173 243 125 0 133 121 4 95 198 216 193 220 121 135 158 195 133 95 97 214 117 80 140 160 123 83 129 6 181 159 234 31 176 32 88 70 43 37 42 109 29 89 177 180 249 244 146 58 48 50 107 50 247 5 185 58 76 6 249 233 51 178 13 167 70 211 226 194 108 60 80 190 233 185 65 236 
151 70 22 62 114 127 70 89 90 88 72 236 21 14 180 64 148 94 165 17 119 244 97 157 211 38 60 250 50 226 185 172 219 229 243 119 84 46 59 114 38 179 3 93 224 82 251 52 94 10 121 4 75 107 30 254 229 75 183 202 0 187 97 30 78 58 241 142 221 40 146 166 225 125 176 54 180 186 21 237 27 32 82 41 203 32 97 14 44 20 136 214 92 44 128 103 119 171 215 43 22 83 147 28 21 29 24 30 154 46 76 146 82 7 248 40 254 252 114 244 47 231 121 197 77 29 96 178 222 161 111 245 5 152 134 253 73 253 3 190 152 150 230 76 140 39 51 168 237 229 152 217 118 45 80 63 220 118 71 37 12 133 127 149 180 224 178 112 6 132 57 190 185 218 44 66 80 232 203 81 158 196 28 229 138 79 214 238 16 31 126 232 136 189 208 178 43 17 96 158 211 26 129 197 2 227 102 157 38 178 135 205 27 130 70 63 242 179 211 119 241 1 77 36 218 179 42 245 113 20 216 174 56 39 164 123 125 151 220 132 150 237 48 193 108 5 94 16 54 195 15 133 135 2 251 1 139 205 84 6 141 210 98 201 189 19 107 137 49 223 213 32 41 1 142 216 151 55 172 127 223 230 81 190 219 11 210 166 34 117 24 140 138 50 70 23 235 71 155 151 
38 164 155 152 102 86 105 184 166 255 120 181 116 131 98 202 244 5 24 60 39 18 60 48 109 27 203 191 73 41 255 76 101 204 116 21 214 84 137 9 160 68 9 218 125 4 11 82 218 214 22 234 35 11 137 153 64 119 58 234 96 34 94 81 245 64 169 191 255 100 182 116 142 240 168 21 130 208 18 254 150 104 20 217 157 202 199 111 11 45 219 191 182 155 127 77 222 233 129 189 107 236 183 160 119 234 157 142 12 79 63 117 47 161 90 48 29 182 190 92 212 37 246 103 213 250 43 233 41 174 70 56 162 86 85 55 99 26 48 110 162 233 92 96 173 107 47 24 43 55 53 6 165 71 211 9 69 168 42 205 221 118 62 87 42 8 88 222 91 104 169 221 205 6 47 102 25 173 221 185 80 181 246 21 133 123 186 206 140 14 68 160 2 43 179 67 141 108 136 63 101 188 79 2 20 14 130 48 122 79 170 58 19 152 199 50 125 169 242 222 52 147 65 11 161 180 235 35 83 232 172 2 140 254 107 6 255 105 27 101 216 56 223 196 253 73 113 5 147 185 196 96 197 158 232 181 192 249 47 32 2 230 142 207 213 22 69 16 22 127 194 174 59 82 195 126 149 46 188 53 209 147 120 124 197 153 2 71 106 226 198 98 36 205 244 76 74 236 37 73 
226 185 65 179 172 132 160 145 99 176 111 107 63 31 86 92 190 235 87 104 164 87 250 16 64 5 167 36 242 105 83 217 234 125 95 27 50 182 188 36 239 55 84 78 228 70 165 37 55 252 175 193 120 64 17 83 223 246 111 253 213 115 22 231 182 52 227 143 214 208 97 96 194 44 49 135 200 238 175 2 185 52 210 249 237 133 84 82 136 8 19 128 252 243 184 155 207 71 150 182 159 187 213 109 99 245 207 189 243 0 186 25 203 251 136 185 11 14 11 54 195 163 93 84 110 210 127 30 188 28 64 57 149 93 96 114 90 252 246 153 110 101 15 146 245 185 152 169 219 195 126 38 24 47 19 33 51 246 180 152 5 29 169 191 192 159 76 151 48 168 109 194 64 3 246 150 191 214 203 112 100 141 244 75 16 20 254 145 84 73 158 48 51 177 152 241 41 105 223 6 108 96 254 225 113 196 182 77 178 186 233 183 175 82 183 204 50 186 230 74 216 178 135 15 205 63 214 119 215 164 99 228 150 142 111 158 10 143 153 222 85 205 186 37 194 252 13 210 7 137 147 244 199 24 181 93 91 49 44 248 210 54 30 92 54 153 137 160 17 75 229 113 48 120 5 99 167 113 63 133 22 234 204 56 42 101 113 65 102 238 95 28 35 9 89 147 213 233 20 144 
145 226 227 48 204 33 148 24 102 155 148 12 231 67 90 190 8 128 3 227 117 222 58 140 209 4 91 180 250 230 216 21 143 59 219 65 176 50 45 237 5 96 86 144 2 253 6 45 105 81 179 108 16 105 132 240 228 14 110 229 46 248 157 216 21 62 21 204 100 17 153 138 142 170 203 56 240 129 150 45 85 192 201 4 191 247 4 239 101 17 216 78 248 135 42 129 42 211 216 250 113 40 160 150 8 96 61 45 56 54 210 104 213 181 140 210 11 240 131 50 91 244 226 25 224 251 72 183 215 226 110 242 94 221 9 186 124 106 242 150 98 131 132 131 240 24 69 255 123 188 201 97 206 159 212 107 110 188 191 34 35 83 29 221 179 154 158 157 241 176 51 156 246 210 114 41 175 209 61 178 152 195 158 35 198 249 246 111 43 50 87 107 22 14 46 227 249 198 37 232 111 25 71 103 125 138 101 0 24 200 185 20 232 110 202 32 76 236 143 74 158 197 215 58 184 252 233 43 183 200 103 66 255 143 120 30 127 18 37 176 54 230 4 77 245 35 20 1 103 96 233 39 80 222 9 54 18 3 149 222 117 10 44 84 167 250 12 234 130 212 122 226 14 17 101 132 71 75 70 110 32 59 74 44 199 227 179 8 43 12 123 35 188 243 59 197 113 64 76 242 
16 55 44 62 170 50 35 226 100 79 38 14 126 102 251 129 141 62 158 88 11 0 228 35 18 235 94 62 101 74 128 95 176 163 2 107 17 50 135 142 214 149 125 138 137 201 68 79 42 85 146 205 187 197 22 6 2 90 91 103 138 0 240 88 235 128 198 18 75 247 217 176 37 135 18 137 73 76 108 190 36 146 87 15 66 69 90 243 17 168 251 231 232 74 227 6 71 55 62 218 97 107 97 114 215 140 175 180 199 216 189 245 5 92 180 199 168 102 247 18 201 62 6 103 135 17 163 144 78 46 51 108 90 117 102 250 118 11 26 179 10 83 125 29 84 26 114 157 246 18 55 140 177 130 68 142 112 59 118 31 136 206 108 111 62 252 50 112 138 110 28 45 26 167 245 93 154 54 89 56 51 48 96 137 81 221 125 5 170 178 165 219 124 127 179 140 21 234 11 253 153 28 125 203 0 186 109 222 94 23 49 65 103 168 187 48 50 184 120 115 61 92 119 235 178 170 206 107 232 38 58 201 45 125 5 52 195 118 45 199 40 37 194 95 154 98 144 170 219 121 254 129 50 35 54 120 178 181 134 179 190 152 6 251 205 249 124 16 107 193 124 65 129 200 212 59 213 69 39 31 212 138 215 215 144 238 40 169 5 10 163 12 160 40 185 187 2 248 169 9 
1 133 164 116 239 104 46 124 31 59 199 182 166 81 203 28 95 164 151 167 50 15 237 32 149 190 154 51 82 226 85 197 139 169 235 135 252 109 153 203 129 44 185 151 216 56 162 248 167 47 201 153 193 46 44 148 165 66 240 136 72 31 72 236 20 21 154 163 48 63 221 208 2 254 70 235 242 165 35 21 113 118 7 168 58 206 39 19 216 156 4 229 105 23 74 39 161 177 248 239 18 70 194 50 170 154 180 218 125 2 23 24 196 97 152 252 38 86 167 67 55 180 30 112 63 51 35 30 60 101 79 148 42 235 16 154 129 232 75 139 0 182 70 172 169 216 198 188 13 48 116 204 201 114 133 81 81 217 154 120 236 25 229 185 0 148 142 175 144 208 85 39 3 41 120 119 39 195 215 17 117 195 86 87 151 191 131 177 39 114 121 221 186 181 4 135 29 171 5 26 222 59 24 213 14 195 117 33 70 10 20 34 232 119 21 140 167 129 94 184 74 103 134 247 172 33 242 38 8 150 61 130 115 15 221 190 170 236 4 83 14 150 197 24 237 180 120 18 3 162 95 141 65 30 138 107 205 69 247 189 73 191 254 144 88 54 236 9 94 12 239 181 136 77 50 26 13 226 72 146 179 8 206 89 148 1 76 228 34 9 93 116 105 140 16 236 148 150 141 223 
179 139 252 238 187 24 162 81 206 105 77 179 189 157 243 67 204 119 150 8 181 86 106 116 239 103 58 61 47 25 8 104 48 209 244 167 176 224 95 228 187 178 79 30 43 71 21 116 112 231 46 127 141 18 104 229 99 183 69 43 50 166 164 203 93 70 158 135 109 139 175 252 89 35 22 122 5 240 126 19 8 187 221 242 178 39 157 239 78 227 250 96 164 36 171 49 194 83 196 55 252 2 219 193 50 37 105 112 81 127 116 73 28 90 107 9 45 123 82 184 54 85 30 129 141 125 99 193 232 94 44 94 101 46 42 90 205 33 18 168 25 220 64 62 53 44 160 107 5 248 206 107 166 116 124 57 246 152 21 164 86 209 159 165 174 246 230 240 178 125 215 201 100 239 42 25 218 153 68 193 66 133 91 46 35 168 219 45 230 93 8 1 148 18 229 180 225 65 85 170 106 163 129 124 59 160 121 3 148 9 30 178 237 9 63 41 55 89 2 8 101 180 134 1 43 139 198 50 5 249 193 177 124 249 216 104 165 215 119 35 234 228 247 231 12 110 195 134 105 239 186 112 123 133 213 204 162 162 10 199 35 5 112 44 112 233 163 54 170 124 106 162 100 146 151 7 170 155 47 106 65 210 203 13 49 184 62 137 129 193 120 28 66 77 171 68 207 217 172 141 
82 119 155 167 138 123 198 187 204 120 203 255 72 107 253 137 142 53 9 97 81 79 218 217 106 185 185 33 31 51 185 22 166 176 82 91 229 8 76 171 124 237 222 109 5 32 24 137 154 228 126 123 152 180 246 166 163 49 228 234 235 94 147 120 173 15 215 229 252 159 240 126 193 226 178 220 1 90 227 184 94 174 229 0 225 87 148 41 246 157 114 200 184 194 2 92 111 125 113 110 87 170 123 221 164 63 141 115 194 130 39 187 225 121 133 23 177 162 126 13 106 229 172 226 16 199 205 106 245 224 105 30 127 143 182 111 43 236 184 90 210 254 172 61 44 47 167 233 146 252 123 248 8 241 218 97 122 213 190 73 70 34 7 28 251 184 102 221 96 209 123 186 185 56 58 228 69 182 147 157 11 205 82 147 215 169 68 108 127 84 155 162 106 41 147 145 83 139 86 206 75 215 29 187 253 150 153 88 54 248 145 92 165 126 204 133 223 246 49 44 165 172 45 28 106 223 85 164 16 114 77 235 243 228 232 132 40 130 144 66 7 219 233 78 230 117 177 118 40 190 235 200 119 69 60 96 77 42 149 126 185 212 18 220 96 225 34 62 194 99 233 74 190 73 226 154 88 27 201 16 187 235 184 105 122 136 144 21 27 244 154 70 214 24 110 72 154 183 20 16 
81 161 106 23 101 41 197 105 131 216 219 248 159 99 225 55 56 219 240 228 221 36 173 37 240 168 41 215 170 76 6 35 95 164 220 82 3 98 218 226 238 21 177 217 220 16 173 89 56 167 37 117 154 162 22 67 142 235 11 50 151 138 64 158 115 211 6 162 161 222 105 46 33 56 17 89 123 216 102 248 2 85 248 111 90 86 29 199 56 73 220 1 105 88 9 170 22 152 178 176 70 132 186 116 164 171 196 32 131 165 82 59 31 75 46 123 37 40 10 218 118 42 99 235 40 157 171 111 206 90 166 36 250 60 21 221 0 212 146 215 252 94 187 75 22 243 146 64 4 0 36 163 209 246 105 153 221 67 108 20 38 130 171 165 197 238 193 145 188 29 66 38 238 235 231 79 111 180 235 103 254 198 180 75 208 21 182 179 144 49 149 194 163 118 137 219 176 130 7 183 96 237 158 180 98 52 31 112 179 245 0 151 28 98 2 249 252 240 18 224 71 79 109 160 207 159 8 111 194 225 47 119 116 171 108 42 95 32 170 214 105 32 154 121 101 188 86 214 219 237 69 200 12 133 62 215 49 101 240 9 4 241 129 250 129 193 117 47 238 153 210 168 25 156 129 180 225 188 248 10 247 117 22 20 230 187 78 142 81 49 8 80 124 155 68 104 15 150 129 108 
22 135 221 15 75 209 125 241 152 75 47 188 216 241 78 108 222 217 231 238 184 105 25 237 52 200 194 233 164 146 88 137 223 208 20 50 136 39 86 216 147 79 69 20 4 199 181 119 250 199 79 31 237 119 235 135 52 94 65 163 202 29 193 45 81 93 191 58 87 6 211 16 217 177 128 59 5 97 19 222 68 109 206 72 120 193 70 199 130 71 10 193 8 159 133 0 117 22 38 78 65 214 190 66 114 90 41 89 99 37 48 72 196 180 174 145 226 177 242 85 40 105 101 105 230 128 108 172 82 227 144 151 205 255 221 21 103 49 135 149 164 125 212 94 129 130 53 35 178 173 182 216 46 174 153 196 237 40 62 214 240 173 71 60 131 233 249 50 191 29 228 24 82 208 198 200 131 193 173 38 112 31 92 249 154 252 240 249 164 0 195 40 88 90 145 102 235 252 217 64 130 8 134 10 244 133 207 45 210 87 92 193 165 110 170 95 118 61 176 48 148 110 195 74 145 212 183 61 142 161 71 232 184 217 182 146 19 6 183 54 119 46 139 29 216 2 105 178 202 88 34 147 67 219 5 228 163 1 0 232 243 62 9 210 106 120 188 216 54 186 70 138 121 44 129 98 145 67 96 156 156 53 142 71 59 176 82 157 151 203 182 144 162 61 232 165 160 204 224 5 
229 9 67 210 224 59 136 183 88 153 89 195 246 188 60 119 4 83 114 29 116 25 31 92 36 4 172 10 96 191 106 65 169 91 120 181 180 66 230 68 182 108 26 207 223 213 115 73 36 46 45 13 66 210 133 117 0 253 29 168 180 56 161 179 8 24 171 220 254 40 228 50 50 36 109 105 96 104 125 229 37 167 75 21 10 224 46 2 190 142 2 40 163 32 207 132 140 168 165 238 198 215 202 169 85 41 24 57 127 93 160 116 143 40 147 220 211 42 99 44 231 33 37 49 53 93 58 219 189 116 46 148 18 54 224 208 165 227 227 230 70 156 37 30 232 24 206 11 165 152 107 27 2 29 76 108 115 216 42 225 34 226 14 118 236 45 109 208 172 187 152 25 189 13 84 10 186 223 196 73 136 18 144 246 151 234 64 128 100 121 233 190 67 91 12 59 91 164 187 209 242 23 253 121 235 153 116 97 140 229 61 63 133 128 24 230 46 240 201 22 17 41 190 153 168 72 241 139 104 131 16 250 254 96 220 175 216 38 207 74 231 145 1 149 163 202 76 18 80 150 174 214 128 206 240 154 218 15 133 16 25 178 181 115 88 255 251 98 140 157 171 238 82 77 215 242 235 217 116 163 132 70 185 103 187 81 200 235 96 26 144 111 120 26 242 101 136 90 34 59 
16 231 81 117 85 129 137 254 99 147 216 192 83 104 176 114 202 155 142 177 194 207 218 83 141 161 14 248 22 219 27 225 107 234 9 6 120 147 221 98 21 225 191 146 68 98 92 158 179 147 138 23 137 152 42 98 95 48 83 83 139 233 173 254 165 144 26 201 68 236 156 198 9 172 115 64 223 157 133 148 128 32 3 66 60 220 74 68 246 176 7 159 111 235 159 55 199 192 206 231 64 244 142 209 70 218 58 243 172 129 243 252 57 44 67 93 99 2 0 162 90 7 115 3 72 75 186 54 215 98 107 136 245 19 122 44 212 84 93 211 52 119 109 125 228 158 144 142 134 116 21 36 148 31 223 168 160 112 198 163 224 93 58 211 233 178 41 127 187 3 35 7 254 229 189 191 139 94 51 253 46 153 81 113 170 222 147 181 254 194 139 37 231 155 131 241 166 55 100 113 3 206 214 184 146 52 169 107 53 83 116 212 226 217 123 50 167 46 214 83 235 169 208 101 246 3 142 10 180 12 241 170 181 156 188 13 121 205 250 41 235 103 154 56 43 156 93 14 144 246 242 170 238 141 95 11 20 125 162 69 153 151 152 211 217 87 31 47 58 22 119 160 180 129 239 83 144 74 189 174 111 30 45 225 143 214 254 190 74 241 8 202 223 66 35 148 117 230 69 69 
93 121 234 121 152 137 185 77 153 75 100 185 75 141 208 33 86 236 118 38 159 71 9 194 13 116 88 148 147 49 119 120 107 93 25 91 159 104 65 78 206 8 26 216 45 45 34 145 204 56 142 236 27 103 235 85 172 148 1 124 58 32 252 240 235 42 206 239 210 4 207 125 184 231 166 179 28 229 109 90 120 32 16 184 198 58 246 170 67 12 228 243 115 155 30 212 101 71 207 221 56 70 170 2 222 81 210 241 32 157 247 163 226 13 194 49 169 166 116 234 90 67 202 162 69 138 35 76 97 30 228 204 217 22 28 6 200 175 100 59 65 61 10 149 147 104 110 0 203 148 171 60 122 161 122 48 184 213 84 130 104 22 215 100 190 93 107 177 255 103 37 56 136 174 236 88 18 151 218 205 52 237 228 201 41 142 190 70 212 100 249 155 1 151 111 78 238 1 224 42 10 227 221 145 252 214 229 19 231 4 207 63 237 151 103 184 242 114 92 140 162 31 90 194 181 9 115 50 113 236 195 154 113 137 84 237 166 158 63 238 155 21 20 254 253 124 124 50 90 181 29 169 41 239 190 29 11 213 172 183 80 4 92 40 189 195 81 245 140 238 64 18 181 52 115 179 108 131 107 95 235 191 201 70 113 186 111 212 139 97 226 134 146 51 242 253 117 248 158 81 
184 175 50 167 189 200 178 6 67 147 123 102 44 249 40 10 131 106 179 16 189 22 220 71 63 96 207 64 33 143 1 168 50 199 91 212 60 57 154 158 137 150 246 112 165 201 1 158 102 229 211 249 42 92 100 161 96 115 57 26 74 242 67 162 0 32 4 194 185 238 243 36 70 115 34 164 223 152 30 169 34 21 22 182 89 156 64 60 252 83 121 179 119 136 44 232 44 161 116 153 188 81 133 63 130 18 72 43 97 207 69 212 192 224 198 112 210 60 57 193 27 234 215 50 48 185 131 34 190 49 245 128 205 201 23 152 70 91 175 44 179 212 63 199 71 48 41 78 30 166 23 216 197 31 154 191 253 237 18 248 188 186 205 159 117 190 115 214 153 54 161 208 94 17 212 41 191 236 137 121 196 64 162 40 3 218 12 132 103 140 159 16 48 35 69 31 59 152 95 162 132 139 100 63 233 236 203 163 49 252 44 24 76 116 162 90 220 3 115 166 245 254 243 21 33 84 165 40 168 192 164 164 14 66 65 160 220 207 238 220 164 72 91 84 63 169 222 21 89 131 24 80 48 172 214 173 152 52 53 225 67 156 10 131 63 67 128 27 192 33 3 125 32 183 93 85 36 70 31 2 129 64 67 168 158 252 15 128 156 173 61 115 148 149 88 232 31 118 105 218 
28 74 211 45 173 51 124 66 131 181 45 201 92 35 60 214 201 87 104 55 53 166 4 6 35 20 88 122 183 195 68 2 120 178 38 149 84 164 254 67 229 93 208 17 242 20 74 3 57 38 167 122 107 8 211 192 121 127 208 226 14 19 88 190 92 193 196 92 28 240 44 130 208 166 208 130 76 252 182 87 116 207 149 240 71 185 242 204 29 63 137 199 44 76 238 52 81 223 116 43 14 0 78 36 207 248 244 197 113 193 201 249 4 188 250 66 208 162 169 80 151 189 75 210 26 88 78 140 222 116 255 170 48 188 172 84 103 187 5 130 105 77 200 18 113 83 158 24 15 171 64 117 112 96 221 171 223 29 192 239 140 232 46 128 140 12 141 56 34 87 204 96 61 134 254 201 65 254 72 24 10 189 254 98 47 143 9 249 131 133 140 133 226 163 199 86 42 217 59 248 135 53 14 8 244 86 178 71 254 36 194 237 203 190 44 64 92 180 149 100 15 119 249 117 104 13 146 211 16 9 252 189 30 187 150 34 150 164 43 179 47 44 210 61 90 152 18 54 127 54 74 150 138 218 80 232 166 142 89 160 72 134 25 175 112 82 43 85 44 87 178 54 93 128 65 177 189 49 248 109 33 125 240 52 252 152 218 5 37 143 226 100 218 54 218 245 4 98 148 73 
188 89 143 248 15 135 214 240 254 115 38 12 201 241 79 233 110 152 220 245 108 118 246 200 204 3 134 184 98 84 154 167 81 145 10 32 205 169 91 163 37 68 227 60 0 250 46 90 230 194 161 223 3 173 93 116 40 212 103 31 19 142 5 23 240 231 107 215 32 78 150 113 56 142 121 37 77 0 87 50 111 254 112 236 115 154 223 15 246 144 195 83 158 122 157 64 163 67 249 68 142 222 81 3 65 56 46 238 56 107 144 23 14 52 144 67 67 167 68 65 60 33 227 123 139 127 41 203 113 141 253 144 161 193 82 0 71 42 75 192 73 163 162 178 205 76 74 14 251 59 83 180 4 110 15 192 99 4 115 95 99 173 191 226 225 96 98 17 83 76 23 194 9 16 85 170 179 46 230 114 36 189 213 13 85 95 142 74 173 115 65 165 127 140 135 99 213 33 72 222 108 134 220 29 255 26 112 167 200 195 172 153 69 151 147 247 56 220 170 64 241 51 92 69 207 16 157 58 5 109 206 14 154 192 224 248 180 42 189 83 21 241 227 171 230 48 82 24 179 205 169 202 184 172 140 230 91 34 72 145 249 173 186 73 229 226 109 124 174 166 2 83 161 161 213 207 143 240 221 24 209 26 212 18 136 70 152 48 41 171 210 141 58 71 213 57 86 212 201 208 
119 248 8 82 117 188 200 46 201 63 251 160 151 172 115 61 236 105 74 205 68 145 129 88 79 165 231 132 244 126 60 30 151 134 151 246 151 40 5 240 27 133 115 88 15 105 206 118 105 125 104 98 177 190 158 26 192 45 184 210 200 200 16 139 148 186 119 231 17 207 212 60 14 42 14 231 64 58 44 227 137 234 187 154 121 24 112 250 22 73 15 204 216 155 139 65 248 251 111 206 235 151 124 58 41 150 148 246 50 7 215 172 211 24 11 26 165 137 65 33 216 96 181 25 46 221 247 104 74 176 72 83 43 106 71 20 244 50 205 44 238 185 21 250 207 112 32 141 61 248 87 183 142 217 115 98 210 120 154 39 19 67 202 29 219 47 123 239 247 100 128 50 123 54 47 245 6 88 193 153 71 76 252 227 192 30 15 79 202 82 189 167 218 27 189 213 2 206 97 246 187 149 119 175 225 104 109 196 255 57 184 230 205 111 117 205 247 150 81 135 32 85 167 16 39 160 233 34 169 46 65 78 199 46 120 76 41 54 22 144 66 124 203 29 214 72 13 158 186 169 3 179 220 104 162 137 131 58 22 173 215 57 99 34 163 149 76 177 90 135 116 128 88 135 195 230 107 191 11 126 146 191 235 122 4 114 244 58 116 81 11 30 148 214 14 152 216 52 187 133 
124 69 205 189 200 196 103 232 147 188 182 148 6 64 211 133 162 93 230 76 132 77 145 28 232 237 140 216 237 114 140 112 152 87 106 110 26 153 129 204 86 39 88 9 158 148 129 124 189 16 192 231 59 150 112 79 220 103 35 11 106 182 137 28 180 165 147 188 215 112 215 57 188 232 55 4 226 36 189 5 94 115 202 50 32 148 112 96 119 42 28 89 216 106 120 46 219 23 143 207 134 176 51 216 206 232 155 174 91 86 81 203 140 110 76 86 187 176 88 247 194 31 191 233 189 245 34 81 18 149 168 206 175 193 91 81 147 13 206 47 144 147 3 116 79 233 141 123 148 80 242 187 195 46 83 228 164 191 79 43 99 7 36 225 219 11 23 75 19 64 23 174 9 68 157 169 175 204 214 199 52 222 4 85 132 64 34 113 18 48 198 100 213 85 76 50 144 246 49 111 87 106 189 83 79 207 229 17 181 255 111 101 34 192 87 108 13 59 114 185 145 176 81 165 112 103 104 230 89 234 111 100 102 113 9 72 233 158 164 85 104 106 160 123 230 96 179 169 100 9 140 228 168 167 182 150 61 37 192 40 187 79 155 210 73 63 67 178 95 23 161 28 209 246 177 50 9 36 224 180 147 144 184 25 224 125 190 222 67 120 155 30 64 141 123 99 6 186 179 188 
58 164 166 15 246 137 233 177 18 118 165 52 162 186 61 128 191 154 49 37 139 70 67 240 111 12 216 189 167 204 160 139 1 172 121 214 225 12 145 33 137 189 203 210 151 109 101 66 207 102 215 21 27 121 254 199 208 52 121 136 51 92 84 74 60 151 227 24 154 104 241 169 246 96 27 53 124 147 118 135 152 74 120 84 253 247 21 203 236 110 40 109 179 81 21 31 116 204 172 125 39 131 81 114 226 201 90 5 88 19 185 118 161 172 219 138 57 170 208 35 74 32 171 19 46 149 44 50 47 181 156 175 146 71 249 163 213 95 83 236 52 213 118 56 114 245 201 96 213 120 118 248 115 180 203 36 172 15 225 172 248 185 123 83 227 155 48 101 85 138 205 144 23 193 245 244 147 142 10 125 219 75 81 113 237 144 80 69 54 167 123 181 84 64 16 20 32 102 64 224 236 178 143 153 9 191 125 211 141 221 102 139 82 10 167 183 66 30 2 32 210 69 68 116 205 178 36 151 83 146 111 59 33 63 98 176 19 183 87 253 230 76 165 47 67 157 193 241 249 196 169 93 139 209 130 18 234 120 127 135 131 6 6 159 124 153 14 125 59 145 204 153 41 66 142 19 181 235 231 72 155 236 12 164 102 51 126 183 51 248 233 138 185 170 76 51 134 41 91 167 
139 53 34 208 219 39 234 223 176 222 96 228 175 253 244 155 109 84 128 137 49 155 42 72 252 102 139 32 198 85 17 215 11 139 161 201 134 98 129 59 61 93 118 236 189 95 41 237 167 26 207 179 107 201 9 107 84 34 9 141 197 134 247 180 194 124 147 173 177 93 27 205 98 81 111 136 78 121 115 64 28 110 181 91 106 235 80 152 201 198 16 163 9 37 214 231 184 238 62 163 229 127 128 64 41 160 148 226 233 181 154 61 213 57 120 170 180 103 197 121 100 58 230 137 28 152 118 23 245 202 236 212 169 48 119 58 154 51 45 31 22 122 101 139 217 97 97 199 211 167 49 182 44 102 211 104 134 73 159 237 130 249 227 103 133 216 202 99 188 242 130 106 93 49 157 210 48 208 184 218 79 17 91 247 42 51 33 104 205 158 25 16 102 98 107 133 1 223 63 101 151 197 218 233 71 64 10 188 227 108 197 13 174 15 13 227 100 135 22 176 123 1 171 42 169 236 206 86 166 174 159 229 51 149 127 196 91 16 116 239 249 31 207 134 122 8 13 34 228 76 252 105 23 217 31 224 84 129 82 1 251 171 177 142 153 72 183 36 33 9 163 19 122 207 32 109 58 100 36 93 178 104 25 186 42 142 59 220 109 8 65 175 137 63 63 5 208 200 203 49 
34 147 95 209 111 102 254 235 119 138 26 60 212 197 182 204 59 136 200 198 255 104 225 135 214 210 15 245 224 251 3 18 229 23 111 209 223 203 178 40 184 228 183 102 84 73 26 199 210 46 141 69 15 139 123 178 108 205 235 4 210 203 166 240 243 251 156 186 210 230 132 75 133 217 195 132 57 222 143 210 120 234 84 2 167 88 86 87 211 150 153 218 173 31 254 242 210 169 174 52 80 159 187 124 102 209 5 61 140 107 91 21 179 35 227 165 206 183 188 159 145 151 225 32 121 222 81 65 12 135 109 233 98 222 161 229 228 52 70 58 84 215 199 185 14 66 3 213 141 144 243 178 48 55 141 126 62 242 232 4 41 255 160 126 15 139 124 171 134 107 78 34 153 12 27 230 14 173 124 58 235 203 68 183 56 221 99 155 5 66 11 100 175 120 17 158 96 142 149 249 213 220 229 158 100 241 159 195 61 205 22 125 240 81 247 214 47 243 45 32 213 182 1 137 40 90 134 239 91 207 52 245 88 240 211 86 188 110 155 121 34 10 153 70 164 8 84 57 159 224 177 180 183 54 20 154 27 12 200 25 10 55 161 199 151 15 223 241 169 107 86 47 69 205 204 60 16 217 163 5 15 12 184 0 178 170 138 191 17 248 159 197 117 172 35 152 26 162 211 24 
51 208 25 14 47 124 120 8 59 172 43 101 8 223 9 172 206 250 172 34 145 133 210 155 163 23 3 144 106 15 117 114 99 133 44 62 103 129 101 82 45 106 53 127 17 193 110 95 19 15 194 232 35 27 43 66 156 97 138 214 14 192 142 168 64 115 215 230 117 66 91 193 239 249 9 123 178 26 173 193 138 207 20 60 79 34 112 99 104 112 253 147 142 27 229 97 210 128 98 47 226 41 34 253 136 67 239 130 115 82 143 123 58 35 233 68 158 2 106 165 16 46 167 238 115 138 68 70 34 149 20 64 53 156 129 175 0 47 47 188 221 209 220 53 44 243 139 40 151 36 225 177 155 130 207 16 67 116 113 254 55 155 54 66 246 5 66 127 96 164 16 80 119 255 92 150 102 40 64 17 195 238 157 46 17 83 188 32 137 65 53 50 26 120 16 92 174 203 43 20 175 140 219 102 201 69 214 71 242 168 81 39 168 201 101 197 122 139 183 71 202 88 88 138 209 22 234 183 228 86 5 23 245 206 217 40 92 9 20 240 216 93 6 145 208 30 2 30 223 17 8 173 144 35 162 173 102 91 12 122 32 14 151 47 58 82 79 188 183 180 220 56 30 46 166 120 195 83 61 224 71 205 247 121 98 9 219 68 224 49 189 206 234 91 171 5 135 0 136 74 
99 175 247 199 206 2 123 3 7 210 220 179 187 167 204 212 201 114 202 246 72 127 71 219 203 165 7 64 227 192 203 251 230 97 45 70 239 195 203 91 38 1 167 65 66 135 206 229 76 198 56 108 165 45 240 200 74 84 116 137 87 122 95 246 202 49 69 93 138 88 223 167 168 74 104 47 228 85 70 213 115 110 237 78 255 34 1 190 240 208 186 136 234 22 141 100 150 137 9 179 166 169 255 16 19 20 229 40 169 249 124 203 198 208 177 67 95 72 193 228 67 129 161 228 164 124 157 109 211 208 63 241 75 158 114 190 241 198 231 210 154 91 184 240 206 85 76 243 204 134 122 99 205 208 241 70 141 148 215 56 8 109 176 190 129 31 130 216 201 202 54 213 190 100 66 107 18 101 133 7 78 196 114 98 22 35 113 85 174 71 130 238 189 202 36 195 81 20 117 134 36 135 154 218 30 250 97 101 26 105 37 39 237 234 243 10 164 227 234 186 14 123 232 182 123 78 99 168 194 101 148 242 137 101 219 137 192 6 95 6 111 199 245 250 178 225 67 130 1 121 37 28 181 25 79 185 200 97 52 20 221 250 39 65 128 204 192 137 174 113 130 117 152 233 186 41 164 143 170 243 181 75 231 36 172 10 0 31 47 107 96 175 169 187 118 158 145 36 19 131 
240 33 19 219 29 53 63 91 203 221 114 133 70 195 251 122 250 52 67 15 53 212 176 34 46 145 200 47 69 213 154 30 140 0 89 95 135 21 75 57 48 179 225 95 62 72 40 197 167 129 96 177 100 5 233 21 116 98 103 28 35 71 30 3 140 245 158 42 93 240 165 107 218 250 65 170 37 65 53 173 188 216 158 46 67 100 214 47 132 24 153 142 180 227 102 217 247 231 40 99 39 46 22 152 209 152 216 141 129 24 235 220 64 32 70 174 90 90 62 25 101 153 167 173 126 15 60 73 214 192 65 51 110 54 102 104 30 119 239 49 220 52 18 247 59 67 160 88 50 80 232 123 31 207 217 160 11 52 102 251 48 103 47 194 184 114 93 133 200 125 205 190 189 253 114 169 182 40 244 85 82 172 157 251 187 160 118 144 227 187 173 150 13 196 58 55 144 73 194 148 215 148 188 91 173 219 210 151 183 183 138 205 66 215 37 68 64 246 200 164 140 10 217 195 118 191 172 187 123 35 95 64 84 163 2 48 51 54 251 108 73 216 169 231 139 58 72 252 182 184 21 5 144 139 178 41 113 64 203 117 3 104 250 46 70 146 232 102 215 118 182 206 113 115 155 203 180 60 206 204 37 206 166 218 119 165 255 113 9 47 225 142 175 129 92 9 181 73 182 37 
33 3 201 102 57 112 166 162 69 68 126 91 150 31 195 76 199 191 138 66 67 116 52 45 7 212 77 119 170 175 180 148 154 70 252 219 168 183 19 148 199 188 33 82 16 149 179 131 10 67 25 69 41 247 12 123 148 202 149 32 43 174 42 220 201 165 25 213 198 49 42 200 193 11 127 88 156 23 192 166 199 152 117 33 194 161 179 160 221 204 251 174 67 45 95 36 54 137 230 254 156 196 50 103 187 153 96 22 65 142 48 221 135 38 102 127 22 88 112 195 107 64 72 198 247 21 156 149 106 91 45 251 49 89 117 152 61 206 140 51 7 224 76 82 209 85 180 7 46 5 138 12 196 143 68 18 81 76 41 87 236 129 180 119 142 217 57 132 208 18 202 88 246 246 92 42 45 141 38 96 17 145 74 164 114 34 183 58 88 187 78 145 68 101 68 24 185 42 199 82 251 205 228 45 23 184 168 144 35 54 133 51 199 226 248 179 253 96 105 230 20 74 83 108 251 109 164 134 188 54 103 43 71 103 160 89 113 14 119 170 60 184 153 39 89 226 220 96 235 176 34 189 142 226 127 15 152 3 158 106 159 227 96 55 59 72 199 133 12 225 19 160 255 123 42 229 206 119 61 212 198 124 169 103 205 105 27 162 163 142 248 108 104 27 252 157 95 216 33 88 
241 23 194 155 245 232 0 20 46 139 101 55 21 43 199 141 217 201 111 79 165 118 123 51 33 197 129 134 59 128 117 123 39 154 205 195 164 101 226 93 130 5 154 176 97 37 68 215 187 232 195 60 37 34 239 104 209 201 56 25 88 166 141 149 182 80 124 63 150 91 154 104 209 205 37 103 49 209 232 236 122 176 95 145 171 252 28 178 129 15 105 127 61 180 47 79 167 35 22 56 83 51 238 220 35 203 78 133 13 153 122 117 30 7 138 119 191 107 201 186 56 126 92 223 114 16 36 81 1 250 229 213 97 83 167 98 128 231 92 50 125 228 196 25 176 215 142 22 234 215 192 40 254 0 88 98 128 36 51 66 204 188 47 63 74 37 141 161 241 9 153 149 10 27 140 129 55 7 177 149 179 168 199 163 219 124 167 48 238 86 38 203 17 83 61 157 150 15 103 66 125 25 75 215 59 164 155 84 187 127 60 28 163 71 167 211 216 219 143 112 68 16 196 147 215 166 87 24 203 123 255 236 45 255 187 31 153 232 185 59 69 39 119 213 64 26 40 97 252 3 89 75 11 185 212 67 38 157 196 216 115 208 27 72 8 163 49 150 171 79 173 222 219 231 169 230 21 138 17 245 80 221 76 232 202 184 31 130 6 32 206 4 21 118 132 253 22 237 244 100 
249 66 65 228 136 167 27 119 167 0 44 54 218 81 178 112 9 119 109 249 128 23 187 196 58 213 2 180 95 198 78 176 11 39 59 246 81 79 22 177 128 226 63 205 164 72 209 10 80 93 133 79 155 106 212 66 105 85 92 21 236 20 133 162 106 103 100 187 64 199 224 187 39 153 19 97 182 168 243 223 40 210 49 45 96 2 97 163 42 94 92 199 196 193 226 100 157 107 132 220 92 247 193 190 36 142 112 155 22 91 94 22 24 62 55 59 213 197 170 18 5 88 200 115 239 179 173 27 44 154 99 0 173 199 3 226 0 40 29 35 206 71 90 216 169 10 96 32 4 156 246 181 131 171 105 192 118 212 46 242 160 91 200 208 60 32 237 78 66 206 228 160 230 86 49 77 97 156 116 133 245 111 143 180 43 191 7 87 96 10 173 15 127 24 125 243 16 232 198 43 114 234 139 187 100 111 41 156 203 93 59 17 175 39 187 56 134 252 106 223 181 63 113 154 84 56 72 18 49 9 215 160 24 227 219 27 82 121 140 238 108 181 125 109 58 170 195 105 26 203 89 1 125 90 195 188 164 35 242 213 168 105 104 214 189 33 156 104 183 94 160 106 206 13 1 64 158 226 239 110 114 146 157 101 193 67 235 156 249 64 67 227 124 242 192 245 232 12 150 76 
156 5 174 57 120 203 144 51 227 182 134 112 19 186 254 178 137 226 49 100 218 249 2 229 181 138 41 36 34 12 144 109 8 86 253 130 242 89 242 238 18 13 210 150 135 172 68 145 219 31 220 57 208 181 249 130 92 27 233 139 242 137 84 115 3 57 215 110 197 29 239 24 51 209 25 9 85 207 55 169 193 226 54 69 98 221 238 99 120 140 73 83 224 235 168 7 150 150 130 37 120 129 78 89 76 233 164 240 5 138 159 163 66 19 133 176 24 215 170 48 17 197 145 164 116 154 85 209 199 85 71 206 147 235 217 91 103 61 187 116 31 71 67 38 102 154 18 162 122 12 245 144 48 174 9 165 55 254 35 120 160 94 110 145 158 197 86 195 139 181 165 189 44 109 236 219 54 95 37 66 17 228 150 43 219 47 249 127 176 127 217 165 41 153 63 151 34 118 142 60 193 57 172 242 180 100 98 105 185 74 6 184 100 200 87 170 29 48 168 89 104 134 65 255 105 239 2 8 167 102 73 108 16 177 22 59 61 147 109 122 248 68 252 45 251 30 254 181 251 153 95 92 229 121 33 47 104 70 254 12 179 253 79 251 128 5 44 193 81 100 213 179 249 51 80 201 95 79 84 243 127 82 102 176 177 194 66 220 46 136 124 201 208 163 103 146 25 29 54 172 
119 62 97 190 198 1 75 179 23 196 33 13 176 67 5 124 84 199 108 175 196 155 196 106 133 192 91 217 228 225 124 36 56 137 219 67 103 148 50 20 171 228 45 170 150 85 132 232 84 242 102 79 49 105 30 21 90 188 241 119 232 58 69 80 26 174 9 233 226 214 80 19 164 22 63 115 58 110 42 30 59 170 250 102 125 216 210 243 216 255 242 21 45 14 219 88 167 19 179 89 65 173 236 217 137 196 33 16 163 119 64 67 144 86 238 153 177 210 39 43 134 241 37 90 188 71 132 101 103 33 163 59 140 3 77 141 226 85 153 40 217 89 14 130 220 96 11 146 211 62 102 229 237 251 84 239 156 203 137 159 225 64 160 54 201 191 188 88 56 49 112 99 229 250 220 1 166 47 25 249 238 3 216 75 147 131 69 123 213 132 50 45 157 217 113 242 2 201 129 98 17 192 110 107 206 68 242 232 118 43 224 117 7 11 194 130 2 243 193 167 112 88 198 55 35 82 223 24 62 9 228 210 248 105 90 229 156 30 151 96 212 188 39 175 40 61 111 181 194 177 144 27 116 49 143 231 252 21 178 80 134 103 45 208 114 151 253 124 88 111 21 145 73 74 184 79 88 129 38 10 89 39 122 126 233 246 211 99 175 136 178 65 225 203 163 134 9 175 32 214 
9 33 178 162 92 61 89 252 160 191 46 169 81 187 71 120 216 143 219 211 196 21 166 148 87 29 143 26 68 26 137 155 183 27 183 187 150 253 211 94 6 223 208 187 50 215 190 179 72 227 239 96 195 35 88 240 240 69 57 180 171 64 1 116 106 69 108 6 126 242 238 30 149 202 84 104 130 226 169 212 65 220 86 50 53 25 142 254 181 43 233 125 199 137 79 9 43 135 24 168 156 133 113 228 82 102 2 215 203 68 206 134 203 97 90 112 162 97 17 102 173 183 231 156 31 94 61 1 1 201 4 204 120 28 38 87 71 156 33 49 148 100 245 111 239 91 65 66 144 98 169 207 224 210 122 58 60 37 145 4 245 243 121 152 155 33 211 32 123 85 251 157 102 172 232 55 180 176 84 209 137 132 29 225 87 98 236 127 164 72 20 188 14 237 189 52 140 250 65 231 246 119 214 68 200 131 110 135 35 73 219 69 20 47 55 69 25 80 131 146 225 45 142 206 84 159 24 201 211 17 56 83 193 235 251 78 66 81 78 7 66 14 30 198 186 203 189 163 46 133 136 156 123 62 199 229 207 242 212 127 249 204 128 12 227 154 178 226 92 127 81 94 27 231 100 122 1 192 120 162 159 232 66 196 248 225 134 167 136 204 56 125 133 149 224 187 100 107 67 40 
159 115 63 52 182 189 247 140 116 119 48 235 115 96 251 51 226 128 149 188 134 23 139 236 255 211 33 8 77 69 245 73 146 150 224 51 25 118 29 34 152 86 173 38 178 215 249 16 192 130 186 205 209 185 22 243 239 237 11 154 165 18 17 109 190 80 251 1 78 252 31 101 247 198 182 250 101 52 134 132 27 79 190 130 114 156 33 187 222 77 102 26 116 185 223 187 169 10 90 70 93 53 69 124 24 48 21 15 147 95 232 183 122 79 104 130 112 166 243 108 84 90 250 47 194 34 167 92 221 42 195 171 76 11 214 143 131 250 144 14 68 63 103 208 101 234 130 118 211 193 214 45 215 124 143 130 152 53 177 120 226 26 255 215 37 101 28 200 193 142 240 159 128 190 77 248 100 136 210 5 164 212 16 38 241 27 236 186 253 218 68 54 62 64 214 116 240 42 93 77 89 82 252 105 80 195 224 86 0 145 34 216 234 198 234 128 41 159 218 128 250 249 170 190 123 6 15 39 179 68 226 70 211 176 126 21 187 55 106 19 192 109 56 150 173 129 172 99 7 113 33 124 150 122 41 57 32 211 116 154 120 154 243 220 184 15 60 74 202 0 49 86 45 132 220 232 245 236 158 246 20 247 137 85 217 69 10 207 182 14 203 117 70 20 215 54 142 214 0 177 
132 7 126 72 205 62 216 118 203 239 8 98 215 154 218 180 203 66 149 167 196 33 221 95 38 154 216 126 224 111 144 242 241 52 152 16 43 4 243 231 54 114 49 206 217 194 219 64 117 90 17 234 210 115 114 1 30 20 60 217 51 65 180 180 25 112 201 216 204 60 244 228 63 93 98 99 160 216 85 162 222 115 200 191 105 108 82 3 57 106 76 113 17 180 54 159 5 161 87 197 58 80 164 20 237 152 227 73 182 66 16 129 14 118 0 79 16 116 68 12 124 133 80 110 1 48 221 92 188 176 139 1 252 166 203 32 72 12 252 167 163 106 212 134 14 76 2 193 79 243 17 196 241 75 144 248 140 29 112 147 70 134 173 180 154 168 49 175 88 159 245 165 237 182 105 89 229 219 22 62 174 81 129 213 159 165 83 53 56 227 184 235 172 9 5 5 156 188 157 106 38 58 21 109 30 144 150 161 155 13 131 238 182 246 92 228 142 123 227 80 144 234 125 13 245 35 218 29 139 76 216 248 185 198 165 36 189 95 36 6 57 201 147 248 238 75 106 156 199 182 134 111 25 155 134 161 41 187 118 36 239 191 171 3 25 41 237 245 83 139 220 50 198 246 140 133 222 182 115 162 81 60 133 187 93 92 157 78 81 185 31 65 78 125 219 48 79 77 53 6 
103 124 131 202 74 126 183 188 15 160 62 161 52 247 40 91 227 150 136 188 115 4 30 156 50 238 51 41 98 24 197 127 129 153 228 121 206 72 92 198 8 114 148 63 121 206 182 119 51 178 16 148 154 134 187 94 34 122 122 150 90 116 228 137 42 76 198 229 88 60 195 202 81 146 61 36 39 168 121 57 214 22 253 126 203 38 61 175 167 137 119 30 64 72 220 76 232 253 240 182 243 66 51 241 115 106 1 249 70 111 183 199 83 44 23 33 16 204 238 182 72 131 243 106 27 124 243 239 70 18 43 149 164 66 246 99 245 96 168 102 223 10 185 73 50 91 38 38 112 96 20 156 141 208 182 34 243 247 114 154 201 244 63 42 117 36 82 71 95 222 249 18 248 97 199 232 252 10 241 52 244 203 248 136 254 216 136 237 208 163 161 119 251 11 244 28 109 208 144 197 58 75 189 166 156 92 40 203 56 163 65 244 162 243 226 163 36 3 49 115 187 103 199 171 99 191 18 19 148 47 247 7 13 15 188 201 208 227 38 28 110 141 222 14 132 193 25 21 134 186 120 93 187 43 45 97 137 121 96 185 243 39 209 50 96 146 190 36 158 222 7 0 38 48 144 41 162 29 231 5 172 99 39 83 217 215 28 191 246 159 167 179 145 161 100 113 188 59 139 95 
13 53 20 161 233 244 31 237 2 240 146 155 31 104 4 252 28 84 218 237 49 155 175 172 119 134 250 234 167 116 234 33 37 208 149 39 62 65 82 4 174 32 99 1 102 47 216 1 140 136 175 20 194 211 64 74 171 188 217 197 171 165 165 18 239 151 210 186 174 127 242 19 174 151 162 92 9 34 106 9 49 92 229 92 50 177 34 53 55 45 73 43 80 52 130 219 114 115 18 128 192 22 199 197 8 59 151 215 145 167 132 189 20 184 195 236 8 155 28 22 34 191 148 68 29 138 74 36 183 74 159 164 252 110 153 191 198 246 138 151 133 40 236 197 60 133 144 237 204 251 248 149 117 92 1 55 154 15 196 148 196 6 191 76 234 239 48 172 240 175 194 199 109 12 107 200 177 169 149 134 7 56 124 89 55 235 215 45 79 43 186 212 163 141 187 161 19 2 84 50 140 78 136 141 210 187 201 111 124 14 26 224 64 186 113 11 112 84 95 77 197 71 242 140 92 201 219 202 254 13 204 249 164 186 36 17 58 157 206 97 164 154 102 34 255 233 158 82 41 127 225 192 131 201 54 99 245 160 102 239 51 122 97 170 63 221 222 124 48 26 66 70 49 55 195 117 204 45 205 215 105 84 164 173 17 27 76 1 120 252 166 58 59 175 219 237 102 158 253 246 
57 154 236 200 44 204 119 1 48 238 196 66 56 187 242 61 248 163 252 15 236 196 225 209 157 22 2 105 32 229 203 166 223 133 149 141 156 65 203 237 178 148 76 58 158 156 17 151 191 203 16 53 90 224 96 220 225 21 157 199 117 154 142 181 169 67 5 61 137 126 7 98 219 135 45 103 164 223 74 229 238 250 78 26 201 55 107 132 144 22 118 174 109 166 143 75 31 60 4 129 251 106 115 135 49 47 47 114 81 108 229 76 14 151 128 103 65 179 73 240 49 128 83 199 17 239 22 142 202 216 90 1 251 239 87 133 62 245 26 3 174 43 42 246 166 12 108 195 203 59 68 74 76 187 253 186 104 94 107 169 49 128 206 100 144 244 250 131 138 63 181 193 193 4 97 11 62 192 219 215 109 184 162 183 105 47 60 46 122 219 213 194 221 154 42 82 195 98 165 170 155 118 201 85 148 224 209 178 94 27 148 75 49 16 172 97 17 68 215 204 80 79 157 2 84 144 52 117 155 31 160 34 251 3 30 102 47 165 195 20 143 133 97 198 31 44 170 112 203 98 152 59 241 160 12 144 32 200 181 114 32 20 51 18 50 76 124 157 152 61 127 89 88 102 8 240 62 244 228 12 32 241 69 35 101 184 104 149 200 172 116 244 90 41 166 162 198 187 171 162 
217 142 77 168 66 38 82 114 150 80 161 91 151 89 167 46 181 125 249 56 213 162 59 161 82 71 64 252 65 183 114 28 250 130 117 41 212 45 7 244 47 41 43 136 184 2 134 2 232 217 9 162 206 20 208 33 15 84 74 69 43 167 155 180 1 0 62 6 150 228 239 29 18 101 200 185 11 84 170 71 6 179 222 250 59 105 252 29 153 57 12 168 10 245 236 17 248 239 242 100 16 177 209 150 70 238 193 23 25 184 218 166 24 242 193 105 165 9 135 61 249 223 206 75 104 8 46 220 230 57 215 110 203 253 119 6 211 170 94 201 105 148 224 198 37 128 250 23 147 92 57 40 54 45 216 86 204 72 40 188 212 197 53 73 78 49 167 22 194 131 230 247 131 81 130 81 53 68 209 43 141 202 218 135 88 10 113 242 191 29 164 90 201 123 86 32 33 179 42 110 26 96 163 203 240 88 137 236 81 38 142 205 27 187 49 1 104 96 227 71 200 239 104 93 205 67 129 25 205 237 200 181 227 40 219 107 55 16 188 65 127 14 120 39 198 151 7 63 108 22 116 124 111 38 62 110 232 5 253 92 217 69 72 148 37 197 215 255 224 224 229 248 201 228 216 94 21 198 36 232 111 20 109 185 60 42 236 53 35 169 19 18 205 37 116 178 233 30 223 176 
116 50 202 185 55 144 246 157 145 176 80 165 118 66 22 40 184 100 58 89 133 23 11 99 50 244 18 184 54 27 58 165 122 109 53 43 208 251 26 10 192 189 83 30 139 136 182 238 106 58 242 131 23 56 45 118 142 26 235 77 21 164 50 8 122 248 236 246 156 11 140 205 44 86 244 250 181 206 150 54 218 21 218 90 224 242 192 116 108 255 199 26 141 161 13 254 252 61 183 195 163 169 147 15 93 225 252 226 253 252 255 38 145 94 188 135 232 46 14 132 81 11 110 198 166 250 20 177 137 163 96 58 238 190 121 248 218 200 52 125 105 250 55 230 22 123 94 177 55 213 93 207 199 166 167 250 104 152 143 73 168 146 173 2 132 48 132 175 43 113 97 116 4 176 134 159 241 214 136 129 214 205 246 125 85 56 59 94 220 97 198 237 226 114 104 196 109 233 253 93 216 70 78 110 211 6 54 121 171 213 4 158 204 0 33 181 132 41 243 153 9 62 0 198 190 172 87 39 178 207 44 41 105 173 194 20 224 229 142 155 203 226 153 178 33 84 38 159 218 225 149 84 248 23 135 252 196 166 67 212 90 204 88 60 103 16 132 14 50 51 213 46 217 100 14 98 221 179 76 100 225 200 233 54 175 213 161 182 124 201 243 114 109 199 202 189 90 214 93 3 
209 218 84 89 94 195 44 88 9 4 220 44 33 70 185 232 56 94 151 28 111 125 49 170 244 167 203 213 200 103 21 155 198 192 83 69 225 102 187 60 173 47 30 30 33 196 203 17 155 156 177 88 36 43 195 36 245 86 161 172 59 43 116 127 24 207 25 25 234 183 131 181 207 27 90 99 105 168 232 90 222 118 54 143 35 57 114 135 123 187 148 105 58 138 66 87 207 237 240 254 1 29 75 108 121 178 216 34 129 92 216 107 11 211 112 236 245 17 6 123 139 190 238 53 78 236 70 202 244 4 30 28 175 0 221 9 178 219 223 132 242 70 99 235 41 157 165 148 33 25 71 170 47 71 245 55 253 185 73 129 141 251 236 154 123 200 255 51 131 126 185 177 66 208 81 131 65 187 30 178 47 187 253 185 110 62 243 152 210 89 19 36 165 186 162 161 238 222 122 146 242 132 172 208 252 97 105 218 90 21 35 108 168 94 239 83 81 139 46 127 82 52 108 90 65 41 136 88 142 168 21 207 10 211 1 10 165 96 116 153 124 147 251 234 19 105 230 30 222 23 239 21 7 178 28 203 107 48 230 232 230 143 154 146 208 84 0 134 199 55 59 103 175 29 240 85 248 70 170 194 31 200 125 129 120 60 234 32 42 183 3 120 123 252 207 130 78 239 240 109 
233 77 131 237 252 155 72 213 223 92 3 232 28 135 34 236 45 56 159 1 135 166 40 49 215 85 126 72 139 141 27 230 148 10 23 210 106 245 76 145 81 19 185 56 220 61 36 126 175 16 3 21 136 229 157 59 129 3 109 140 143 20 199 26 79 214 190 191 2 19 68 178 213 211 147 89 103 208 204 94 133 42 222 5 56 92 170 189 1 111 101 245 99 110 61 48 162 25 63 92 203 221 120 95 244 4 90 244 197 42 98 181 55 240 248 120 156 244 151 223 224 0 45 43 14 129 197 81 21 59 99 80 205 60 47 193 53 14 214 176 255 49 46 170 78 200 25 23 190 147 171 203 165 29 143 215 152 55 166 165 49 164 242 68 16 22 179 0 32 90 207 54 27 207 119 102 81 28 8 138 165 34 47 166 216 48 81 161 10 118 42 83 125 189 180 223 157 85 74 67 61 78 13 45 36 235 135 17 200 83 142 120 89 138 107 155 1 160 60 48 107 40 151 132 130 236 112 202 123 223 61 178 21 83 87 62 31 108 164 210 59 213 115 138 227 177 167 207 169 213 24 45 195 52 54 95 198 154 240 172 178 158 212 119 47 210 119 17 22 60 23 209 51 10 127 103 74 129 43 109 87 55 173 63 26 130 79 13 211 48 250 46 75 120 86 183 19 49 51 77 
16 66 40 55 56 90 121 183 150 225 62 155 148 46 194 15 121 250 42 181 49 20 87 248 77 87 13 157 74 218 84 154 22 102 30 44 208 45 43 36 207 184 42 129 231 34 33 68 231 132 14 128 102 176 207 177 192 34 63 78 91 51 162 162 47 144 67 215 133 235 91 84 254 240 53 73 216 123 144 135 109 8 69 150 252 107 41 1 172 193 53 245 206 166 228 10 99 168 221 97 222 252 210 239 43 112 168 24 239 161 216 128 18 110 21 30 123 172 47 146 26 27 55 184 44 153 228 125 186 150 53 241 99 200 88 158 92 32 203 25 181 252 193 214 222 158 199 64 105 221 167 9 17 26 140 191 252 118 104 161 61 66 147 176 157 184 181 9 155 232 229 113 177 244 18 50 217 128 162 38 80 101 90 17 154 165 126 51 198 164 57 30 243 149 62 198 19 50 176 215 239 176 64 75 108 242 149 59 12 253 240 245 183 172 16 80 188 164 83 60 19 139 31 157 229 117 128 90 77 159 18 176 97 96 34 205 108 92 16 154 126 251 247 216 39 26 144 110 127 0 84 1 105 147 225 198 25 203 159 148 212 104 163 62 247 224 212 31 59 156 76 246 55 99 1 245 39 23 164 20 235 159 201 171 83 36 73 64 153 128 228 157 47 243 43 38 187 24 158 106 
97 24 17 248 64 30 84 116 63 11 18 234 9 106 250 97 86 166 29 180 109 122 151 157 230 170 114 19 181 241 199 214 100 58 38 72 160 19 56 126 247 94 163 151 224 73 46 76 252 129 38 201 155 163 0 187 130 244 63 171 236 81 153 138 206 105 85 141 95 41 247 59 216 120 31 196 120 37 175 148 204 29 44 40 45 226 103 32 138 56 92 150 104 34 90 175 38 12 100 111 134 74 216 210 105 193 78 24 218 228 195 96 78 227 247 120 42 30 19 244 134 224 143 125 49 74 83 108 245 141 28 152 28 93 34 107 50 162 248 60 13 112 179 216 11 57 78 98 155 65 77 94 255 83 161 8 80 179 204 234 194 83 69 173 41 73 30 48 188 129 228 215 25 175 199 38 138 136 250 142 135 50 93 134 124 249 90 222 204 67 12 80 21 198 167 89 182 248 20 71 142 199 219 146 7 139 70 111 83 57 196 163 246 217 139 149 133 58 129 168 173 228 93 199 118 78 9 66 201 81 75 216 49 221 165 21 222 235 122 222 239 178 113 74 241 30 31 179 162 126 224 13 251 125 5 119 110 83 53 16 109 60 13 12 43 41 10 7 166 182 169 152 229 93 204 42 126 233 96 7 92 45 61 182 191 245 77 135 132 61 241 108 167 161 160 10 6 21 210 16 
104 214 28 200 189 161 156 236 168 34 151 186 58 175 97 74 1 54 125 32 65 116 6 254 129 104 77 251 73 8 196 217 43 50 27 148 0 229 168 55 116 177 12 243 197 108 20 114 199 39 221 105 44 96 60 109 2 122 92 7 125 106 169 10 247 178 237 36 53 147 185 180 236 126 7 219 131 205 29 214 27 176 181 139 205 106 90 97 50 189 21 85 41 162 73 75 212 62 220 161 228 18 151 10 23 114 208 154 254 56 70 29 4 185 76 173 172 248 42 132 26 26 192 14 213 26 108 66 203 190 46 51 150 202 10 226 253 115 174 87 190 22 85 240 139 42 235 248 82 116 114 123 193 121 164 89 10 57 218 154 227 26 44 1 209 35 218 228 167 106 235 59 73 208 19 246 182 235 218 148 70 68 251 241 48 195 10 95 78 103 90 249 37 58 30 52 32 133 206 183 28 64 205 109 41 204 72 216 143 229 97 168 16 210 141 140 109 222 58 72 44 12 182 8 151 7 76 243 8 88 176 4 100 219 157 21 230 116 188 61 30 254 200 92 57 132 240 244 130 180 124 59 41 144 180 110 67 103 253 103 19 4 70 114 136 37 162 93 6 47 54 206 106 31 86 217 72 196 235 210 118 44 24 96 207 92 29 211 49 67 123 184 200 241 89 170 143 5 38 107 
19 100 128 51 123 49 84 71 197 249 71 206 82 45 85 224 165 214 184 225 104 132 12 13 175 135 176 83 129 98 111 103 149 125 96 19 89 26 10 206 56 138 204 143 29 161 125 227 51 103 79 62 240 16 249 142 81 47 21 22 103 38 198 122 18 225 159 22 13 196 192 148 42 225 66 190 223 111 214 144 2 119 168 146 209 209 138 101 53 79 78 155 72 56 115 204 20 248 5 229 158 21 190 196 35 101 113 2 161 127 169 16 153 111 141 134 19 174 6 183 228 81 36 137 44 128 190 132 34 42 89 40 20 247 75 132 169 126 33 4 106 185 61 139 128 181 196 193 191 142 183 175 228 155 95 137 27 230 239 202 197 223 101 134 119 81 177 252 70 148 25 108 66 5 220 40 64 179 21 236 221 91 227 114 191 151 199 66 30 82 77 200 131 127 239 168 208 10 54 86 129 15 34 225 49 75 204 15 96 208 74 175 115 252 211 43 252 171 35 93 60 172 33 163 231 114 192 54 38 12 35 183 226 88 4 11 64 115 86 105 104 115 41 177 139 89 207 0 36 65 61 129 126 220 179 134 118 32 160 215 130 62 192 73 242 213 135 147 118 101 194 94 225 6 124 155 44 90 30 25 190 192 219 87 234 202 75 151 186 242 86 51 235 136 84 52 56 239 114 33 
220 9 88 21 82 240 9 20 95 231 10 159 82 144 198 134 139 95 49 254 58 78 172 243 105 210 41 160 61 14 143 92 120 71 96 183 67 153 153 197 43 232 217 186 105 25 198 183 102 129 172 228 126 157 104 191 4 4 133 180 135 155 164 237 84 8 33 107 60 105 243 86 152 69 212 145 138 194 163 146 133 25 6 113 15 72 83 62 197 7 177 152 160 252 122 123 120 50 228 90 198 200 225 110 174 230 67 77 61 245 36 190 239 16 133 204 116 181 53 25 179 193 245 117 16 155 217 175 234 175 241 171 104 30 41 181 118 179 110 21 10 26 18 228 172 76 114 30 53 78 214 248 215 27 152 115 93 223 137 49 180 101 144 135 171 211 148 213 247 149 156 18 122 151 53 171 197 183 21 142 219 122 253 129 55 253 228 185 17 47 81 168 222 62 9 22 22 79 234 115 57 114 23 108 20 213 85 188 65 56 181 69 237 160 116 95 221 80 31 112 179 245 250 189 110 33 163 127 49 250 243 58 69 52 37 74 96 60 58 190 40 182 155 106 243 42 1 56 209 250 146 191 204 152 77 23 110 245 167 235 132 61 118 207 34 193 15 212 231 53 171 90 130 27 16 38 117 127 109 181 25 229 133 207 227 128 15 95 229 164 93 129 152 126 61 221 216 3 29 52 
48 38 114 56 88 78 90 161 252 7 127 125 191 247 63 199 128 21 11 60 220 21 13 106 244 38 14 10 112 224 150 143 196 120 85 255 177 55 193 2 15 42 1 57 203 26 10 208 44 190 8 87 90 48 255 205 32 158 178 254 241 66 196 16 41 148 29 88 150 190 143 114 55 80 185 144 67 53 44 18 109 230 205 87 103 221 123 211 165 77 241 98 99 16 237 220 233 224 146 234 14 203 10 24 251 225 113 43 49 48 238 180 206 242 35 229 11 4 200 164 10 154 146 222 207 50 90 30 140 198 123 94 33 70 124 29 227 69 239 177 156 243 152 223 212 75 210 169 79 141 47 103 215 239 95 25 60 143 83 252 152 173 161 91 215 23 43 168 119 228 252 203 141 101 114 186 9 89 162 74 58 96 248 69 149 179 30 188 178 17 31 158 151 253 205 138 57 38 96 226 64 39 95 33 11 112 196 110 244 132 91 113 213 102 107 101 203 77 152 110 57 159 8 45 16 29 197 146 78 91 98 242 197 116 226 90 30 251 213 34 29 53 196 197 39 133 207 240 1 39 149 216 218 33 84 209 140 119 81 29 31 159 123 1 142 52 75 30 206 239 238 255 13 210 166 239 56 166 110 13 191 168 221 162 156 128 76 177 146 114 59 208 178 216 241 55 36 208 99 23 
36 50 87 45 75 197 201 150 16 178 142 229 142 56 55 115 136 162 56 246 170 118 74 85 17 240 13 187 14 174 242 235 39 173 88 211 95 116 245 99 184 143 120 159 245 63 108 243 164 112 96 199 92 235 69 84 68 205 23 182 212 56 192 66 224 72 57 25 210 73 242 253 55 39 116 100 125 37 69 203 250 210 11 77 49 58 245 116 81 89 87 79 255 213 148 197 85 236 65 40 43 170 135 14 149 96 201 92 172 83 135 163 146 177 131 176 176 201 34 94 66 122 20 175 22 236 55 27 144 127 185 40 242 1 126 59 218 36 193 174 13 47 253 34 114 243 14 23 98 1 147 186 31 26 152 253 161 231 114 237 153 234 233 65 176 181 157 46 15 90 162 131 37 34 110 241 164 130 245 170 205 74 18 47 238 32 41 98 41 45 11 227 118 22 25 153 235 46 173 143 60 234 181 2 126 149 161 184 48 68 128 147 123 13 101 101 185 116 16 6 53 38 202 164 49 234 145 91 46 212 117 5 103 187 66 84 159 238 95 30 28 35 246 247 244 176 85 5 135 254 149 16 77 58 121 217 210 77 152 173 254 15 191 57 154 183 145 160 16 151 112 203 114 6 161 1 190 157 170 183 97 166 255 169 249 209 222 41 95 41 120 183 229 71 81 211 220 197 233 15 
90 246 156 104 58 212 199 214 99 58 44 34 78 84 152 248 194 83 195 61 226 101 119 162 106 228 244 122 54 205 148 201 4 117 171 157 122 119 177 161 107 241 163 239 86 240 166 38 47 40 238 188 98 233 222 150 22 78 112 214 174 184 216 245 150 122 100 17 60 214 167 136 92 41 214 197 129 98 114 90 201 184 39 79 232 157 245 186 111 237 141 144 79 108 254 187 152 111 144 109 135 217 240 179 192 73 142 77 216 146 68 189 22 108 56 158 123 105 3 55 255 42 19 80 30 210 77 68 147 187 247 88 100 104 214 75 30 187 147 47 98 104 100 119 160 170 232 80 35 53 82 53 78 107 201 189 37 210 15 184 15 198 97 123 217 107 159 120 255 230 173 18 39 205 25 175 239 219 254 14 232 233 40 219 226 25 120 128 107 85 138 63 146 248 150 125 241 202 148 97 234 50 164 158 48 167 172 141 137 104 67 127 211 109 206 81 69 157 232 65 248 65 8 255 166 185 93 8 177 109 253 47 103 7 63 124 132 224 101 58 248 183 127 76 235 169 140 192 255 93 225 167 213 128 207 35 210 113 128 193 35 61 34 9 254 205 71 84 43 94 140 222 196 50 121 28 57 133 169 80 150 195 43 90 9 248 39 209 159 136 197 82 78 32 74 24 56 236 133 205 
46 11 105 160 115 64 251 152 195 234 111 40 148 54 141 3 156 147 90 49 147 102 245 99 58 255 191 132 156 204 190 144 148 205 68 169 143 72 203 104 147 190 36 113 129 29 209 74 151 55 175 109 56 115 216 155 240 195 199 116 179 214 189 69 101 142 100 33 160 180 178 51 177 235 17 82 227 226 189 214 1 206 109 170 22 24 53 163 119 82 171 16 3 112 73 147 170 53 18 47 44 235 120 161 35 87 126 244 68 236 26 80 226 63 221 19 179 187 213 34 215 150 179 130 22 3 41 34 106 170 150 251 189 85 229 91 243 236 178 126 43 163 175 95 66 114 71 205 153 198 129 193 25 118 38 239 116 248 38 155 173 213 56 174 218 90 193 9 41 144 247 25 33 111 70 172 42 79 243 3 80 159 255 40 68 217 78 130 163 181 8 166 123 158 64 112 12 98 211 83 203 45 147 237 173 184 165 222 161 190 40 219 94 176 23 254 96 169 113 96 45 164 151 234 221 237 245 104 217 213 228 223 227 170 207 33 87 230 149 158 176 167 47 125 77 95 147 236 118 205 216 180 154 44 154 16 218 170 160 191 204 27 188 88 120 239 243 222 167 97 222 148 94 242 80 18 165 22 58 153 140 45 203 164 112 180 219 191 123 189 137 156 106 156 35 100 147 228 71 75 
38 146 72 103 179 135 211 194 236 60 211 174 173 177 145 88 57 166 32 160 199 14 248 40 61 193 225 171 59 113 19 145 91 223 155 192 183 78 0 180 172 56 39 210 222 65 116 249 124 105 50 91 198 133 53 139 204 240 189 214 120 126 158 215 206 177 158 70 115 48 31 17 108 116 254 174 41 197 186 175 194 101 217 151 128 11 135 236 159 146 129 141 82 243 49 70 8 113 26 162 238 19 119 0 181 87 31 233 149 37 172 161 146 2 220 252 254 134 56 115 63 16 243 119 210 184 20 6 144 133 216 123 48 225 81 170 14 73 84 44 42 73 146 248 116 168 5 51 71 224 142 74 51 208 220 61 255 181 143 62 238 87 157 122 66 128 245 55 255 178 99 31 241 25 180 219 240 191 26 228 99 255 210 150 3 60 3 135 226 211 234 22 171 77 52 71 43 218 171 206 16 251 21 105 241 126 89 115 143 175 228 183 91 205 75 130 56 187 50 252 129 248 108 183 78 209 100 137 243 213 187 151 202 138 50 179 51 94 203 232 216 224 43 82 54 48 67 51 89 180 47 68 230 13 94 73 95 74 244 232 163 91 108 187 180 200 130 164 189 163 80 97 84 187 183 96 252 18 0 212 238 145 195 8 25 251 8 243 103 32 173 14 66 83 8 98 87 29 204 229 
153 51 49 6 137 166 79 135 181 90 203 139 127 185 182 240 32 168 178 222 237 186 87 160 216 164 213 179 57 242 218 29 207 248 182 0 1 10 189 111 106 240 236 128 149 148 208 163 5 254 164 50 121 130 186 73 110 56 28 215 228 173 114 245 101 216 38 119 68 80 199 193 35 188 171 221 183 138 217 202 208 228 37 22 147 223 157 175 10 246 36 246 224 184 93 21 101 189 203 146 216 222 54 37 230 165 80 199 110 3 152 12 135 65 127 178 196 57 201 122 183 198 55 54 179 121 99 36 214 142 235 122 71 30 209 66 189 150 34 104 65 103 214 18 52 255 248 47 147 249 7 83 122 144 155 194 231 90 75 203 193 51 207 87 25 118 98 193 175 116 106 232 184 30 91 131 222 5 217 181 137 133 29 226 93 60 153 192 4 193 223 177 45 147 191 80 212 80 175 73 196 40 113 111 91 144 239 8 142 59 106 107 44 70 211 206 103 179 121 89 144 24 229 127 34 152 2 141 2 19 130 131 5 154 124 36 179 38 90 73 75 137 242 122 7 164 243 191 160 219 131 180 21 198 38 220 169 41 226 55 42 39 161 23 121 178 214 47 71 70 99 237 29 215 187 10 159 8 67 95 17 157 255 250 26 51 106 113 200 46 165 118 213 244 212 172 41 89 198 185 
159 89 212 157 12 13 11 66 126 216 141 83 193 226 52 82 40 199 121 229 137 144 148 113 138 226 229 234 27 117 147 234 68 200 115 0 33 19 43 74 43 126 151 70 184 144 107 229 198 234 26 225 244 53 247 81 209 89 154 123 89 239 134 233 189 250 9 191 99 209 99 75 46 96 42 222 255 144 236 218 124 4 23 13 16 6 22 61 50 193 189 4 235 176 231 223 146 86 93 129 219 48 250 109 16 232 13 195 157 203 255 90 210 125 54 16 229 235 56 94 54 130 20 48 215 159 254 243 76 70 57 239 143 22 58 215 88 124 10 158 154 40 236 141 81 189 64 147 123 205 167 220 100 4 104 164 39 163 18 78 114 48 99 176 137 108 105 178 142 134 231 23 255 142 250 154 128 44 252 61 219 146 169 222 69 175 128 11 227 166 108 23 140 126 164 109 209 27 208 37 58 109 109 213 211 231 114 170 231 51 52 183 12 36 135 140 95 236 38 11 17 143 85 119 35 151 196 206 109 10 183 89 229 153 100 129 30 26 156 228 15 56 174 168 22 105 137 15 61 33 32 76 187 70 19 150 190 227 139 122 103 32 101 117 22 114 148 194 233 15 192 113 127 165 51 185 2 75 246 143 100 184 55 119 232 178 238 155 229 202 193 26 199 71 36 162 86 96 196 65 
59 174 38 120 191 224 139 146 215 177 24 51 94 23 51 52 161 189 48 174 32 180 45 85 147 102 58 8 44 203 190 166 28 223 22 34 88 83 126 218 157 130 53 36 177 168 220 42 237 78 31 249 248 9 152 212 213 100 240 206 32 27 72 152 148 138 215 151 209 100 212 57 92 168 150 138 232 209 250 2 212 78 5 161 244 49 202 63 148 43 142 29 186 184 43 191 172 151 178 254 178 125 84 89 29 10 131 140 136 252 84 100 94 163 40 209 157 149 139 61 217 162 92 28 131 10 47 196 107 238 239 127 132 5 200 223 231 144 67 82 27 144 179 246 148 54 209 175 121 155 163 118 171 177 162 244 2 122 27 79 218 119 214 68 206 100 246 118 195 34 32 5 41 245 223 99 125 239 71 99 18 172 217 147 18 64 167 204 191 110 185 7 255 27 174 114 24 1 166 196 184 168 96 205 56 146 160 81 33 182 212 22 240 49 246 60 22 55 180 205 67 79 207 149 228 192 193 52 235 70 162 113 206 10 76 209 210 209 190 105 137 116 190 240 153 144 195 24 192 126 17 30 21 134 38 160 145 79 85 176 205 154 177 38 13 48 44 58 126 25 0 82 188 15 78 24 151 51 5 208 23 254 6 233 190 121 134 209 12 177 179 14 73 101 154 139 126 3 72 47 
197 211 47 180 194 113 204 183 114 128 135 11 35 157 219 83 196 146 182 208 95 204 35 119 228 16 38 71 40 105 231 217 45 101 19 57 164 128 128 244 176 225 16 114 237 68 215 134 177 56 128 68 146 138 236 19 40 1 29 3 20 75 83 96 64 56 116 135 105 38 177 248 219 189 103 173 124 220 67 170 12 210 170 214 171 210 88 9 156 161 71 102 72 146 210 235 134 180 26 70 25 74 169 234 122 123 85 99 217 75 103 230 94 202 253 45 180 139 173 130 200 88 107 25 206 36 173 162 134 65 205 31 189 212 174 243 22 133 162 60 10 123 139 99 46 135 65 242 180 159 52 165 53 143 83 195 174 235 44 174 200 72 84 185 92 171 9 59 54 66 22 226 25 82 247 73 4 113 62 204 180 245 53 155 106 172 197 13 238 206 150 55 212 47 120 190 254 185 2 233 98 26 120 250 13 186 242 191 104 240 187 100 187 117 248 139 239 25 138 158 152 180 53 100 51 96 1 211 171 229 224 38 35 117 146 47 239 154 198 237 227 108 130 97 209 7 196 158 77 60 106 32 179 135 79 94 108 65 183 162 108 23 237 25 255 187 42 38 198 217 185 252 252 77 89 108 254 147 227 251 11 127 44 56 72 46 45 77 7 60 97 211 72 55 111 235 128 84 9 138 
154 97 20 20 60 251 9 45 75 1 155 204 177 73 154 144 94 145 23 88 140 184 201 14 72 46 175 195 46 169 247 1 116 25 31 92 42 223 90 75 191 57 53 54 200 1 122 208 253 152 84 167 132 29 181 250 115 226 245 202 144 32 188 51 91 233 33 253 78 95 19 111 99 36 248 99 215 17 149 160 45 43 46 99 119 210 238 63 209 60 137 39 46 34 31 202 87 185 100 31 48 228 254 64 61 168 46 123 102 224 179 166 247 50 235 180 235 65 60 134 106 36 178 3 144 24 233 107 112 113 46 232 89 215 225 103 88 174 29 165 253 214 156 141 98 149 212 193 106 209 102 119 71 131 185 134 63 104 226 192 175 250 200 131 80 158 133 139 185 31 15 10 37 91 23 251 119 60 49 179 123 234 54 185 111 63 230 215 194 124 210 113 27 58 122 22 157 163 178 85 106 225 74 210 101 215 237 153 61 15 74 177 167 244 114 245 234 66 129 31 161 186 129 38 188 26 139 202 201 76 47 108 114 222 23 36 70 178 230 14 188 247 102 228 116 87 227 210 193 114 210 133 101 140 183 134 155 130 69 198 91 3 198 122 217 252 189 40 79 84 202 2 252 218 207 116 108 124 81 249 251 185 33 50 149 89 59 57 191 91 238 51 219 47 61 36 167 37 134 8 
8 38 97 31 6 162 203 136 23 201 132 17 160 254 181 78 185 136 214 232 49 139 207 56 209 55 93 20 229 64 184 233 249 142 115 10 225 53 163 72 252 167 67 195 185 41 215 0 89 131 80 59 247 252 48 254 198 133 238 242 155 53 156 246 171 245 199 110 149 125 159 221 163 127 87 183 76 33 207 112 254 177 113 217 27 148 89 172 66 128 184 101 207 236 122 84 165 196 38 241 43 96 6 111 148 183 137 148 100 208 229 199 47 122 0 107 164 61 145 107 203 144 130 22 139 76 154 46 111 97 88 59 170 200 34 37 88 185 159 2 6 29 97 45 117 70 199 152 155 222 33 99 235 29 22 173 214 63 67 170 146 54 37 245 26 156 57 40 118 235 97 171 60 240 138 201 87 125 140 9 7 95 81 187 41 143 58 209 185 173 190 240 149 169 85 199 131 196 148 160 118 183 153 52 13 49 169 196 93 135 24 101 240 167 105 156 13 79 183 42 58 124 84 41 0 36 175 88 238 39 123 180 225 132 13 72 130 200 6 69 15 205 51 85 95 160 177 45 32 195 85 97 100 149 74 125 92 14 252 81 98 175 53 140 61 185 134 141 161 158 233 117 246 181 164 129 90 49 113 151 233 84 219 30 60 224 235 19 47 207 4 89 232 67 12 81 21 192 204 171 
116 153 154 124 153 168 53 144 236 66 240 1 241 106 19 8 204 69 126 20 4 207 143 25 135 203 70 43 238 0 167 75 3 162 96 129 128 15 172 43 26 188 119 148 190 110 195 200 27 173 74 167 96 117 101 57 71 48 44 65 82 225 223 21 84 162 133 172 52 80 210 249 238 133 78 119 218 198 180 6 49 254 152 245 205 43 77 96 48 88 6 188 200 203 59 176 114 127 79 38 60 213 111 163 111 134 189 211 205 220 174 105 23 34 176 38 210 89 17 54 75 44 28 195 217 38 133 197 98 35 7 23 32 4 75 208 165 167 12 208 29 23 121 153 212 255 218 97 248 101 119 101 159 148 181 127 11 90 131 251 45 116 244 167 105 71 45 41 153 209 130 149 84 222 220 63 112 127 94 206 197 184 72 146 52 121 27 24 233 207 254 251 220 92 96 252 158 5 223 85 82 234 104 75 249 155 160 3 244 137 131 150 195 186 75 103 19 193 148 181 248 238 189 108 119 194 145 65 71 165 39 253 216 219 6 25 149 181 141 140 103 4 147 225 122 211 74 140 67 86 105 126 194 29 138 247 4 141 208 156 237 145 206 201 52 141 164 40 175 148 107 131 209 218 212 214 113 108 11 169 204 30 226 156 206 197 43 68 141 167 101 53 23 48 156 96 109 231 138 160 
207 160 2 143 58 242 143 158 48 235 88 101 183 3 70 55 164 79 105 250 25 247 152 53 77 234 88 107 139 208 0 168 126 65 26 89 171 52 11 96 63 186 247 104 11 236 223 118 205 33 12 193 177 101 177 196 23 39 204 145 151 50 77 104 66 223 122 136 43 136 146 69 39 63 176 91 208 192 243 130 208 165 220 67 92 217 247 9 254 79 190 123 152 244 186 9 166 226 235 197 195 214 106 117 111 228 77 230 15 105 203 131 53 66 161 37 34 59 179 45 137 202 247 209 150 254 143 179 47 178 53 184 122 6 220 23 159 16 148 176 207 206 175 160 133 95 34 18 11 115 46 87 65 1 63 58 154 56 20 141 103 183 32 8 88 0 48 84 63 42 79 98 24 215 230 1 71 102 40 176 32 106 173 176 172 90 93 94 170 138 144 192 213 89 116 94 101 172 174 83 216 156 68 163 242 108 186 207 3 190 123 167 104 6 123 96 84 62 27 230 209 220 77 115 1 1 248 97 170 243 158 61 241 205 60 28 102 117 113 50 65 207 227 160 235 48 223 142 193 22 63 122 20 22 145 207 116 21 117 186 46 187 71 57 19 37 254 117 123 218 84 81 138 1 40 67 178 209 32 99 121 72 146 193 125 32 165 252 181 255 179 16 249 238 242 112 197 12 84 85 
58 131 171 85 101 188 17 55 196 207 135 6 6 62 220 100 19 226 209 33 76 37 122 12 20 114 231 9 143 234 4 100 169 89 190 101 91 104 103 37 42 20 92 159 240 94 229 10 222 68 92 103 194 241 146 86 134 49 110 45 249 39 215 75 211 66 212 170 243 109 242 180 234 134 231 88 189 18 116 92 231 47 144 245 158 201 194 149 87 17 207 4 140 43 149 178 189 39 55 76 181 51 122 141 14 15 111 87 247 193 83 2 53 137 179 244 104 23 211 113 144 252 81 181 207 95 6 64 113 241 45 114 41 35 199 87 157 150 62 196 37 210 72 163 208 60 14 139 169 66 142 148 56 217 61 105 75 41 241 158 246 134 255 68 216 163 160 187 160 2 154 200 208 175 28 231 193 46 233 227 231 178 184 163 87 144 219 71 134 242 32 116 84 208 245 235 73 28 207 97 30 61 204 139 127 191 151 120 15 73 140 35 173 207 28 73 246 8 115 120 10 35 89 105 147 182 86 143 4 247 26 240 31 46 27 52 186 106 128 251 194 115 62 116 128 1 129 44 27 43 77 35 95 34 101 37 188 31 108 87 146 154 74 17 172 189 209 235 10 24 161 27 227 150 72 254 234 176 174 244 209 224 177 113 11 89 12 81 215 245 125 108 122 111 39 107 203 210 53 218 
245 49 192 126 121 153 242 232 114 68 108 74 29 15 230 138 152 46 21 149 234 31 210 246 68 220 120 167 135 85 142 38 5 29 166 204 140 100 132 91 161 37 131 214 9 160 53 149 142 11 74 152 255 133 179 28 121 75 7 108 229 46 37 250 194 69 27 174 37 223 70 126 253 187 187 63 156 124 230 186 115 87 113 3 29 15 103 6 160 35 154 99 239 70 66 124 179 15 230 203 74 242 128 122 16 111 220 45 222 137 65 35 209 122 83 125 77 165 56 221 65 204 250 51 172 131 44 212 96 228 209 205 6 133 121 118 98 167 173 74 216 176 141 245 47 220 184 175 150 47 108 201 228 174 239 133 36 206 45 43 81 45 162 89 94 128 122 155 121 204 247 59 145 218 20 91 22 229 104 64 0 149 76 241 18 49 64 1 96 16 139 169 15 80 34 26 92 203 203 16 223 71 130 171 17 237 28 123 13 253 42 217 147 191 32 126 82 189 183 78 103 47 143 117 33 183 25 181 7 78 180 254 28 126 22 64 97 211 238 125 156 140 199 34 88 149 48 151 45 186 26 21 65 21 129 184 15 200 79 213 103 242 125 141 182 219 123 162 136 114 210 138 75 250 8 194 86 0 195 101 42 144 50 253 247 168 169 153 98 237 139 32 133 157 109 228 55 197 120 122 
142 180 15 202 163 175 178 98 149 230 35 16 209 167 199 175 144 210 78 65 161 141 151 62 104 56 205 44 39 164 215 112 124 127 239 100 43 19 144 169 30 49 150 191 170 103 161 210 20 121 186 215 84 15 57 216 24 172 229 140 12 223 94 43 89 189 184 128 107 142 105 64 248 199 101 154 62 57 135 15 140 135 51 132 3 221 58 150 158 223 253 45 112 224 214 84 45 85 179 72 236 137 4 206 43 146 216 202 20 131 66 14 255 227 2 112 55 94 97 31 1 187 93 55 218 14 6 146 1 47 40 226 53 106 42 252 192 120 54 119 180 174 155 118 117 117 111 194 119 250 120 28 73 39 77 209 211 209 184 142 220 51 95 118 207 155 163 114 190 99 201 200 167 35 87 240 246 37 193 163 76 25 69 52 127 10 20 35 226 145 178 240 198 73 159 45 64 130 55 215 45 58 215 230 116 73 65 35 139 219 66 58 61 35 146 16 170 78 251 86 143 182 189 95 199 89 50 46 18 137 174 212 22 229 169 249 163 135 32 184 59 127 56 176 210 128 37 87 210 218 74 146 98 168 161 131 232 75 94 162 204 23 207 16 128 75 135 40 189 71 187 86 15 249 236 44 147 153 198 178 255 150 73 254 228 208 38 5 48 7 108 177 247 147 99 52 115 86 184 155 
73 240 219 166 13 49 166 215 9 212 63 201 58 106 63 195 156 148 20 141 168 117 164 130 26 103 50 231 247 237 134 123 207 234 72 79 63 16 174 216 187 154 87 67 138 62 118 8 18 93 50 194 86 126 77 62 189 250 4 210 21 248 55 240 215 156 202 250 173 124 75 88 49 84 213 201 248 250 52 246 207 148 73 77 68 8 176 12 105 180 161 156 212 96 20 33 234 112 41 79 94 94 198 127 244 104 130 2 139 134 194 181 90 159 33 213 122 252 22 21 164 253 209 238 61 11 101 55 143 205 44 245 90 159 103 116 139 64 38 151 75 202 104 108 59 232 130 3 254 67 197 129 249 61 91 112 86 226 114 89 79 27 157 149 169 37 118 96 126 66 137 47 64 175 109 68 251 213 52 127 218 195 6 119 237 220 8 201 41 205 130 176 177 195 66 214 84 218 59 106 86 216 114 115 115 27 27 100 33 208 254 240 22 102 32 31 10 66 160 162 190 181 223 100 61 43 227 97 97 165 254 187 154 105 170 10 235 247 184 244 53 64 170 255 184 19 93 162 215 216 235 162 27 128 207 156 123 188 74 221 219 109 6 122 210 92 250 158 176 44 141 30 192 141 254 83 202 178 3 40 220 4 176 114 74 24 155 128 244 222 62 243 199 28 156 208 135 27 40 212 
203 161 226 8 73 30 195 149 83 42 91 216 162 47 185 185 83 99 139 57 47 250 134 75 47 153 8 229 63 13 252 86 67 61 255 218 88 93 192 108 92 101 173 219 176 194 204 32 60 75 230 239 180 118 235 140 26 204 146 224 133 154 64 204 32 234 43 189 117 177 191 129 236 74 65 89 142 35 178 79 15 183 246 201 12 188 53 95 145 157 130 234 222 42 186 221 107 143 175 217 41 130 134 123 11 193 94 121 197 188 51 237 212 142 1 240 190 50 44 107 155 244 31 42 212 37 51 50 43 19 211 85 251 57 223 3 193 178 77 99 220 244 22 162 145 186 80 140 82 66 151 89 64 185 178 201 238 244 116 115 104 96 223 89 116 60 144 193 23 5 87 64 91 50 37 24 80 34 43 196 81 83 64 208 136 212 131 238 181 253 66 71 42 93 27 15 26 244 97 92 20 162 194 56 203 224 38 244 24 174 217 192 66 204 237 121 124 45 218 194 175 169 104 86 122 242 207 157 120 201 28 125 193 114 214 114 179 101 226 225 242 70 164 169 173 23 103 252 35 173 255 109 102 96 172 73 95 7 66 43 19 36 135 203 36 91 221 23 155 41 33 133 228 210 210 167 26 155 118 0 134 58 57 22 98 139 216 200 226 132 189 226 117 107 108 239 72 70 29 78 
11 148 170 136 249 58 172 225 18 192 225 45 171 189 210 229 41 144 178 122 10 81 136 233 37 8 145 144 50 28 223 64 140 14 71 147 54 102 122 128 28 238 114 44 156 31 16 3 69 217 3 8 223 87 235 105 171 97 190 87 236 195 107 20 165 255 190 78 165 63 132 171 193 141 239 165 97 70 60 152 62 204 146 25 105 124 46 138 144 224 189 235 125 37 9 243 223 207 216 96 77 171 17 139 136 5 33 63 0 28 157 203 154 211 41 86 177 169 152 115 91 235 85 246 237 41 1 5 193 230 93 114 54 147 107 72 249 191 208 163 131 136 125 197 227 85 142 103 190 199 114 77 148 236 77 29 68 182 154 113 211 172 21 43 105 224 216 9 156 33 196 121 241 113 34 174 160 186 138 243 152 188 4 63 195 74 110 10 139 182 30 96 157 138 200 52 237 120 161 246 250 148 196 104 83 193 213 173 90 105 229 162 72 114 150 114 113 109 128 101 202 16 211 249 168 230 61 52 202 69 14 56 154 129 154 24 176 95 222 234 152 204 103 30 213 207 112 14 37 189 75 213 7 172 2 101 123 41 61 212 9 46 102 247 4 78 12 50 16 51 133 142 226 74 216 12 71 189 218 58 104 162 150 3 76 114 242 203 158 188 144 188 177 26 243 90 193 101 227 94 
124 37 18 193 192 75 255 23 167 35 27 30 193 132 43 151 160 74 237 84 154 5 254 147 202 243 251 138 88 44 230 67 250 29 204 170 187 55 165 229 252 232 124 227 184 203 208 56 12 28 57 40 246 110 79 1 93 160 199 175 81 13 223 138 149 3 253 114 90 119 146 30 78 246 69 177 213 223 78 142 150 208 31 110 58 94 74 176 112 9 159 240 53 110 148 218 82 191 235 64 38 113 142 107 165 52 190 175 161 40 108 66 73 78 231 79 239 61 184 69 14 22 202 117 139 185 207 220 59 57 222 61 166 142 97 116 10 138 46 6 163 15 244 252 42 126 217 242 156 114 97 107 60 175 146 103 219 85 86 56 87 90 32 145 98 54 210 224 132 224 223 221 99 250 172 99 67 72 61 128 201 103 13 200 4 188 61 238 174 170 241 149 174 8 248 99 226 210 171 87 28 30 23 93 106 82 94 32 155 149 90 32 254 131 132 4 109 37 20 49 138 32 106 155 73 44 173 219 175 200 178 131 217 45 31 174 63 128 208 219 58 75 121 251 196 46 141 200 127 210 95 89 250 31 136 243 47 175 136 35 80 130 176 9 195 243 63 247 107 234 203 59 41 84 226 56 162 208 242 188 67 171 102 141 131 15 18 69 104 119 209 96 77 102 108 148 226 89 190 97 
116 250 22 232 111 150 221 0 33 209 121 135 192 153 112 246 175 88 209 56 253 110 208 189 47 222 176 202 63 71 230 19 228 23 123 139 20 251 178 123 199 154 235 209 255 130 199 187 5 98 141 117 245 123 204 96 124 81 66 83 225 166 253 53 66 168 192 204 33 106 168 208 31 145 15 68 6 80 177 6 13 150 13 164 88 133 15 113 191 39 235 216 208 92 76 241 23 23 174 82 157 202 8 40 174 31 175 134 223 233 119 252 80 90 27 108 47 118 223 25 125 199 115 1 21 83 27 109 234 203 13 198 144 5 26 170 254 172 145 63 146 55 97 199 85 23 125 117 129 53 133 127 64 155 162 117 183 113 178 209 67 44 165 207 2 2 38 127 150 161 126 24 37 32 182 143 164 54 252 104 86 170 73 205 143 10 64 221 190 160 88 70 170 162 61 22 252 169 116 206 254 100 62 184 162 142 192 123 198 29 96 237 182 189 114 40 243 124 20 224 51 199 86 244 168 149 159 66 133 226 76 192 191 95 153 201 16 104 197 180 66 54 113 171 170 86 74 186 243 89 231 39 29 206 244 2 196 109 145 252 166 149 245 125 96 249 87 240 120 150 14 98 160 232 247 75 57 93 23 171 23 10 129 89 132 156 122 152 135 146 220 236 102 170 184 44 105 153 63 215 
225 255 227 171 105 154 185 116 108 186 34 35 231 245 170 31 112 27 48 224 120 109 72 185 205 9 221 245 98 169 27 38 83 141 139 186 36 182 128 207 74 85 179 73 236 131 42 33 234 50 94 255 31 100 156 12 227 155 172 1 212 144 177 133 215 39 80 181 89 163 20 4 219 22 17 69 173 28 200 6 249 201 75 32 4 224 162 140 177 70 108 120 71 182 201 154 115 181 120 197 145 201 61 186 39 230 134 64 178 41 77 119 166 201 64 105 176 74 32 226 62 243 103 130 65 131 45 16 49 32 76 17 82 144 195 153 55 171 88 98 132 16 130 27 248 24 133 2 170 8 223 181 146 139 227 69 76 95 164 141 25 78 20 194 39 96 109 75 18 79 208 210 170 59 44 155 247 159 98 20 122 132 167 174 182 244 41 236 239 178 245 185 50 40 24 255 149 161 4 117 192 184 54 185 172 16 22 158 171 70 31 199 169 36 63 117 177 24 129 157 179 228 233 62 132 150 159 241 38 187 81 194 74 208 210 62 19 249 7 205 29 246 3 66 190 82 113 177 139 221 50 128 30 93 72 193 23 129 243 191 97 22 25 215 183 125 235 138 102 93 198 208 84 149 87 174 65 117 3 10 77 45 134 191 186 133 218 237 244 207 90 146 206 26 39 95 15 169 203 196 
45 164 28 78 88 12 99 50 186 244 190 42 254 239 195 127 15 197 102 103 34 106 29 146 246 48 66 0 90 59 184 21 241 53 209 239 50 68 111 247 178 57 106 182 166 11 50 235 163 131 182 218 169 56 132 230 96 190 49 98 161 27 251 165 56 122 173 92 233 36 195 37 177 171 207 89 77 104 27 40 1 40 144 236 146 35 214 183 148 46 189 46 236 49 220 155 141 218 120 61 133 147 167 227 61 178 180 185 252 240 198 97 174 29 189 69 228 18 93 44 27 230 174 12 65 101 162 31 117 189 249 57 15 123 98 89 224 182 227 126 187 138 122 188 51 201 5 142 167 236 95 110 124 80 204 163 170 159 151 91 122 139 249 249 142 195 61 176 33 31 34 81 144 30 129 97 25 147 47 111 227 155 37 164 63 210 222 156 46 199 1 116 35 173 64 37 10 83 128 16 136 86 58 218 133 149 33 121 232 229 5 143 161 6 247 247 237 214 174 158 213 197 41 149 248 137 150 100 139 19 115 160 158 193 243 192 161 213 163 44 38 38 77 151 233 21 28 143 13 195 2 82 168 129 87 228 130 136 195 94 26 235 93 137 234 201 20 171 236 199 79 161 93 189 208 46 193 176 222 147 39 1 163 96 174 227 211 137 72 18 142 188 190 195 136 242 245 214 103 69 
111 83 108 1 20 20 86 253 51 191 131 44 196 248 89 111 240 212 228 173 211 144 192 38 128 131 58 4 69 81 178 51 49 98 68 115 212 146 167 172 70 42 84 129 107 16 235 39 116 58 211 120 169 104 33 67 102 19 188 231 100 160 190 32 58 218 29 32 36 159 138 226 2 217 153 187 164 177 35 50 68 255 233 17 84 4 121 188 123 91 86 194 218 45 83 178 147 165 64 48 140 163 200 71 112 181 154 1 247 67 199 53 104 9 107 161 92 202 144 56 196 67 79 189 45 95 56 145 67 169 245 202 148 6 41 132 151 164 158 124 237 46 160 219 230 66 164 79 71 36 46 96 75 180 241 2 231 157 55 102 82 208 131 22 197 49 117 65 128 143 239 83 13 218 118 201 200 144 219 68 159 121 26 220 23 148 130 182 143 81 22 217 201 0 52 61 166 138 116 37 49 95 211 175 223 175 17 170 22 221 87 167 235 49 29 83 48 205 75 4 174 226 158 145 175 35 78 103 192 122 238 217 180 250 147 184 236 22 56 36 214 16 97 161 180 180 255 110 159 69 148 18 203 184 151 55 12 32 26 187 153 106 170 5 17 74 119 149 187 117 181 223 18 17 65 90 129 105 136 212 107 230 165 8 110 59 201 114 233 223 224 98 187 192 113 80 78 54 198 111 
213 53 78 132 209 200 63 249 218 186 127 45 156 150 197 15 32 211 252 235 77 72 232 132 174 230 11 98 117 165 202 109 192 191 204 187 28 29 163 167 71 14 174 35 59 63 61 79 103 232 247 74 64 67 121 71 248 66 64 228 141 129 201 184 6 122 246 43 250 248 180 139 81 206 219 92 78 200 86 239 206 226 131 54 202 184 220 214 35 62 216 126 159 177 12 119 46 205 150 125 115 65 187 206 127 96 207 128 224 25 85 23 218 41 104 87 244 143 90 87 183 64 154 215 178 29 219 211 193 34 114 89 143 224 0 151 90 45 82 56 246 26 133 241 21 37 110 86 197 176 57 243 58 178 79 152 206 173 126 244 70 224 84 101 87 189 203 15 105 157 44 44 154 179 45 162 6 62 92 219 70 3 193 209 54 251 191 104 251 73 60 1 69 110 2 76 210 192 100 93 52 25 36 3 211 204 148 85 53 221 252 141 125 113 60 26 50 131 178 240 66 217 94 35 71 54 68 180 8 210 18 171 67 7 3 101 170 77 3 48 43 104 20 21 116 224 240 245 183 178 240 216 170 69 44 129 211 159 228 70 2 217 31 30 31 208 145 252 37 30 194 91 111 73 109 26 51 57 38 139 76 240 64 199 60 117 238 68 113 17 168 169 199 190 209 224 79 221 150 109 
79 39 25 255 137 230 207 69 192 101 38 3 121 165 108 101 255 81 236 147 169 244 90 133 95 106 113 25 91 149 218 99 45 81 80 68 2 169 2 62 37 75 56 134 198 57 58 91 251 194 110 151 4 177 192 132 211 196 70 240 204 95 36 132 201 130 174 81 97 249 205 172 106 210 164 60 188 20 115 81 56 174 187 119 9 174 163 76 42 179 154 142 40 165 62 120 42 163 124 79 46 61 249 56 149 228 177 76 226 158 223 238 191 255 28 92 65 84 202 133 108 33 179 27 250 206 238 232 88 157 3 101 242 223 78 137 176 104 169 223 192 64 69 219 151 155 217 110 50 11 255 216 162 245 218 190 199 66 253 124 92 86 136 188 51 70 148 72 194 69 210 28 223 96 110 192 200 108 58 212 102 60 8 236 211 23 87 159 25 104 51 219 61 184 86 123 124 218 147 28 212 101 117 44 198 104 35 67 91 88 134 183 101 77 174 107 7 110 114 231 119 170 87 174 3 170 180 203 82 3 19 174 237 175 217 54 253 190 42 15 87 73 7 62 181 168 185 250 70 228 115 190 106 111 51 156 182 19 233 212 63 41 219 165 21 11 72 99 13 204 75 202 196 38 3 146 224 179 241 67 153 96 161 75 121 32 141 78 95 221 62 189 202 180 180 170 84 97 8 219 
125 248 80 29 170 215 195 218 110 216 30 238 7 203 70 183 44 35 46 107 6 239 251 175 124 12 102 101 179 153 98 197 213 172 255 175 18 67 143 63 229 126 7 163 153 11 168 41 11 225 222 156 177 49 104 209 219 153 185 125 57 156 158 73 158 79 34 41 3 84 175 233 207 12 117 9 86 9 15 202 159 194 100 137 106 139 204 76 113 196 117 155 239 80 4 145 95 73 127 50 134 241 106 255 179 236 48 200 70 173 197 194 111 47 138 217 56 229 113 71 198 243 97 102 219 158 220 194 160 1 223 115 162 2 9 170 26 133 0 137 113 224 17 56 3 142 22 53 36 39 157 235 96 143 70 135 7 110 109 7 234 225 9 147 95 112 212 17 139 63 173 244 224 136 58 84 228 72 209 68 52 57 153 96 201 1 236 165 123 169 0 134 195 80 199 59 197 33 19 93 142 130 254 176 154 142 137 64 153 198 131 175 114 3 173 205 137 176 27 105 62 53 221 103 182 182 223 19 221 254 14 181 171 182 188 102 167 219 70 33 170 111 244 29 230 110 32 90 38 3 155 122 87 252 76 211 72 124 26 194 174 239 13 66 107 67 175 189 16 86 185 34 160 170 235 55 151 96 60 49 42 100 51 130 209 229 149 242 3 8 64 241 64 221 87 43 85 146 159 94 
220 230 41 104 2 225 50 165 141 194 71 119 29 58 173 38 177 215 255 235 110 195 25 71 156 174 53 153 242 9 84 240 19 117 224 30 88 123 143 14 208 125 138 87 133 236 207 16 1 188 211 231 17 21 108 109 201 76 239 180 200 17 149 28 190 234 36 106 43 224 203 26 105 119 77 247 236 228 98 232 201 123 90 13 117 103 3 10 207 157 205 163 97 19 44 138 227 44 62 116 1 119 174 114 95 154 216 127 217 137 45 85 15 252 217 134 33 31 164 199 183 139 22 143 69 117 223 225 141 37 118 101 101 170 255 190 186 205 114 24 213 67 250 0 221 39 155 121 157 167 24 76 136 253 20 159 250 161 119 201 193 188 19 101 220 224 136 165 130 247 100 234 103 122 143 145 58 228 231 15 114 101 39 64 74 218 13 252 10 253 188 236 137 217 95 155 240 130 15 208 192 2 247 28 23 150 181 175 47 27 4 111 39 195 152 76 6 12 74 205 253 243 117 239 236 100 160 48 40 246 93 231 124 213 112 214 109 255 52 2 194 180 59 195 68 39 53 23 195 122 19 59 89 233 108 125 243 70 31 76 12 165 58 145 188 88 26 66 242 30 212 51 253 151 212 48 82 251 196 74 137 12 176 110 168 73 103 60 164 101 36 21 37 247 109 118 138 115 60 133 
45 89 93 234 232 172 23 224 216 166 14 140 96 170 104 141 113 122 47 212 9 170 246 182 250 85 192 63 237 14 29 202 166 25 150 206 138 220 75 251 94 144 219 134 81 60 132 193 61 228 140 238 42 253 223 85 20 37 249 148 238 17 6 55 230 199 72 136 235 13 186 168 108 33 243 223 99 170 76 49 147 239 69 50 13 71 37 27 249 208 225 28 147 100 63 244 116 201 59 192 19 40 170 16 139 193 29 64 159 220 8 6 251 3 36 71 188 110 17 47 51 191 64 128 230 240 16 42 216 137 55 29 11 22 100 91 66 216 35 81 11 187 0 103 253 136 239 214 63 92 235 185 74 89 222 104 239 155 193 1 155 109 4 71 218 189 48 176 26 206 203 185 178 45 124 125 34 230 111 134 156 247 251 227 196 5 130 122 181 78 153 160 68 223 105 231 136 7 85 55 154 11 222 33 153 27 195 111 241 133 108 0 221 41 136 211 43 45 246 97 64 242 225 48 91 70 48 165 30 219 29 26 74 247 35 48 202 110 30 102 243 206 174 235 10 217 220 177 6 56 0 195 152 109 226 216 105 10 31 40 163 32 206 126 178 251 100 143 76 12 213 138 174 39 252 240 41 239 61 166 222 142 105 73 198 169 225 193 245 146 255 25 31 192 177 141 91 125 103 229 
39 223 48 2 172 249 31 183 68 82 244 218 58 151 248 154 209 140 41 18 135 72 151 31 154 162 14 111 204 231 245 219 99 206 118 247 117 173 224 231 98 236 73 116 162 186 119 95 193 0 1 244 167 147 177 227 29 174 45 76 141 159 214 25 9 192 241 144 143 169 5 40 140 164 131 156 158 98 172 63 158 236 176 143 222 219 19 12 175 204 85 75 39 15 210 70 33 159 231 246 132 87 86 36 201 98 236 124 183 244 97 227 113 55 127 10 179 137 134 67 89 228 208 148 33 157 177 10 177 82 161 80 220 30 157 128 33 14 202 57 116 217 92 242 66 203 182 142 175 3 210 48 34 222 228 80 3 179 58 15 195 193 103 199 29 101 160 231 156 145 102 254 94 121 102 21 23 143 157 66 88 178 191 122 18 162 218 167 86 184 54 250 94 212 129 131 209 150 40 255 67 209 8 241 251 60 70 244 250 107 123 79 57 254 21 202 49 25 250 192 160 20 110 118 139 115 54 171 127 24 253 112 29 183 248 58 214 139 198 54 242 71 154 220 215 80 155 199 136 41 139 196 108 46 167 41 81 134 207 104 176 83 231 227 50 43 125 2 116 204 172 131 7 11 64 18 188 14 26 26 30 187 215 218 63 112 172 187 184 245 148 225 235 175 174 0 139 22 224 113 
95 105 193 133 66 160 182 25 111 162 91 106 251 184 36 43 163 65 68 213 200 168 205 63 184 148 25 110 47 94 106 174 30 200 205 225 170 236 68 24 120 114 35 96 40 6 187 223 31 9 54 31 138 135 194 169 159 106 242 214 38 237 96 226 57 83 152 66 72 216 49 55 96 232 61 164 172 143 228 29 60 49 75 64 5 123 187 72 41 153 255 223 121 169 13 52 56 112 233 78 34 76 199 160 173 106 112 221 143 57 230 13 128 31 75 225 65 106 255 67 221 137 9 50 47 124 184 205 164 137 137 173 67 49 76 120 234 98 131 179 218 238 11 216 117 60 254 169 71 62 215 195 68 162 215 118 80 77 168 212 5 5 65 8 176 109 9 234 156 55 63 208 148 149 153 166 163 240 43 65 30 221 139 240 228 77 51 84 229 3 38 114 225 76 215 7 114 234 70 27 77 81 108 217 197 22 217 158 145 164 156 80 206 49 99 241 72 240 227 116 245 136 122 207 194 198 19 81 146 142 75 54 132 24 210 121 117 89 19 233 199 190 23 127 96 32 166 239 245 245 176 125 136 195 236 18 47 219 191 143 24 67 95 97 202 244 56 86 173 69 143 174 205 168 101 118 219 148 158 17 117 194 98 24 166 156 196 100 177 243 161 104 10 240 203 196 166 77 103 24 
116 196 148 22 44 200 78 220 71 116 145 128 78 193 193 236 88 251 73 236 207 118 131 133 114 125 216 137 160 139 40 104 211 190 107 73 107 136 153 89 173 168 200 99 11 88 148 162 165 200 196 211 17 204 43 141 87 209 203 213 64 22 65 238 209 25 93 110 18 79 16 151 20 23 139 227 49 241 165 225 150 235 125 64 255 93 97 41 194 214 239 211 15 86 122 81 118 190 176 174 169 132 121 59 132 171 34 40 74 243 186 82 50 77 188 92 34 145 239 1 186 115 139 168 148 180 157 57 202 149 172 48 185 145 157 240 5 75 212 89 222 198 156 156 129 212 201 78 1 209 156 188 71 144 230 127 87 150 112 80 214 134 155 29 201 221 68 92 160 223 234 159 115 210 19 104 139 105 235 63 36 131 47 3 113 22 73 126 225 101 189 59 161 122 195 156 98 208 53 39 92 80 172 33 147 126 231 94 89 245 108 87 20 17 113 125 65 235 252 205 185 138 74 165 51 87 110 214 11 210 58 250 66 132 98 8 197 52 223 37 242 94 146 189 88 225 42 211 190 248 71 149 103 107 223 52 149 7 226 242 76 75 25 125 88 100 84 123 146 92 196 102 94 142 166 154 120 93 33 172 241 37 114 254 116 114 70 144 206 112 103 25 173 163 155 87 168 216 202 163 
128 92 94 200 166 107 239 21 253 235 32 177 224 91 196 47 103 6 70 98 230 124 71 115 183 66 136 48 58 201 11 167 25 157 117 244 209 223 183 87 110 245 237 138 149 128 134 81 200 142 166 82 230 18 200 39 241 145 168 178 20 29 96 176 229 135 209 145 231 209 68 136 83 226 81 222 24 125 1 139 32 116 47 7 213 25 52 94 228 246 195 131 64 190 17 230 107 131 57 72 241 40 224 206 53 26 20 85 111 59 122 6 246 31 169 42 187 123 209 63 22 218 160 75 198 146 102 112 51 247 119 193 245 206 209 84 154 5 254 152 164 161 60 233 210 247 220 98 161 31 232 243 17 166 8 179 172 131 166 119 197 76 81 163 254 170 95 64 13 11 215 79 191 150 142 93 60 100 143 88 142 237 192 161 93 192 195 98 252 120 27 34 170 235 144 151 17 164 212 187 19 148 102 34 198 4 183 138 189 206 140 180 138 205 163 114 128 146 153 2 190 88 11 154 105 58 252 68 56 164 118 236 54 8 116 183 195 210 0 151 220 157 153 29 157 167 215 142 4 130 82 56 248 13 191 6 138 163 92 83 122 146 143 252 253 207 201 185 189 232 177 173 34 57 127 59 208 99 165 28 113 250 181 174 180 126 127 143 149 141 121 107 224 86 101 18 240 81 45 206 
189 46 18 243 22 11 5 183 42 233 85 68 77 97 139 12 249 147 147 93 19 96 28 53 112 217 64 87 152 246 104 158 202 140 106 146 64 121 245 57 179 33 47 48 34 31 156 249 208 52 66 151 140 131 11 88 52 1 106 243 124 39 65 210 236 234 3 177 40 236 22 104 116 244 123 5 119 156 176 30 63 73 213 102 134 96 15 125 52 183 42 13 37 74 130 18 43 48 35 121 87 205 47 237 116 72 128 238 213 63 143 35 81 186 148 241 139 94 239 76 119 228 199 205 25 201 241 5 144 70 19 18 84 130 9 111 188 7 135 17 195 114 0 175 11 111 199 97 34 229 117 108 5 110 138 92 226 10 87 84 34 20 27 163 167 117 108 151 82 23 216 150 201 157 205 106 119 81 182 221 212 93 103 134 230 63 187 226 8 119 123 167 234 130 130 84 217 12 31 13 64 98 187 166 111 38 188 254 156 70 169 142 39 46 142 65 35 61 162 134 17 118 39 164 238 121 146 79 113 177 236 120 142 206 120 105 62 118 150 16 130 55 231 155 165 193 178 70 194 82 134 113 135 113 33 246 56 223 145 185 247 203 153 129 66 69 86 6 189 245 34 75 50 13 185 45 214 124 155 60 206 101 177 203 241 207 50 67 208 158 200 189 243 194 239 207 102 174 158 165 
117 11 42 84 179 174 103 108 65 200 16 204 76 93 105 187 216 248 34 52 188 156 127 128 238 253 182 11 1 240 153 112 236 33 116 214 13 4 57 127 110 14 218 158 70 36 247 105 195 84 185 112 6 195 254 45 112 230 182 220 28 245 140 141 172 157 202 119 73 246 118 143 229 180 193 89 195 161 163 254 58 75 191 160 182 249 140 234 255 228 182 235 190 164 194 36 61 233 242 223 110 107 104 195 47 36 141 166 204 188 180 162 197 69 251 107 210 40 114 223 37 95 128 223 239 229 130 94 37 107 180 183 132 77 85 68 211 196 6 44 104 93 116 124 237 170 54 122 100 55 249 54 105 191 218 97 183 160 19 98 238 141 218 167 148 131 134 57 89 254 244 148 159 108 41 181 57 226 56 116 115 14 102 20 83 109 141 25 31 189 190 89 31 182 42 86 164 245 67 203 74 57 30 133 121 209 28 116 50 85 201 2 8 149 4 163 108 207 97 174 46 37 203 107 65 77 110 109 191 139 212 34 44 220 77 168 255 116 149 226 94 107 177 204 42 180 26 11 59 78 29 201 237 190 130 191 219 188 108 147 234 45 128 101 138 81 73 165 56 62 219 39 71 141 183 121 225 83 239 116 73 83 139 17 98 113 42 126 117 106 237 113 47 195 144 189 233 255 218 35 
45 21 56 106 117 33 165 177 53 90 204 5 28 68 113 47 151 39 13 207 152 191 184 175 149 53 76 81 211 78 200 202 228 227 242 211 111 145 65 30 47 177 249 230 62 138 152 202 148 198 113 219 202 35 151 244 36 107 252 74 207 166 218 67 103 142 82 140 189 67 84 102 214 64 190 64 55 142 200 139 95 55 159 202 150 254 80 232 229 77 232 207 102 111 217 54 190 255 160 186 231 161 165 49 51 240 99 59 141 183 200 25 2 99 223 195 129 184 172 52 223 196 88 9 30 17 142 74 239 31 36 136 117 17 254 40 76 167 47 254 202 108 98 30 133 49 121 238 21 185 115 128 27 182 147 31 130 244 190 40 4 213 38 28 240 253 37 242 43 78 107 178 117 23 92 63 238 136 180 116 217 106 109 115 159 13 226 58 23 129 52 120 4 8 237 158 224 204 227 56 216 206 96 126 23 31 127 38 71 82 217 125 85 49 97 182 117 175 141 130 103 30 183 225 248 162 194 55 203 230 0 162 89 13 83 139 55 236 147 123 152 118 48 48 18 119 25 241 165 134 220 30 249 52 14 11 231 138 237 14 59 179 68 215 184 245 143 0 93 230 96 229 231 220 1 182 151 165 91 203 53 120 22 55 85 44 2 159 217 168 182 77 183 155 119 128 253 109 91 6 
18 117 173 13 62 108 148 55 108 33 240 236 47 111 133 244 4 108 91 69 215 228 100 25 200 6 96 68 46 92 254 197 220 1 68 155 164 14 48 218 26 85 160 253 154 82 111 126 141 94 225 164 231 38 65 157 244 92 200 204 85 172 193 100 70 242 235 54 34 170 31 199 40 167 50 166 127 9 29 252 120 105 91 101 20 86 147 254 198 5 119 192 121 68 236 12 213 176 107 134 190 40 167 39 30 129 112 142 229 123 215 151 78 244 147 47 99 92 163 103 195 105 53 199 163 12 199 228 19 163 140 52 130 112 17 34 133 74 32 94 212 146 229 119 149 105 79 171 222 32 185 254 117 240 202 137 218 236 153 21 135 51 21 232 118 106 165 223 228 106 11 189 85 53 142 195 216 47 88 129 140 139 29 235 99 3 253 175 38 204 172 198 185 201 208 73 161 255 170 135 195 73 249 84 110 76 27 164 156 174 118 88 117 131 22 87 21 8 151 225 143 148 70 32 50 203 131 0 11 21 106 65 170 79 178 203 41 192 212 65 107 78 112 216 162 241 237 106 20 105 97 198 30 44 176 75 121 163 247 181 188 149 43 54 34 228 253 201 142 119 1 195 204 119 16 170 26 190 235 75 231 140 32 7 218 124 50 110 22 183 244 15 189 104 54 141 178 112 163 246 
164 90 234 81 72 145 28 118 229 208 85 35 22 219 159 75 204 109 19 177 146 113 66 182 21 116 211 111 227 91 109 251 115 81 215 20 102 4 93 227 12 17 118 25 42 188 165 59 250 229 157 61 116 56 168 83 204 163 73 4 60 13 32 128 3 69 15 51 174 56 155 154 150 104 149 86 170 153 249 127 110 205 22 58 68 115 239 142 235 220 226 115 69 238 135 44 93 28 219 215 168 150 158 67 139 188 249 1 30 217 100 190 48 14 199 208 139 140 223 14 120 6 228 229 134 103 105 168 136 192 131 40 221 132 45 133 244 247 235 67 14 228 174 160 70 142 248 37 207 234 64 124 126 11 152 129 136 222 141 155 140 23 79 77 212 107 18 8 216 0 179 68 3 34 159 207 186 55 241 100 155 245 218 127 2 210 70 112 210 188 188 174 114 11 134 111 21 180 19 117 63 191 153 43 133 251 254 240 148 240 249 179 116 21 117 192 14 67 54 217 236 106 190 137 65 131 114 181 41 197 249 116 49 28 229 33 26 215 149 174 218 160 89 58 228 178 216 230 169 70 175 229 95 78 91 211 1 102 89 72 151 8 139 172 183 255 222 77 76 30 42 174 150 49 90 35 114 52 204 154 220 195 251 188 178 210 91 53 186 158 132 79 231 227 147 198 216 80 205 216 
162 56 134 155 207 138 66 147 167 3 25 132 174 162 96 133 109 93 133 86 117 18 59 243 162 192 215 105 157 247 250 233 164 141 113 27 142 147 89 180 9 135 135 75 39 203 39 105 25 86 162 223 58 170 198 92 79 6 33 62 12 220 173 169 219 133 179 214 218 52 233 174 34 41 221 152 79 39 151 143 61 39 122 119 15 78 108 177 118 29 55 237 48 232 46 63 206 137 19 118 187 85 56 169 122 79 229 18 47 156 250 31 97 55 213 199 254 230 118 27 159 109 225 29 14 1 196 212 6 255 90 160 57 222 143 204 151 99 101 98 206 19 150 67 13 238 123 118 14 90 44 193 83 94 233 118 176 16 185 144 9 81 80 254 93 183 54 63 3 203 38 47 52 117 181 33 202 180 52 45 71 146 214 204 25 88 22 162 29 254 83 154 97 229 189 56 46 201 117 43 70 241 240 34 106 168 157 225 31 241 199 148 178 119 188 99 122 195 47 70 93 177 219 27 149 37 105 246 180 250 148 184 230 59 139 227 119 150 150 172 149 13 253 82 86 239 38 175 253 7 253 13 121 19 152 58 46 120 28 223 248 51 218 13 109 19 190 25 99 37 234 170 179 112 158 16 60 227 91 215 42 140 72 156 120 11 212 32 179 69 157 155 1 93 145 83 99 224 82 108 
55 63 223 2 1 131 114 117 106 60 164 4 137 186 215 158 98 128 213 244 172 246 181 211 216 94 255 177 78 9 16 134 250 203 191 221 7 172 64 42 234 224 73 94 163 250 116 185 63 92 229 223 162 242 44 47 131 32 108 80 184 248 189 12 180 177 208 98 78 84 210 214 196 185 146 12 255 178 229 149 24 134 74 9 28 161 202 86 12 137 34 87 40 20 36 169 109 217 91 186 93 228 238 34 254 174 198 55 37 76 243 219 244 230 76 153 162 107 86 241 122 131 104 239 39 197 12 3 46 43 167 12 188 194 93 182 162 166 47 6 158 46 102 51 220 100 53 184 188 184 154 167 214 245 133 64 60 115 60 194 254 143 254 129 244 88 230 57 183 139 19 162 241 194 6 68 215 232 75 141 243 240 92 33 39 198 194 113 239 134 125 143 230 237 166 65 140 13 83 84 70 68 187 50 166 110 155 183 237 90 216 65 206 123 101 6 117 224 103 171 200 102 151 18 237 45 232 115 12 72 107 174 86 185 111 223 70 156 236 51 38 162 34 251 214 193 125 255 201 42 188 21 80 124 82 242 27 55 12 63 252 115 245 240 239 210 119 209 88 179 194 97 139 168 114 228 145 43 107 180 42 140 8 216 14 46 118 215 120 243 90 206 229 245 186 193 25 119 26 47 
100 27 229 233 35 85 15 36 137 31 249 204 160 238 149 27 138 229 202 107 13 73 26 72 79 54 130 202 221 144 161 33 242 59 29 114 247 143 67 226 70 6 237 240 51 56 169 7 77 10 23 83 225 34 147 213 192 158 20 178 66 5 84 209 139 125 50 164 13 63 84 70 78 73 16 199 236 82 141 196 222 3 37 58 252 100 14 155 194 149 58 34 81 190 123 100 182 72 235 41 111 78 139 121 43 78 42 250 210 37 137 121 197 58 188 198 103 249 211 197 220 131 186 194 17 163 94 5 252 5 17 166 37 162 48 163 101 127 3 48 237 151 228 78 139 21 164 159 41 199 42 121 151 208 93 57 138 157 69 218 228 26 108 198 53 37 139 235 130 67 98 18 70 145 232 108 183 254 164 110 74 184 91 223 121 228 235 48 196 146 119 11 246 240 196 46 169 189 227 122 12 1 17 71 228 252 219 251 209 92 134 219 211 179 173 33 12 39 44 78 200 108 61 193 186 239 225 137 136 84 130 120 139 35 214 120 208 190 6 34 98 151 16 141 203 159 106 100 216 2 232 60 157 17 223 36 185 127 139 125 219 209 174 12 133 16 122 77 16 193 177 10 241 23 11 45 58 102 216 211 100 219 230 161 75 107 165 91 122 9 137 178 169 28 176 94 132 48 197 109 
174 235 36 219 6 67 62 98 41 239 63 147 56 27 239 38 219 96 214 143 133 243 164 210 250 29 208 151 15 235 126 129 177 38 166 188 41 133 115 213 158 34 233 207 220 43 203 115 84 218 188 231 99 167 164 130 215 188 85 223 175 169 111 48 34 89 128 213 227 68 112 46 164 231 29 173 217 113 66 47 190 192 157 140 155 139 81 108 70 225 137 93 234 210 94 35 8 108 251 79 187 233 254 20 64 38 34 85 181 87 27 2 33 250 194 165 181 9 114 56 82 116 178 58 75 206 20 2 107 70 93 82 58 218 229 47 124 199 65 240 251 68 32 150 134 111 115 91 58 136 209 142 0 93 25 157 87 5 89 116 84 209 238 5 230 128 237 40 95 178 194 166 48 160 23 144 244 9 248 214 177 112 52 20 90 132 6 175 152 224 244 33 201 244 248 145 74 67 222 167 241 208 237 158 222 210 201 155 116 175 152 61 162 40 100 117 103 209 192 152 149 197 175 178 213 151 193 30 235 140 127 83 59 7 9 1 140 68 254 93 13 73 156 184 149 26 41 87 47 45 145 127 214 29 80 207 125 162 146 211 83 193 153 213 68 64 96 246 195 93 126 126 199 192 76 113 19 173 74 99 187 126 191 140 228 81 160 31 203 254 179 216 9 76 244 212 21 100 56 166 
10 133 16 167 170 250 240 141 163 73 145 64 18 174 147 233 70 199 103 75 198 145 108 86 149 147 88 249 180 89 218 57 233 36 126 128 191 224 208 55 206 86 196 150 60 163 85 187 132 233 109 250 118 68 5 117 128 0 141 236 43 9 142 214 232 162 142 176 13 90 52 149 27 60 172 15 66 71 77 45 39 30 121 213 228 0 197 92 80 249 90 84 130 90 156 165 144 104 9 224 156 81 99 207 18 100 17 81 43 128 195 100 182 205 85 132 23 171 246 52 144 232 137 218 191 54 75 207 104 220 182 183 117 171 166 14 59 52 187 4 255 56 254 139 185 96 199 174 23 46 222 36 197 52 224 37 236 132 228 124 249 103 95 222 159 82 69 122 31 21 113 209 199 86 71 200 184 62 152 251 237 114 197 85 121 69 40 222 16 44 175 211 201 114 202 252 34 44 136 58 69 112 253 96 138 194 230 67 60 207 144 21 160 94 245 238 51 131 40 172 52 21 244 253 98 99 192 186 7 35 182 119 53 171 37 88 80 100 35 38 204 123 118 161 56 217 181 24 124 86 170 56 95 41 251 34 76 163 9 192 85 30 25 88 120 48 178 97 33 36 69 150 241 170 20 74 190 205 76 251 219 38 116 41 153 79 11 104 13 155 109 181 20 4 247 6 149 101 107 37 
6 234 150 189 50 196 48 181 57 33 3 190 216 91 80 40 234 111 110 250 47 178 180 65 77 191 153 168 20 180 26 73 6 158 92 195 23 49 147 141 177 189 34 138 251 93 4 221 91 114 106 254 58 79 165 13 7 54 71 103 126 132 133 120 42 40 224 208 40 89 5 120 47 137 241 134 205 148 88 239 243 62 72 157 180 220 10 193 74 81 73 107 90 60 117 88 121 112 106 10 238 165 77 30 185 109 183 219 213 105 22 7 187 188 80 254 39 192 169 5 30 248 230 219 48 70 178 145 251 94 66 156 240 123 53 41 90 81 190 176 155 66 4 204 185 212 201 74 26 99 74 127 140 19 103 223 137 9 4 204 184 219 175 172 182 68 131 62 23 29 76 46 168 136 236 231 247 111 253 168 22 45 183 218 155 138 20 161 235 237 51 177 185 205 250 99 201 105 0 7 250 185 170 124 131 164 148 255 125 115 50 65 162 134 183 188 84 69 53 70 225 90 6 231 5 30 108 232 176 80 116 44 10 13 32 196 180 252 196 189 81 202 177 60 70 214 17 206 189 45 18 249 240 184 71 23 164 180 75 100 243 99 167 85 79 1 245 43 196 250 70 201 125 90 194 194 138 133 142 183 225 40 243 224 162 111 188 232 159 121 223 254 27 9 96 41 210 126 115 219 
58 5 225 202 9 13 172 251 247 251 246 31 197 31 31 35 126 231 46 3 253 83 114 223 175 169 105 80 154 106 224 252 158 132 92 104 251 201 185 14 20 160 17 176 115 251 223 235 12 137 100 15 198 44 74 46 55 173 136 115 175 175 133 181 121 225 128 76 93 120 47 36 105 221 166 16 242 162 123 96 213 187 40 181 2 235 176 20 60 124 134 58 26 51 170 47 82 131 21 30 54 1 87 100 127 24 127 231 74 254 59 169 96 230 64 157 186 120 236 185 69 126 42 76 226 224 151 146 177 210 227 133 143 76 121 247 221 186 98 222 132 246 102 239 53 115 117 110 246 187 70 68 218 27 62 82 15 156 147 5 30 54 177 42 111 65 221 4 12 44 24 156 166 113 70 89 221 200 143 208 188 156 6 221 131 187 136 243 170 81 231 176 34 23 72 181 222 200 202 180 146 213 105 202 187 89 33 16 223 79 86 109 22 3 115 174 201 198 210 216 186 230 220 188 68 221 113 205 229 201 138 47 249 28 28 16 200 149 64 59 195 111 146 234 11 216 214 220 51 164 226 168 71 67 184 81 13 240 242 26 138 44 99 156 200 107 251 21 215 13 235 3 18 143 10 242 163 3 119 146 74 189 128 12 90 80 195 150 4 185 147 70 215 217 158 35 136 41 204 130 
239 169 106 144 83 25 135 43 231 108 158 246 148 122 118 172 249 245 71 180 177 158 30 246 212 184 130 238 192 189 88 254 25 81 4 9 14 116 209 61 222 251 147 48 155 65 139 47 47 26 138 211 156 8 89 212 136 178 89 34 248 145 103 50 92 237 2 150 204 8 176 209 145 153 157 105 231 123 134 62 1 167 213 25 78 96 14 136 251 173 105 234 185 12 193 198 192 101 172 97 19 61 236 143 6 44 6 201 254 145 48 128 121 132 112 177 78 12 3 186 53 146 252 108 137 150 45 97 77 161 74 143 110 123 76 30 71 157 20 119 106 233 81 158 158 153 163 193 36 118 1 17 63 74 88 208 243 151 116 171 12 137 36 75 98 42 153 39 92 213 16 156 179 237 177 63 120 206 182 114 89 4 207 53 32 188 197 63 124 119 94 78 4 6 130 187 121 178 155 81 75 187 66 95 95 4 23 12 16 12 240 235 116 32 55 207 224 207 141 225 174 159 179 239 61 254 171 7 58 123 26 69 30 54 241 233 248 149 76 172 109 57 155 85 253 49 255 135 136 109 247 221 16 117 59 57 192 91 232 88 45 237 222 170 221 48 102 97 6 10 25 200 151 63 253 215 124 159 240 4 30 125 74 91 42 98 190 209 148 3 129 214 219 113 174 41 142 144 234 240 
15 202 68 8 151 4 94 154 122 209 210 239 173 230 207 133 133 207 3 98 193 224 190 168 203 109 84 106 59 62 195 190 157 61 149 19 116 114 8 197 127 49 109 239 58 146 206 129 168 34 211 146 80 216 230 247 133 75 150 20 235 33 57 242 55 203 214 146 54 112 66 129 17 38 136 173 207 104 142 119 27 197 246 9 72 213 67 234 146 113 61 207 167 35 150 181 102 220 205 44 230 229 83 246 186 24 237 208 115 80 89 144 103 30 52 112 177 190 27 170 121 73 17 69 118 43 32 46 176 216 67 138 139 187 132 75 1 111 98 1 47 50 117 243 19 151 85 111 148 123 183 94 194 57 217 27 96 34 33 134 160 39 1 84 45 217 29 169 110 148 176 232 10 246 43 202 167 150 32 173 248 243 95 47 246 171 95 252 109 238 223 228 187 49 204 49 212 39 102 55 138 237 159 44 12 133 195 58 172 133 94 211 229 16 91 69 156 6 105 142 166 120 163 113 139 95 111 201 137 141 166 30 220 227 246 118 61 197 133 109 169 203 215 136 99 185 242 199 60 178 192 121 18 168 180 84 151 23 176 197 83 243 39 133 237 223 127 109 166 159 185 139 38 208 83 117 123 214 109 221 95 23 44 102 185 103 92 182 103 194 89 205 59 65 47 149 67 71 0 186 
78 251 166 187 171 252 154 66 52 80 20 177 140 157 116 253 164 155 225 191 132 201 48 136 72 95 7 117 104 132 66 4 61 194 149 38 193 183 115 150 151 13 47 104 75 172 98 229 218 45 140 150 117 146 254 159 130 53 247 79 228 255 13 244 124 218 206 244 239 105 168 25 170 246 6 45 36 172 188 199 99 6 165 100 194 135 138 185 241 172 70 72 61 31 40 50 18 45 153 76 190 122 255 116 119 243 225 38 160 5 75 74 72 12 116 80 244 15 158 127 158 170 62 138 253 75 93 101 7 162 62 86 181 82 65 79 6 237 7 123 70 31 215 23 144 41 64 131 146 145 0 153 144 24 37 61 171 237 114 53 100 32 4 60 92 89 54 81 93 202 193 85 158 98 40 213 67 68 83 37 36 119 121 174 207 223 68 136 208 108 48 76 48 145 53 35 59 248 165 35 134 116 87 220 49 55 5 45 106 69 243 93 50 40 209 102 100 229 227 148 243 48 95 79 115 220 23 53 219 149 87 109 137 209 17 55 134 4 55 199 12 19 105 83 69 12 208 107 86 20 74 137 156 161 199 233 53 233 243 154 195 154 21 214 108 203 54 143 38 50 135 74 49 152 253 48 228 139 62 98 173 83 192 142 84 39 47 192 127 160 16 122 123 109 165 6 57 73 16 11 
151 42 186 95 225 187 246 28 152 13 226 246 114 137 142 203 161 42 97 124 88 233 184 252 140 120 207 166 248 50 229 212 99 83 155 173 37 100 158 62 232 250 133 205 172 160 253 105 14 18 35 198 201 172 49 72 125 33 93 94 175 112 254 17 17 20 241 221 4 123 59 191 92 186 239 143 99 127 83 144 32 71 62 70 217 209 196 135 214 210 21 213 104 234 163 235 42 215 131 150 135 233 22 198 124 181 232 229 159 14 216 103 97 49 122 163 144 64 185 225 32 242 193 180 42 136 28 138 53 3 26 129 181 148 119 124 209 84 56 119 105 53 214 23 88 56 158 133 246 225 88 125 225 233 39 162 254 50 176 21 186 0 126 69 150 101 165 9 226 253 166 236 200 220 147 199 141 197 116 150 20 156 232 132 164 30 16 72 234 208 168 180 66 53 119 139 50 68 234 148 55 25 252 236 197 235 88 160 137 62 194 123 241 90 179 29 238 251 67 77 249 74 76 145 84 12 205 251 146 26 140 69 89 17 0 33 103 74 109 202 211 13 81 223 149 1 255 113 73 231 138 91 48 136 228 209 120 236 71 60 189 205 212 69 207 75 123 48 182 226 26 108 243 152 233 104 9 123 21 168 60 74 171 23 153 115 184 159 54 61 175 247 187 71 10 188 33 49 52 196 
186 153 167 175 114 73 81 190 84 174 61 233 80 141 111 43 59 241 16 33 23 104 203 211 149 110 118 210 216 42 245 131 124 88 91 186 215 135 83 138 126 132 191 92 11 22 158 63 30 235 51 127 162 211 100 121 82 44 96 173 123 157 132 21 3 8 128 182 170 185 181 116 144 228 226 42 248 78 0 250 75 74 106 226 96 231 65 144 250 104 15 120 146 244 170 35 87 143 92 202 116 73 64 35 145 181 239 123 156 157 92 5 201 244 253 114 215 12 44 193 150 10 204 89 166 150 47 85 129 215 55 31 187 158 188 64 137 225 46 118 129 108 124 7 160 211 52 86 145 171 235 180 44 249 223 120 62 235 219 82 136 198 91 220 10 32 241 114 129 79 231 68 46 33 38 169 217 206 86 183 22 42 71 16 199 31 144 254 226 91 118 195 116 70 15 42 230 55 167 98 127 231 98 12 43 38 35 147 123 204 173 188 236 243 8 126 108 99 39 19 26 78 199 79 78 62 154 49 217 75 165 184 142 145 230 247 1 225 59 108 142 183 127 142 157 108 246 165 37 173 235 222 111 44 151 159 29 149 69 24 106 196 180 27 179 53 189 45 55 188 53 221 27 118 21 84 177 255 216 46 249 229 37 136 104 93 174 90 233 53 88 8 34 10 156 51 248 187 45 213 
85 29 219 141 40 241 183 55 174 19 120 192 241 244 29 56 142 73 212 41 186 5 27 40 135 133 37 169 100 11 127 24 227 110 243 37 192 16 173 95 30 15 156 4 19 192 27 23 103 89 209 180 153 237 213 161 35 158 22 37 255 14 251 29 106 22 70 76 232 187 62 243 136 93 13 161 105 50 103 77 125 243 108 162 141 213 208 154 126 187 57 78 210 170 232 13 114 125 156 171 170 218 179 27 117 100 147 64 251 50 72 1 88 129 110 156 159 165 82 60 30 70 84 205 228 200 144 15 129 11 189 233 13 85 84 1 108 140 245 137 207 169 8 92 126 105 160 73 214 69 164 174 141 165 48 73 62 81 57 76 33 40 112 175 25 20 105 202 245 61 253 35 239 125 237 133 121 21 199 82 58 158 14 25 83 66 149 107 230 43 44 235 217 60 126 165 215 255 58 161 152 223 113 183 99 152 64 164 209 235 174 94 211 150 215 165 246 131 75 219 230 64 177 21 49 175 176 114 78 255 15 172 222 218 26 236 49 224 72 227 12 85 28 22 170 22 73 121 0 210 25 64 70 118 15 242 178 233 204 191 135 250 47 19 78 151 192 107 99 63 79 104 180 185 216 33 198 7 170 190 249 150 200 67 12 183 144 169 227 83 154 51 136 217 227 255 113 124 43 220 
1 156 155 91 80 129 171 41 47 79 67 155 103 54 32 139 66 234 122 99 77 83 228 119 91 133 115 152 205 242 34 229 17 222 117 229 105 20 93 211 238 216 92 57 212 28 233 193 239 247 22 71 118 82 112 50 8 229 39 5 236 98 111 49 157 239 37 46 134 218 182 201 10 136 61 192 199 175 235 140 28 197 172 126 232 185 7 13 149 224 70 111 86 50 216 102 172 182 243 93 47 59 126 179 139 73 45 87 201 87 238 149 208 62 132 47 43 238 113 176 12 96 26 253 145 204 38 45 71 27 39 154 237 159 124 56 122 2 118 38 97 124 185 131 19 73 229 131 197 91 118 194 116 76 233 216 39 150 33 45 117 6 8 15 70 110 121 1 222 155 94 86 23 134 21 255 237 206 25 162 64 102 222 236 214 139 252 39 160 250 144 15 62 95 223 225 196 16 61 182 191 251 46 15 115 222 202 177 103 182 102 179 36 121 112 213 57 7 155 19 130 94 60 122 170 14 244 59 239 238 144 254 37 12 45 120 254 234 160 64 136 231 21 222 247 251 245 37 165 167 14 196 87 44 238 23 194 252 143 67 78 110 58 129 25 181 165 186 63 19 95 85 89 74 109 77 67 84 54 134 35 83 156 97 166 203 108 142 141 15 248 33 105 249 2 232 162 222 220 252 
190 193 206 151 224 199 184 37 143 235 248 158 185 243 142 18 248 163 126 134 19 48 118 254 200 248 177 219 201 111 27 103 4 93 182 175 39 71 60 145 100 42 6 21 114 112 44 1 212 28 238 167 93 72 83 2 244 209 15 1 149 81 170 35 152 77 223 68 54 176 67 183 73 120 39 148 83 176 190 83 194 158 131 154 114 61 213 84 116 238 228 3 14 106 209 87 2 251 17 255 19 236 19 191 198 61 34 195 102 156 140 51 74 145 4 7 91 249 69 29 208 181 248 136 60 163 216 44 203 205 20 136 200 225 244 210 99 226 192 73 178 28 222 199 245 93 58 149 30 98 235 132 145 144 19 57 40 229 6 201 122 45 175 134 93 121 48 24 169 205 201 207 63 25 251 55 74 106 237 237 197 98 14 178 62 230 252 190 217 22 165 86 151 130 172 161 216 154 14 184 31 103 5 252 22 121 44 172 210 33 228 183 87 224 247 206 95 30 124 190 87 31 251 253 171 52 209 130 67 46 213 218 78 24 59 121 62 38 185 78 19 232 233 154 221 195 239 1 124 162 91 226 171 233 81 228 61 171 231 209 165 28 206 168 188 73 53 237 191 6 234 68 151 40 194 62 94 245 60 115 30 217 97 209 220 91 238 51 213 78 181 53 7 76 65 71 243 96 185 1 
162 3 6 183 230 74 56 76 226 93 38 75 204 43 85 51 242 92 28 19 251 135 5 87 112 166 117 226 123 199 144 93 238 4 87 206 134 180 19 108 114 227 247 178 15 0 1 178 246 214 33 172 56 190 157 223 232 18 180 159 218 228 130 168 171 240 35 178 1 208 27 69 20 111 245 207 110 192 43 244 239 176 70 37 19 89 70 116 120 120 68 166 154 33 86 138 225 177 179 138 223 5 24 128 210 233 106 203 113 211 156 161 229 210 211 166 21 193 200 190 38 192 110 32 66 229 214 173 153 46 79 127 166 186 209 196 180 57 156 205 160 162 28 98 224 36 16 89 196 94 235 103 252 210 122 53 91 151 200 182 219 79 63 185 224 89 15 186 193 72 212 254 132 147 115 223 233 141 68 100 171 152 119 20 2 150 176 12 108 161 245 80 173 252 202 95 20 73 154 10 1 252 89 133 164 15 104 191 7 248 185 239 79 216 51 111 63 245 88 206 253 106 37 33 25 29 57 153 203 242 58 91 124 62 117 139 136 127 196 170 67 74 181 35 58 132 232 32 187 213 185 162 151 90 31 209 38 154 212 145 140 188 183 85 59 247 110 56 185 73 79 74 164 108 129 39 243 6 94 207 126 32 28 177 193 217 173 9 220 91 227 108 223 15 216 161 69 13 141 179 
190 215 209 68 50 70 101 36 2 196 93 35 145 188 201 35 3 79 149 113 68 73 174 85 76 83 102 231 162 106 26 37 31 143 18 67 245 192 168 66 240 40 173 196 251 147 8 31 229 36 160 176 101 74 125 114 92 240 42 206 91 244 93 181 101 219 217 237 246 195 148 168 67 152 21 91 196 139 33 205 240 192 150 111 72 71 151 235 150 78 233 255 119 149 157 140 23 34 240 234 60 53 111 127 134 126 95 144 245 142 91 86 171 140 63 85 243 41 69 233 131 213 110 34 254 52 36 209 189 203 29 227 207 0 130 238 62 65 81 10 148 131 0 226 158 238 99 11 112 214 207 148 169 238 128 222 249 184 56 173 224 64 41 128 184 10 21 30 245 73 180 114 172 81 86 152 82 79 201 56 199 56 125 19 146 255 230 219 111 11 34 72 7 232 220 104 254 61 112 55 50 254 79 111 66 226 166 161 78 24 58 133 254 54 150 143 198 114 105 194 104 20 42 201 186 43 253 68 169 127 218 96 126 200 236 170 96 29 55 37 26 175 126 153 31 183 100 47 203 173 209 59 236 187 151 89 129 113 86 187 194 186 157 193 96 15 81 202 13 234 83 75 63 126 93 30 49 165 45 28 43 26 230 237 4 232 179 31 229 34 173 118 79 213 255 131 96 59 71 120 
82 49 64 59 68 235 159 185 61 231 58 125 110 31 111 129 183 131 196 68 109 166 203 28 91 184 73 206 6 180 150 92 54 218 71 30 177 96 11 20 74 101 211 123 26 38 54 158 14 116 19 239 162 102 120 86 235 75 194 201 219 226 6 29 193 206 176 28 15 68 106 215 96 7 64 62 185 150 1 237 15 163 232 73 10 200 123 204 9 118 180 157 102 46 95 100 251 243 195 92 229 255 132 170 135 181 200 237 210 215 153 22 196 249 139 122 47 53 158 37 188 33 101 113 47 254 104 216 237 50 200 7 187 249 33 51 200 87 180 176 238 81 198 192 53 92 67 169 153 22 167 10 13 52 30 110 191 187 234 34 158 116 6 68 26 153 9 29 42 213 76 177 148 108 79 147 105 181 89 254 206 209 95 34 2 151 39 188 157 206 174 233 22 159 198 60 136 73 3 14 182 23 216 21 76 144 254 57 104 237 21 162 88 208 142 22 166 50 200 130 81 157 121 214 94 156 80 22 143 113 217 174 115 5 160 7 159 37 153 87 58 234 191 189 191 121 252 141 254 237 73 233 100 146 22 145 125 84 236 251 183 119 81 167 105 136 236 173 19 147 233 152 232 150 159 118 137 54 112 48 20 177 241 24 93 20 75 193 123 174 226 19 135 196 52 158 160 134 3 47 
50 66 182 161 120 216 253 246 64 110 180 167 239 100 10 55 196 138 226 14 97 145 121 133 135 192 73 62 33 232 46 182 132 154 200 29 245 151 32 101 107 136 142 153 151 240 218 112 34 94 161 34 54 231 250 122 63 211 90 44 243 151 181 106 144 4 230 178 100 189 81 234 147 238 199 174 21 59 170 233 254 247 81 162 2 151 173 25 56 102 45 19 30 122 224 114 222 230 218 8 207 49 216 173 63 7 39 143 112 47 193 202 224 189 186 57 205 137 218 139 249 223 140 153 171 120 246 246 246 169 106 200 61 219 253 215 247 59 117 228 176 179 105 60 80 24 163 141 160 165 201 247 10 168 61 102 161 123 65 32 97 182 95 154 183 163 8 144 68 242 123 84 222 174 232 103 215 112 213 70 130 211 194 134 244 39 8 35 8 106 7 22 166 116 128 37 68 113 64 255 172 148 255 136 0 10 135 114 252 45 25 13 124 251 12 96 62 198 183 120 232 44 145 0 77 74 151 18 236 45 238 77 185 137 202 40 33 174 142 133 72 183 53 138 149 5 240 172 112 236 16 12 74 171 39 7 222 162 106 8 183 191 90 161 243 58 164 219 70 130 69 202 66 119 241 100 213 217 182 147 19 0 221 136 53 206 17 83 226 227 195 176 174 15 204 36 225 13 84 73 
121 110 243 102 114 211 23 67 68 95 166 60 174 108 228 147 178 125 150 11 225 116 104 178 216 6 140 254 11 107 164 27 193 90 226 132 96 52 109 209 235 128 7 207 201 151 238 214 200 160 255 87 97 191 33 181 62 138 225 86 249 189 90 249 39 46 88 74 149 3 189 179 209 34 35 118 236 233 194 249 127 32 148 96 236 43 184 97 230 132 21 84 52 105 63 138 177 210 158 224 152 166 205 148 254 46 64 87 160 202 42 163 223 227 157 78 9 32 243 96 218 221 110 34 67 217 27 119 105 46 252 111 241 135 101 26 123 141 167 154 108 162 236 124 241 210 98 73 65 6 156 87 34 123 53 229 174 115 182 103 87 43 185 31 41 12 79 237 79 37 160 104 217 217 209 45 188 213 43 120 26 70 121 241 196 72 177 200 254 161 215 3 130 175 31 23 199 159 82 182 130 224 114 233 110 215 161 94 72 213 63 3 30 70 83 212 202 43 44 240 186 202 72 243 242 163 116 128 83 167 53 29 29 165 103 68 179 5 36 182 158 184 231 19 213 111 241 168 59 11 236 136 106 85 207 222 175 240 1 129 85 140 193 201 39 91 197 162 48 201 33 222 197 104 107 208 198 41 29 22 32 210 58 182 150 172 53 109 194 124 14 67 86 181 190 99 168 236 213 42 
110 140 98 126 197 203 19 97 121 221 157 197 128 103 94 162 199 54 65 71 50 49 227 238 222 140 244 146 169 63 223 5 244 183 173 61 167 203 38 238 118 241 58 95 99 178 160 118 132 91 189 20 7 246 199 169 115 120 42 255 48 60 43 90 74 176 203 195 114 79 238 161 70 207 188 137 210 155 72 87 86 131 111 126 73 178 4 156 159 225 42 82 72 203 0 82 249 225 132 185 46 62 177 160 112 221 235 237 211 10 157 111 196 22 33 43 1 79 224 240 233 47 186 50 246 212 168 21 136 176 159 199 228 130 184 19 124 133 143 51 113 231 232 230 86 124 153 195 55 180 164 205 217 203 163 71 68 63 105 202 127 135 230 148 155 2 75 35 242 46 111 3 177 26 113 228 148 30 160 239 241 201 151 90 248 27 172 58 57 244 140 153 103 205 31 201 91 166 178 247 91 63 84 3 157 139 128 144 7 98 253 87 57 118 3 192 205 136 159 179 221 220 88 171 198 234 19 13 44 86 52 185 63 34 6 222 60 35 93 18 54 177 122 162 22 163 46 38 225 123 67 89 57 221 23 40 39 70 138 9 23 250 26 142 36 62 77 58 150 200 80 147 169 116 221 120 145 56 97 181 186 90 95 213 84 224 15 56 15 73 76 101 35 122 173 160 148 251 241 192 
180 99 160 59 233 17 239 131 176 29 228 149 226 142 188 206 55 206 138 1 8 91 32 200 89 190 50 23 22 193 185 23 157 221 150 49 125 242 120 104 125 59 255 237 225 128 34 237 232 141 206 174 153 228 207 218 191 175 244 27 51 248 110 231 89 28 122 158 237 125 64 210 0 120 250 229 61 151 88 218 113 7 35 101 75 76 34 68 96 51 58 210 113 8 216 218 241 10 148 169 194 28 14 103 64 189 28 167 128 58 40 60 217 34 211 78 164 251 222 174 65 51 75 103 91 90 191 150 108 142 43 123 131 54 171 207 69 243 175 88 49 211 88 188 41 200 37 147 46 89 206 191 108 152 112 0 118 84 235 195 210 143 136 59 184 50 224 179 23 0 249 35 217 201 177 1 104 224 96 89 113 207 185 32 232 72 241 198 76 95 36 10 44 247 244 18 234 122 115 187 191 206 67 46 255 132 251 180 158 82 205 203 244 195 102 121 189 45 22 224 100 228 49 19 129 173 181 40 160 117 44 142 68 67 212 161 43 108 254 124 212 6 180 14 63 158 158 113 244 46 39 118 70 73 219 133 217 153 19 164 98 139 213 213 174 73 246 165 230 233 129 2 17 227 93 77 218 201 41 176 147 50 107 178 123 248 234 8 60 163 88 174 184 36 52 55 5 199 239 98 
182 99 78 237 93 211 15 174 78 170 207 223 165 35 43 186 138 87 38 70 179 179 202 112 43 168 19 93 82 164 8 255 38 66 43 230 192 190 19 89 33 171 88 166 47 232 175 182 251 208 86 228 69 177 179 15 66 127 56 238 157 202 137 164 187 238 225 149 67 138 178 119 222 51 139 172 59 105 63 207 87 201 68 141 251 133 89 182 134 18 107 147 236 32 186 123 255 207 56 161 237 32 49 48 10 169 49 154 208 142 35 44 36 172 182 231 219 23 5 139 125 199 118 244 73 142 226 169 121 77 247 179 199 104 219 171 47 119 18 23 247 63 162 247 237 224 117 154 240 79 254 182 177 7 32 184 187 252 75 89 177 209 232 114 215 74 247 17 212 4 246 204 183 100 5 85 55 205 73 79 63 22 142 96 170 59 48 136 75 82 59 177 48 193 209 135 39 175 204 137 130 184 165 96 24 229 149 112 140 219 249 174 210 82 251 177 238 201 111 11 255 120 251 217 125 135 123 153 191 125 163 60 192 251 230 124 34 170 151 112 115 114 79 94 176 237 142 208 7 27 165 234 225 87 211 250 32 137 174 81 165 158 196 82 22 53 131 200 222 155 86 125 117 250 17 8 225 205 143 230 125 151 153 204 249 213 10 60 162 49 49 87 227 248 119 242 12 206 66 235 
83 161 25 189 25 219 8 83 110 220 70 26 214 167 21 90 77 219 234 198 138 230 206 82 129 117 4 68 43 46 236 142 137 162 39 91 231 125 252 232 94 0 250 149 156 178 223 60 232 82 185 193 96 15 75 234 133 252 178 113 250 190 73 88 137 135 201 125 103 73 181 110 185 35 245 126 86 32 192 25 207 32 192 84 173 22 113 200 249 116 203 161 2 228 32 242 90 57 71 76 34 165 250 142 135 44 125 254 141 88 128 153 12 47 71 168 247 98 8 148 228 199 149 251 201 9 58 3 4 159 233 239 159 250 148 240 209 3 219 61 200 196 231 101 165 101 150 228 201 91 216 245 79 220 89 168 217 150 96 52 144 160 247 142 102 177 76 59 159 144 87 98 143 203 189 37 165 172 244 49 168 105 168 148 65 155 94 208 186 241 88 45 5 38 184 83 0 48 232 23 247 187 56 150 106 213 201 128 17 235 171 183 30 244 66 25 194 236 238 153 242 132 234 149 107 24 117 100 244 225 48 46 227 108 200 0 226 74 212 31 243 10 1 157 178 100 108 43 218 183 79 46 11 182 224 21 203 93 118 233 202 43 238 37 106 139 77 201 126 147 166 170 82 240 63 12 237 33 239 114 146 228 202 181 141 238 1 84 44 223 3 11 11 117 232 167 148 0 16 24 
199 22 7 200 55 135 172 43 85 147 147 152 241 91 167 87 254 150 20 251 150 133 100 241 62 41 231 90 106 179 89 22 68 60 191 33 169 182 146 35 116 35 31 66 0 5 46 59 232 21 226 177 17 55 224 197 235 174 179 230 243 140 112 234 125 109 149 94 176 101 55 27 210 55 93 26 198 200 167 138 210 211 51 31 166 221 192 172 154 108 20 244 56 116 156 190 250 18 83 39 84 124 228 60 245 57 19 200 75 141 89 107 69 56 206 236 92 96 77 208 212 203 210 44 63 81 38 183 68 145 191 35 158 228 225 174 103 143 10 244 151 61 141 7 200 172 125 193 60 166 204 89 32 51 180 53 18 13 86 255 226 84 162 251 149 131 118 152 176 163 10 69 179 190 139 133 227 151 6 70 76 152 136 111 7 12 132 184 185 142 116 190 92 193 195 87 66 66 235 34 86 219 219 99 166 250 155 14 30 97 50 34 150 30 200 56 16 190 8 92 58 190 200 27 59 66 236 221 171 9 135 118 227 161 68 247 120 215 5 202 2 114 201 254 34 33 211 223 195 177 9 202 159 131 154 63 5 62 227 56 218 193 148 185 223 92 14 169 49 63 16 224 22 50 147 129 246 135 242 138 168 77 78 169 240 199 49 82 69 29 113 14 215 80 88 22 208 115 1 32 
218 25 5 121 226 10 88 84 28 58 109 98 72 251 161 162 51 113 214 123 128 70 94 8 168 160 28 179 64 80 229 5 123 77 44 188 239 96 223 30 156 32 140 142 42 33 200 93 114 105 209 226 64 35 114 205 87 152 39 184 182 90 130 255 26 194 205 210 196 157 241 136 124 35 151 54 214 41 140 129 180 151 106 176 12 27 117 6 236 31 195 78 187 249 160 183 193 98 48 226 234 42 86 58 198 42 213 132 213 121 181 182 2 227 233 13 109 150 46 90 109 31 54 157 214 149 6 212 119 20 157 21 231 109 214 219 130 28 143 158 174 123 11 166 99 53 149 32 234 252 102 114 228 127 201 204 143 150 125 255 69 192 91 147 69 208 56 19 182 227 13 172 233 149 86 247 223 117 183 18 11 182 229 245 88 39 196 3 110 101 205 224 49 78 179 131 139 186 70 140 108 102 151 215 15 49 93 81 126 139 151 10 88 42 115 140 210 254 111 108 252 104 190 30 70 167 237 13 66 147 198 235 171 141 117 70 167 182 233 93 73 95 125 49 90 193 216 223 89 238 17 44 192 8 23 98 137 177 81 91 241 194 129 219 124 64 238 35 57 140 194 194 71 217 177 175 152 227 219 149 245 223 244 110 66 173 162 83 4 85 38 146 32 177 63 2 229 103 75 147 
77 27 176 41 128 226 122 171 154 249 70 86 174 183 94 88 11 192 37 154 190 124 182 221 88 199 200 8 241 234 213 192 108 202 123 58 253 96 34 77 233 105 223 204 141 95 152 18 162 167 105 222 191 12 71 98 31 108 227 150 165 177 209 210 29 3 234 156 197 61 239 191 12 157 111 157 153 191 234 197 143 204 54 200 16 239 34 73 0 8 90 84 11 165 138 241 233 46 198 248 224 95 42 38 139 251 189 113 219 191 155 153 91 149 84 0 184 11 143 187 128 3 243 233 42 172 71 67 87 177 215 245 87 176 26 173 239 237 147 241 89 72 245 181 141 108 138 45 191 74 213 224 41 198 119 254 10 175 79 243 239 245 229 60 49 22 9 121 191 218 183 196 29 64 62 66 173 184 161 247 46 146 62 223 130 183 173 58 180 151 235 39 57 98 184 116 118 123 61 181 131 42 242 147 47 145 191 103 68 225 98 8 12 205 16 224 19 63 95 70 47 74 99 8 190 97 23 70 47 198 255 135 196 68 12 6 149 33 192 77 217 79 146 5 97 226 148 13 101 199 83 201 131 178 255 189 5 88 204 90 99 223 151 23 8 146 205 196 89 218 137 27 244 105 252 153 53 185 18 140 255 181 82 108 185 182 7 110 150 176 157 87 26 174 77 142 218 123 253 118 
131 162 97 250 29 153 103 106 145 58 210 133 105 114 36 215 216 61 194 69 250 210 83 230 92 26 105 20 191 103 99 195 25 99 146 18 221 71 154 32 124 77 27 33 44 103 145 177 232 49 121 103 184 36 182 174 50 13 50 208 65 190 200 84 37 4 98 138 187 217 94 100 255 218 55 135 207 251 97 162 242 121 116 255 88 16 141 88 163 111 241 235 231 233 244 208 174 109 26 139 64 184 123 222 33 201 108 225 218 149 91 84 252 253 251 51 99 253 162 139 184 38 239 141 57 78 175 224 189 134 1 60 242 76 185 53 234 2 3 84 214 159 73 108 17 165 86 43 96 83 187 240 120 27 113 220 192 86 193 44 89 55 97 198 92 253 224 17 98 109 67 10 74 128 241 149 54 89 204 16 215 121 161 46 235 54 194 3 3 105 241 91 138 104 128 80 3 52 183 28 146 243 118 43 190 160 27 117 117 1 166 10 80 217 28 238 25 96 41 40 139 240 8 22 88 1 168 3 113 87 7 251 129 122 226 222 186 103 145 180 213 133 45 64 84 218 243 216 11 127 237 116 222 81 207 4 204 234 31 7 45 208 152 89 55 235 209 76 199 61 26 251 95 205 166 219 106 228 240 147 200 124 87 14 134 246 11 206 237 11 45 131 191 5 50 220 189 47 137 157 
108 138 125 242 25 193 92 2 27 95 217 200 88 64 175 30 11 69 135 27 196 76 28 159 176 96 157 44 26 44 83 248 50 182 131 64 13 74 150 222 238 179 119 30 196 178 61 206 243 168 10 148 87 150 50 133 134 71 160 242 86 204 118 133 160 41 244 141 67 78 155 151 107 73 146 62 19 185 72 68 200 134 91 225 176 207 185 90 204 36 5 214 122 246 60 110 62 75 152 131 193 182 180 84 26 135 242 207 77 63 26 168 17 71 67 169 215 225 247 73 7 94 146 127 141 146 235 216 148 133 54 200 145 107 41 61 132 214 94 122 123 43 249 35 87 82 138 148 210 178 53 119 193 93 16 150 151 135 204 237 43 61 152 4 187 84 66 124 48 159 159 231 163 101 46 221 33 17 248 76 171 44 186 15 129 137 70 194 161 191 39 213 138 220 132 224 69 88 71 54 166 72 125 189 208 212 0 253 247 235 84 118 106 54 208 55 208 74 254 172 177 33 68 184 57 203 195 3 57 97 127 150 111 59 192 165 7 98 185 171 97 72 104 189 21 183 189 23 53 8 254 252 210 149 106 189 193 113 29 23 158 86 51 193 18 222 48 70 82 246 160 17 232 144 250 198 182 153 202 217 56 43 15 89 9 3 226 12 169 53 89 193 125 30 171 226 23 155 149 73 
184 120 252 84 19 44 211 60 84 195 63 162 97 27 249 107 96 83 245 206 121 129 65 171 221 163 47 31 7 217 182 85 66 209 22 159 107 130 187 197 248 29 100 157 57 64 132 219 222 109 232 43 186 188 155 125 198 204 7 160 105 255 92 19 246 231 54 24 119 251 122 9 169 143 128 239 71 3 120 81 139 58 6 74 243 77 48 222 65 129 122 142 197 119 79 42 222 163 163 231 191 255 215 178 111 1 221 195 19 202 156 116 112 160 150 84 172 158 200 119 84 170 209 17 164 168 87 67 2 237 167 53 203 247 155 101 82 91 193 63 38 254 185 237 148 136 223 112 109 22 43 240 10 48 85 80 140 250 60 6 104 174 136 42 36 73 142 204 91 133 117 139 7 8 151 99 0 219 42 199 191 29 32 240 104 249 75 116 8 213 197 26 26 204 143 237 81 95 120 143 145 103 65 208 62 78 254 127 186 127 191 129 41 27 112 31 120 238 254 164 157 161 188 40 32 49 4 167 218 160 33 86 253 234 108 54 84 58 182 233 204 94 230 197 52 120 227 39 65 247 181 9 213 198 231 215 128 195 47 127 72 115 81 200 165 244 64 228 208 51 134 72 61 95 231 187 102 157 65 173 203 253 183 203 55 172 14 208 68 108 87 158 33 66 207 141 147 110 3 3 
58 160 56 69 22 105 9 140 74 240 82 92 31 230 77 17 75 188 251 187 116 19 198 43 240 116 100 78 207 65 254 186 27 235 146 135 94 102 150 96 101 218 222 217 68 156 191 3 154 92 117 63 22 160 194 79 58 113 216 179 95 83 121 50 250 123 93 183 29 61 212 94 65 196 172 207 66 5 85 203 171 245 67 4 52 250 148 50 137 160 243 99 77 142 188 146 95 184 96 124 92 214 12 175 101 20 133 228 34 11 87 142 6 240 46 179 213 11 132 251 100 107 124 7 161 217 14 3 210 10 101 127 34 25 133 122 89 52 49 192 235 149 12 119 52 179 254 244 2 186 217 211 84 57 61 70 97 27 185 173 220 217 50 103 119 238 137 232 166 138 120 12 165 138 189 171 188 168 123 110 194 239 221 225 224 115 252 201 151 62 3 183 4 141 145 221 99 61 94 33 211 128 34 112 88 212 178 85 38 54 108 202 29 146 214 78 144 127 130 55 74 41 53 74 211 142 71 137 239 238 77 76 104 124 246 147 13 90 51 155 251 196 155 175 27 140 13 65 236 198 151 57 131 196 150 141 208 69 31 18 34 233 158 146 237 232 189 30 204 4 136 165 194 188 206 198 197 195 202 227 125 176 2 119 73 247 112 169 131 24 224 33 5 22 153 26 235 43 63 184 
155 186 248 156 3 133 206 183 34 32 85 91 202 166 141 152 164 170 9 197 116 112 81 93 158 93 134 13 234 173 68 10 132 100 204 168 71 135 99 41 58 139 245 210 91 14 254 69 156 197 171 10 44 182 60 111 247 167 172 146 112 214 148 188 142 234 77 240 20 42 84 196 22 237 243 112 185 81 30 37 58 48 156 160 50 80 103 254 24 218 84 210 7 14 246 117 193 52 192 157 245 214 107 49 189 44 151 92 107 216 181 225 133 212 36 174 14 168 154 179 7 224 198 244 54 189 52 221 38 43 112 214 111 243 110 24 55 50 41 191 249 10 139 32 134 151 141 92 73 36 159 54 206 159 74 33 134 75 20 157 196 181 164 196 12 233 38 32 141 229 241 192 236 78 103 139 67 98 29 212 106 46 61 46 117 1 40 129 125 32 95 93 164 187 163 143 83 32 91 242 198 47 55 136 203 14 19 201 198 30 30 59 249 45 59 67 2 237 167 59 165 164 220 196 204 38 182 94 204 1 213 54 234 247 66 62 30 177 85 131 23 177 214 188 126 137 98 30 127 74 16 120 134 64 85 123 70 220 37 89 0 242 91 147 2 37 91 11 110 159 246 97 60 5 142 124 130 169 122 103 243 2 171 95 166 90 144 42 26 199 56 170 118 92 183 177 21 160 202 23 
65 63 190 10 63 0 141 166 141 247 75 197 103 252 192 25 143 92 87 120 78 206 55 118 182 168 175 57 43 82 215 137 34 251 116 39 39 140 29 96 37 218 156 225 226 32 151 205 201 172 112 13 236 216 105 232 73 60 12 211 76 34 202 138 150 58 226 95 253 144 132 210 212 186 54 99 108 86 120 164 218 180 163 146 251 207 23 37 182 130 149 38 129 248 234 65 39 101 206 91 200 243 11 38 33 0 226 242 13 134 170 198 76 218 186 175 132 154 137 88 133 224 20 219 209 188 128 215 92 226 1 195 144 159 250 129 148 18 102 54 206 152 118 90 167 136 123 11 142 33 7 167 63 192 79 153 69 86 212 115 189 26 67 62 94 123 153 13 182 89 138 217 182 116 36 136 113 37 176 79 33 76 217 58 107 137 16 9 228 175 46 62 211 117 91 116 57 111 47 242 14 61 24 128 206 3 252 122 52 25 31 34 69 3 70 58 145 163 29 211 182 173 214 96 37 92 19 14 41 99 6 88 37 39 214 213 29 43 69 85 119 203 145 45 3 46 151 207 58 118 62 158 195 57 19 0 60 53 49 180 54 63 100 102 129 125 142 128 171 213 73 68 195 165 205 24 98 181 21 32 237 106 61 18 20 60 47 70 158 105 126 13 105 235 146 68 172 168 6 41 
128 234 78 109 159 14 157 138 107 128 5 86 50 231 225 216 176 156 112 91 213 97 194 194 201 80 216 27 46 17 7 119 165 80 157 248 147 110 199 43 37 119 178 152 145 85 241 152 159 67 31 103 105 132 197 122 94 84 125 19 141 31 88 18 33 241 126 14 39 46 20 164 152 131 99 15 147 28 54 249 234 23 131 145 224 57 78 222 49 224 203 83 83 57 195 163 252 179 56 215 228 180 76 157 204 138 95 227 191 164 120 164 152 2 230 2 196 234 39 150 73 221 8 4 7 201 14 210 62 128 21 122 81 105 55 189 202 117 239 59 157 85 126 65 177 235 142 226 156 254 22 73 175 49 125 77 50 54 2 70 240 63 91 31 247 181 156 173 153 45 91 63 182 152 18 119 62 185 196 88 241 221 228 159 105 198 114 87 91 232 103 168 26 216 83 240 92 1 69 21 65 153 235 25 145 211 250 238 69 86 208 140 74 239 89 66 129 130 47 73 10 71 5 159 194 50 69 18 10 179 248 155 203 160 231 238 183 112 255 79 209 169 250 167 47 155 60 215 254 79 251 76 200 187 163 212 242 55 121 176 137 53 126 234 62 44 150 233 174 213 233 66 231 154 138 209 40 76 87 9 233 20 32 136 27 172 11 238 177 206 54 240 95 237 159 168 162 36 65 47 
0 108 128 110 145 17 199 49 190 103 112 125 73 185 228 36 142 130 3 150 8 223 198 250 22 69 34 126 255 111 48 235 52 155 140 124 214 246 251 240 120 85 80 222 38 37 144 73 166 165 84 116 253 83 111 247 54 163 209 19 94 247 171 67 211 204 212 19 191 49 108 53 223 126 191 210 137 66 107 30 237 125 198 47 155 16 122 15 69 113 114 16 198 163 250 95 100 102 33 220 82 171 98 41 121 74 132 1 121 247 191 204 234 115 32 112 231 255 47 105 205 22 206 28 64 91 100 104 111 209 59 127 153 74 39 244 209 34 105 21 254 44 210 122 37 237 44 222 235 8 213 46 85 250 173 224 211 7 50 134 125 116 234 163 156 247 2 189 108 108 52 179 32 201 238 81 39 84 176 34 174 20 181 133 102 133 215 3 135 144 173 224 21 185 246 240 98 155 58 172 212 145 174 133 232 183 89 121 119 17 117 227 56 9 24 151 135 31 19 46 100 220 26 159 191 7 38 16 243 28 24 235 144 250 159 51 93 220 91 25 157 138 67 202 146 209 68 140 64 48 42 9 115 212 196 234 3 199 67 168 87 100 228 159 40 14 207 101 135 33 62 89 34 41 225 127 195 82 130 139 25 32 229 59 187 96 242 234 106 95 21 99 150 89 230 243 36 52 5 194 
111 110 72 98 141 85 25 169 211 118 25 188 155 87 10 109 68 105 235 199 123 56 100 230 185 229 101 13 13 214 11 242 28 172 195 92 102 117 177 240 203 35 83 72 77 62 97 70 23 213 248 168 191 186 248 220 200 239 171 21 107 91 167 158 150 193 245 111 54 243 114 254 178 67 118 87 183 59 180 111 59 142 97 181 188 77 153 235 201 94 254 52 196 43 162 110 230 151 39 193 131 54 36 120 144 189 203 16 98 183 201 143 184 122 110 24 252 90 14 187 198 28 167 145 162 174 195 9 19 21 160 125 216 166 143 9 109 121 154 156 213 27 105 79 151 131 103 246 7 71 32 245 198 16 237 86 140 76 212 24 37 34 170 201 186 171 122 87 82 95 43 35 152 205 92 87 223 144 147 122 99 126 151 65 210 34 26 168 11 109 155 66 37 168 139 205 179 173 175 10 70 87 197 204 52 55 106 78 152 136 59 201 154 101 59 70 241 58 117 177 166 121 226 48 26 142 140 179 74 20 244 203 82 73 177 191 48 191 91 221 203 85 167 14 52 102 211 173 43 64 69 153 229 216 111 137 12 188 245 160 8 72 18 66 125 29 56 37 20 207 246 171 127 222 31 111 183 232 41 29 136 28 211 136 80 242 10 246 4 25 14 190 115 177 209 22 207 187 160 38 
105 206 4 97 188 11 235 20 173 83 3 63 17 183 103 165 112 47 125 31 8 143 30 53 21 184 248 239 80 11 49 233 182 36 77 166 138 196 82 38 157 14 42 187 205 247 72 24 204 248 143 171 35 5 111 45 118 195 81 119 9 246 53 151 131 56 153 35 242 241 157 205 16 131 102 56 197 197 192 10 236 179 7 67 90 100 71 205 28 60 162 83 1 98 242 87 89 116 176 127 251 122 21 48 141 25 126 94 255 10 21 163 89 202 174 142 183 146 239 61 145 137 180 46 64 57 177 82 190 63 90 99 174 71 255 120 156 56 60 215 133 172 144 10 154 163 76 53 65 120 175 166 93 20 79 174 207 97 186 175 61 1 94 119 17 65 166 204 197 72 102 72 95 149 121 104 55 168 169 223 0 254 206 48 6 67 58 123 181 196 85 151 91 35 133 98 47 78 81 85 145 177 197 92 147 171 24 228 185 63 140 53 253 13 150 2 22 128 63 62 250 72 202 50 162 11 151 205 13 87 71 59 135 220 33 185 43 216 180 167 167 210 190 222 63 139 77 69 21 50 36 159 167 215 96 167 153 34 92 95 181 69 209 165 48 47 66 7 46 2 151 216 137 200 8 131 206 98 60 32 137 192 178 69 195 88 97 31 200 208 155 193 46 254 55 187 18 19 239 239 
165 19 7 160 232 137 48 204 179 120 171 188 252 148 177 217 86 178 19 193 184 126 30 154 128 108 193 167 183 241 242 24 151 242 77 39 74 125 254 96 245 183 226 64 245 21 233 2 105 207 191 182 240 146 171 147 180 118 183 142 167 47 17 44 12 135 177 148 58 12 60 232 156 5 40 213 253 171 34 105 2 150 172 37 248 118 11 84 208 3 96 155 104 55 21 208 13 186 122 15 61 158 176 11 177 76 199 163 155 190 35 182 44 239 36 55 89 144 6 132 223 253 5 243 132 111 197 174 160 115 242 194 221 155 35 114 59 115 5 209 87 182 181 144 236 194 109 20 154 74 99 203 230 75 238 193 131 65 235 110 208 154 95 211 161 107 94 197 66 98 43 136 185 252 160 159 76 247 208 227 67 11 236 211 239 213 99 43 235 20 77 184 162 23 10 106 17 118 38 171 207 1 128 239 74 246 172 140 83 119 149 205 221 58 103 65 1 131 172 89 70 79 181 50 32 210 59 176 182 36 70 204 232 56 78 47 145 13 160 255 9 40 4 249 239 65 157 192 37 61 16 116 27 92 233 135 81 180 58 204 23 222 132 209 152 239 219 111 22 169 70 159 119 243 101 143 1 135 86 246 98 235 216 164 243 162 177 93 61 163 78 231 189 10 170 98 228 14 113 216 
98 51 100 21 164 192 255 185 155 116 89 139 192 117 77 16 85 137 215 93 237 136 192 41 46 18 126 38 214 125 86 146 252 17 195 8 153 120 27 157 70 112 112 40 71 195 180 225 201 121 33 46 104 76 216 185 244 92 201 198 117 36 210 196 108 173 43 33 92 1 1 99 137 227 97 117 0 189 88 62 215 218 89 120 182 213 222 192 151 82 82 233 201 235 47 150 59 110 100 8 247 69 249 52 237 53 245 25 242 76 128 80 8 20 69 229 224 13 26 101 157 90 227 56 219 187 179 49 240 187 53 100 113 43 75 56 249 206 244 189 37 86 115 63 227 143 174 27 237 219 212 209 144 222 66 91 178 122 168 189 19 254 103 222 211 154 62 150 53 23 38 8 162 196 122 50 241 180 91 194 229 38 83 43 247 69 56 249 86 18 84 97 45 158 194 29 36 124 27 119 41 118 83 163 112 127 221 81 184 233 22 131 209 216 224 156 91 247 141 186 208 105 0 70 197 3 14 202 108 184 42 2 94 84 66 53 151 110 228 197 194 151 165 6 184 216 195 76 67 92 9 72 39 105 243 148 99 149 19 140 180 54 179 96 91 26 188 103 32 120 215 182 151 39 209 242 162 14 68 98 55 220 116 72 99 249 119 114 143 188 153 12 3 222 254 184 168 46 137 225 
18 135 253 75 189 255 98 239 151 98 171 7 191 223 149 101 141 0 210 8 210 224 103 241 97 152 83 51 206 250 113 74 117 130 159 173 190 137 32 167 160 188 63 98 100 205 53 69 172 104 77 127 179 105 70 228 214 76 249 249 84 228 60 74 82 80 5 4 34 44 211 191 196 4 73 156 173 14 28 144 200 24 48 255 187 191 254 141 107 226 57 49 194 86 177 139 176 219 119 119 111 79 66 226 12 34 17 220 35 10 18 239 234 248 195 175 112 74 87 147 39 66 91 3 161 183 153 178 151 10 61 46 47 92 54 182 126 254 223 75 76 41 223 9 24 240 78 184 92 114 25 159 19 84 167 152 119 111 188 106 15 197 158 82 233 186 119 227 37 129 251 17 179 212 74 136 92 232 24 66 7 160 11 88 53 1 100 24 207 230 226 89 33 244 227 11 38 209 205 18 6 145 172 85 221 113 29 17 190 200 106 116 248 58 246 103 151 47 220 171 46 131 211 39 212 128 85 128 109 9 0 235 43 23 60 63 84 106 30 79 69 120 140 118 183 170 162 115 65 199 85 119 30 176 86 125 49 79 57 218 70 202 215 21 155 252 241 248 159 37 22 231 249 224 198 113 204 86 215 37 57 178 24 167 38 213 53 3 62 74 218 64 57 124 27 57 94 38 20 168 
70 12 204 132 226 233 96 141 192 168 93 37 137 214 109 97 207 88 54 96 5 89 127 219 207 135 148 254 125 127 236 118 209 133 10 204 9 121 161 241 25 6 251 26 57 29 155 205 159 162 34 60 142 101 111 211 143 83 10 13 255 238 195 139 201 250 150 103 117 121 210 198 98 218 123 172 79 110 236 21 32 27 192 65 223 84 243 79 2 72 69 13 236 90 223 15 182 210 57 254 46 210 59 51 32 139 163 132 213 176 166 94 218 43 218 21 2 16 83 119 174 207 12 167 76 173 137 41 30 117 187 57 61 106 36 97 221 129 60 74 210 205 18 211 84 59 54 96 255 127 215 116 29 78 41 131 40 206 9 1 139 75 228 191 169 43 213 119 32 36 13 166 79 172 120 153 22 177 158 203 220 139 199 110 215 47 98 72 135 165 167 192 132 188 124 57 122 252 149 158 114 220 224 62 83 53 32 219 168 247 215 253 163 27 106 140 98 216 128 158 114 26 171 142 146 48 74 78 185 196 174 254 90 17 123 189 230 80 81 191 147 115 172 159 92 22 9 247 72 179 75 47 240 21 92 146 59 15 23 167 109 109 102 190 96 43 167 201 16 229 85 109 94 143 228 89 13 102 236 215 17 38 138 160 9 126 4 245 10 193 171 235 158 222 6 7 12 146 44 10 
218 220 114 14 145 178 70 210 192 242 91 83 67 155 7 156 197 61 233 222 132 174 206 195 84 255 213 0 231 174 210 42 75 29 241 202 180 67 156 179 124 162 158 147 104 121 136 201 45 58 83 118 51 62 72 215 152 184 29 210 120 232 97 206 108 145 26 200 80 172 172 163 74 94 252 192 7 40 214 207 72 94 140 229 158 218 224 206 113 241 36 164 71 166 160 160 67 30 52 49 236 84 63 75 49 14 191 2 169 16 185 87 31 143 219 82 77 232 96 81 232 146 52 159 221 81 88 72 219 173 137 44 17 163 28 83 57 154 45 128 213 153 248 9 184 182 135 229 201 210 142 7 4 131 147 234 193 82 81 110 57 39 95 226 70 1 13 98 106 234 143 99 19 43 93 140 29 188 217 200 153 254 50 153 205 172 137 175 123 15 83 185 103 114 255 123 19 214 216 32 205 231 44 210 235 46 174 137 86 135 25 32 69 214 22 174 75 246 96 19 148 242 38 209 108 120 177 30 0 138 70 55 105 119 78 246 230 10 180 167 105 1 143 24 86 192 1 239 135 71 94 64 147 98 145 95 80 31 188 243 150 133 31 76 70 131 59 247 139 39 55 143 96 17 130 213 83 38 186 3 136 137 205 94 0 199 94 11 27 81 106 35 92 48 43 10 109 244 60 252 
99 237 255 232 66 158 60 130 196 111 10 148 86 162 243 148 100 136 83 124 214 245 1 214 219 241 49 22 229 176 153 45 245 197 211 91 24 146 3 69 49 3 185 71 250 124 25 11 70 15 57 91 137 243 202 51 153 49 251 27 182 161 154 179 201 21 124 144 233 212 32 70 35 74 143 198 123 253 134 235 46 195 215 79 58 51 13 99 32 89 79 191 233 174 135 182 103 70 195 46 189 76 219 174 34 172 84 185 225 15 132 91 164 12 247 1 243 156 18 142 248 207 246 170 133 190 167 93 88 193 110 222 157 226 123 165 180 145 207 199 53 153 89 131 49 82 95 24 187 24 32 218 167 253 184 133 146 187 67 209 35 237 69 71 143 126 74 82 99 97 201 153 126 130 78 140 92 253 216 61 155 143 128 114 183 73 92 248 25 140 163 58 80 49 18 18 158 8 142 222 182 132 10 215 196 180 171 158 174 117 42 24 153 231 123 124 176 29 172 170 32 25 15 191 103 247 155 230 207 104 144 113 53 98 90 40 15 22 184 224 174 35 29 80 192 9 87 33 24 224 110 68 178 74 207 136 241 166 169 108 44 134 152 49 105 99 129 52 104 144 189 123 228 109 121 142 21 221 92 136 121 250 107 109 212 7 42 190 118 165 4 75 188 74 237 73 217 240 70 164 
214 10 1 151 216 188 5 121 162 75 212 218 90 211 107 206 144 56 106 137 124 94 116 44 135 157 217 223 14 111 114 32 98 108 205 90 19 121 138 186 110 60 5 62 68 211 54 15 237 197 213 16 141 56 193 183 150 101 162 28 142 74 205 79 19 158 105 239 28 10 208 248 129 150 56 221 190 98 147 215 244 150 180 124 48 155 178 147 240 140 145 39 227 231 31 218 241 137 29 124 123 217 159 220 228 67 182 222 80 232 75 206 171 147 78 244 238 239 17 105 157 248 238 41 148 176 48 104 4 19 49 42 185 76 191 14 158 41 196 106 130 205 38 157 28 165 237 161 77 157 164 224 166 147 1 73 42 11 200 162 85 37 236 32 93 205 247 53 183 50 173 169 221 121 236 236 79 178 215 171 215 11 52 161 18 67 17 176 44 98 174 48 235 168 151 135 239 195 17 249 56 69 183 194 232 84 101 98 74 163 85 57 20 162 136 83 233 242 104 133 34 28 171 185 206 130 122 134 247 150 211 4 40 73 44 222 43 199 89 168 23 97 175 115 139 202 106 159 52 135 76 241 149 161 135 229 7 157 221 70 254 173 6 251 143 40 82 36 47 56 143 102 190 211 45 130 196 236 160 45 250 234 6 28 12 89 10 94 157 223 8 238 139 114 114 137 117 201 114 189 
123 16 208 67 69 224 23 142 71 110 243 164 67 3 222 45 15 172 251 201 152 50 66 167 39 76 222 84 227 20 211 208 152 184 228 231 182 114 180 190 157 186 43 173 23 186 27 76 38 2 36 209 1 125 213 153 89 163 19 4 224 241 191 134 12 150 147 251 24 112 77 59 77 54 16 239 127 247 7 163 218 195 75 28 223 168 7 235 169 224 218 66 117 72 124 7 97 20 165 39 116 193 42 45 223 76 105 19 130 162 232 87 178 87 57 82 58 154 33 198 159 105 249 182 169 1 83 122 30 153 225 18 209 79 147 187 219 99 0 192 41 163 7 147 55 38 182 28 26 61 106 81 196 167 56 7 132 4 140 7 204 140 16 101 55 1 208 13 202 226 155 159 123 226 172 125 239 153 138 34 136 120 44 181 159 2 97 221 14 57 111 216 242 87 250 199 175 191 40 76 52 51 3 87 128 71 31 61 100 22 124 11 139 51 173 25 185 227 58 226 80 137 68 18 24 97 103 225 63 113 229 160 159 189 0 145 64 187 167 252 30 6 85 127 44 86 55 166 152 176 141 188 81 218 82 224 199 18 31 91 242 255 77 48 149 232 90 245 196 36 141 226 164 210 221 40 114 202 16 131 198 211 32 19 25 22 226 104 133 210 233 220 205 82 169 37 157 28 216 42 
19 108 26 22 125 224 220 171 101 117 128 218 203 178 187 144 177 35 60 210 221 9 143 12 218 80 64 166 64 193 67 217 53 121 147 193 52 154 26 179 13 64 209 208 45 183 40 218 32 235 168 71 84 31 215 148 32 226 92 220 4 63 99 169 51 53 67 10 78 103 94 230 115 19 73 143 118 72 46 154 110 84 110 239 116 124 138 28 167 241 67 239 116 255 0 67 20 134 113 26 85 174 114 236 158 215 50 63 45 207 148 120 164 72 213 241 196 137 112 75 120 99 62 6 21 103 226 78 224 86 100 24 209 217 28 110 150 114 210 7 219 179 35 27 201 174 38 117 204 172 80 202 154 34 149 73 113 224 208 115 159 140 101 45 72 79 37 20 100 206 114 16 7 92 163 44 229 109 170 165 21 78 243 64 21 20 144 225 15 211 148 90 90 16 188 129 68 120 85 133 15 210 89 130 57 50 220 82 1 111 166 167 38 216 34 86 242 35 119 246 119 166 244 170 25 202 177 59 76 188 115 106 159 101 209 132 250 157 149 54 35 155 101 163 135 176 163 180 56 54 145 175 50 195 185 12 226 162 140 132 233 131 73 106 29 113 32 62 208 5 152 128 86 217 46 194 193 64 62 1 239 52 39 53 199 144 171 39 191 128 148 131 161 53 157 46 144 221 143 217 
70 210 171 215 159 17 72 43 91 239 189 230 31 7 129 176 190 119 145 164 183 76 18 97 255 58 56 93 0 145 102 125 225 108 151 227 8 43 252 8 221 36 230 10 209 150 231 71 160 222 52 42 210 238 78 69 136 250 226 160 117 116 237 81 43 59 35 77 152 16 146 126 208 73 131 22 13 201 161 34 243 47 93 98 25 78 144 88 198 222 98 159 248 112 108 126 171 168 25 189 87 166 82 183 187 197 90 177 217 136 246 106 66 209 210 243 147 84 32 193 64 76 130 1 144 108 42 43 233 25 63 218 78 214 131 219 38 0 52 132 63 187 48 71 18 44 92 135 73 233 69 169 126 173 8 111 70 81 112 129 110 247 95 77 132 137 111 17 153 98 216 54 70 74 149 224 237 168 194 195 65 243 73 56 9 106 189 144 33 5 134 168 193 171 63 189 1 165 92 130 157 83 16 112 246 29 110 94 90 173 206 81 133 91 114 149 104 233 105 13 41 113 180 199 106 155 168 211 206 19 147 86 185 59 162 218 88 29 2 232 226 163 70 217 29 10 9 233 35 148 212 141 102 125 66 7 242 49 97 55 242 188 92 180 118 130 87 27 115 48 155 167 11 242 243 2 15 231 85 91 195 210 197 185 225 18 119 143 224 212 52 144 117 135 254 196 91 144 247 220 
80 63 127 195 96 2 157 117 101 217 160 20 207 10 6 57 161 22 156 136 188 235 231 135 96 91 195 176 240 205 74 196 245 51 247 99 102 60 11 218 39 202 48 60 207 166 93 180 174 115 249 25 15 224 67 195 186 34 241 157 189 162 23 124 108 242 75 175 167 6 7 216 91 161 79 250 75 13 147 210 17 15 214 107 95 26 16 237 139 195 209 181 75 117 40 171 189 102 195 208 170 201 87 23 11 70 67 118 204 167 112 60 209 212 123 165 55 1 22 172 220 38 171 32 33 175 67 250 238 117 167 238 247 238 196 64 62 160 84 217 217 220 187 154 246 168 47 240 28 253 28 169 180 51 199 6 199 185 49 17 9 9 62 48 23 219 22 251 253 153 204 75 251 20 62 147 137 117 60 116 152 118 236 139 27 210 108 142 198 249 186 151 21 9 209 191 145 250 21 239 79 24 241 243 185 183 191 208 144 34 232 88 50 212 76 251 25 235 228 224 165 217 165 53 27 93 168 195 237 178 137 197 60 6 13 250 155 45 7 249 22 151 124 197 115 127 5 161 183 102 117 37 236 192 188 146 34 237 11 99 180 106 57 36 204 73 102 135 41 222 222 181 32 188 63 226 225 224 223 36 252 43 104 133 36 22 197 87 50 161 66 199 109 140 238 181 8 202 68 195 
236 51 11 172 184 121 123 216 6 93 161 45 241 34 5 39 212 66 137 43 83 97 148 24 160 127 112 32 247 113 241 214 107 146 88 135 229 182 118 206 106 95 21 99 156 52 147 52 132 174 208 183 142 21 75 126 213 171 135 12 161 39 180 231 46 100 139 238 176 91 122 237 147 79 1 111 7 71 92 211 188 193 98 162 234 165 173 32 149 120 251 33 15 210 212 30 190 18 109 136 31 80 205 92 11 147 46 248 58 68 166 45 5 227 6 149 112 249 3 39 103 78 147 8 72 91 154 164 162 2 198 254 61 125 183 68 90 149 100 167 59 20 186 106 230 124 134 56 39 249 148 186 212 149 24 105 84 171 78 161 98 158 94 247 15 202 130 205 6 187 106 36 20 157 224 177 232 244 168 50 23 142 170 2 99 181 83 235 60 169 56 60 135 77 252 28 159 32 116 30 153 111 10 22 205 201 95 42 145 180 53 44 72 158 139 39 156 22 9 55 7 60 159 158 152 118 106 21 244 101 215 96 155 24 10 37 108 127 129 254 108 34 244 205 195 18 128 80 7 32 5 245 189 78 205 239 29 131 110 137 22 131 241 186 146 29 51 250 251 167 140 85 254 167 175 190 143 211 209 165 45 60 14 204 103 198 8 86 159 219 209 33 14 96 11 85 8 232 77 61 
129 40 201 86 209 172 44 166 180 200 198 79 149 208 235 100 12 139 153 251 165 230 90 132 227 230 108 89 132 224 32 150 7 236 128 42 108 151 52 46 59 216 167 118 199 70 101 102 180 135 200 7 183 12 211 90 157 251 94 237 143 109 115 171 148 218 249 248 87 209 143 254 43 237 187 65 76 4 68 122 103 161 220 162 93 181 2 77 69 137 39 57 176 247 16 39 48 218 123 233 27 195 5 189 140 238 75 217 171 116 80 71 46 193 31 243 32 73 177 3 225 119 16 102 111 230 189 176 227 212 79 37 63 212 94 19 102 194 159 102 108 252 80 118 16 207 215 35 135 48 166 36 124 173 97 156 84 163 67 238 182 176 190 211 75 107 97 170 194 83 255 15 24 6 14 174 22 180 77 89 27 210 170 89 27 19 98 2 232 148 106 139 176 86 14 28 199 242 216 39 167 136 179 252 54 249 80 152 71 86 201 190 98 152 132 74 200 145 91 193 178 34 249 44 218 175 135 39 60 208 137 53 30 73 2 86 78 61 223 220 171 158 146 122 230 232 254 158 138 15 147 0 58 181 186 123 58 161 115 29 50 109 60 122 46 126 54 69 232 58 131 33 74 116 242 180 47 43 222 253 106 117 83 232 9 182 115 32 219 21 24 37 47 49 187 158 223 15 149 240 
141 88 3 15 45 193 47 149 195 202 237 17 110 171 227 161 166 139 237 195 194 244 192 104 189 132 205 74 57 229 104 128 196 255 41 79 91 107 146 68 44 43 243 127 160 153 139 82 153 158 240 11 249 36 177 13 99 206 57 38 69 230 246 28 22 151 187 137 220 92 99 233 242 184 184 242 8 40 147 36 107 86 68 160 135 143 51 61 170 119 200 217 10 251 137 237 10 136 130 100 185 122 234 174 155 216 3 16 173 62 66 62 163 26 176 43 116 27 144 32 24 231 66 12 144 13 103 27 40 58 70 137 249 175 111 185 177 242 157 129 151 196 225 200 201 84 253 84 200 178 14 221 55 134 111 102 224 2 217 205 248 21 207 160 164 226 57 50 188 112 79 238 206 163 184 236 102 107 243 194 140 59 247 157 143 189 22 144 1 196 39 43 3 130 228 80 195 251 145 66 66 185 223 255 91 193 15 208 1 199 90 30 200 158 145 135 166 242 1 49 251 57 153 94 208 231 79 65 92 225 191 17 205 53 21 91 69 8 46 156 34 208 250 15 130 195 37 196 6 142 246 242 215 75 119 142 231 173 214 28 122 126 11 198 228 76 187 171 148 95 92 121 81 238 155 62 196 146 250 123 55 250 190 123 156 225 8 226 209 61 66 137 34 185 188 137 16 102 151 150 
80 173 227 143 23 137 4 82 149 243 90 213 191 157 33 115 82 226 149 131 21 253 90 47 94 122 28 132 215 235 115 197 130 220 9 5 251 9 254 244 254 206 139 250 40 222 230 130 2 56 102 153 59 87 232 183 53 169 113 220 196 67 21 223 50 211 23 3 134 214 81 204 5 11 214 17 250 39 215 81 179 202 195 75 204 178 178 200 176 47 4 188 92 214 69 141 102 122 84 179 62 88 197 129 181 146 131 66 187 223 186 136 109 128 244 193 79 118 130 11 213 242 29 74 41 13 205 119 40 185 10 59 173 247 33 188 19 75 218 183 245 109 88 207 56 66 64 36 76 10 30 40 174 219 4 174 178 78 116 68 127 120 127 195 91 28 47 36 41 30 35 149 47 59 121 204 29 248 241 156 75 216 78 198 67 210 0 17 127 2 1 157 116 159 253 116 207 45 181 98 254 244 165 7 242 176 228 42 35 138 77 80 213 71 220 141 154 192 90 155 25 146 61 41 13 22 202 117 145 148 124 29 154 179 169 51 197 52 99 143 83 224 157 105 113 191 142 39 189 139 91 115 7 100 240 145 84 197 46 239 41 183 76 254 6 69 119 65 48 47 188 164 179 227 40 14 168 168 46 57 180 29 72 194 209 226 225 124 81 149 115 10 32 0 237 173 73 144 87 90 
187 9 184 16 78 121 56 104 1 107 130 110 133 92 108 175 0 115 218 147 11 108 223 237 252 214 38 209 107 126 145 166 239 43 31 123 41 139 19 159 4 110 83 107 58 50 14 99 27 126 161 126 138 52 188 193 72 160 192 18 117 246 108 76 83 251 185 143 78 2 2 218 57 26 104 219 219 134 117 5 170 109 0 228 214 211 80 173 137 200 132 26 110 223 49 116 112 226 78 241 196 196 77 65 41 215 139 100 110 63 234 190 53 167 188 109 248 51 228 218 73 181 55 142 94 35 41 72 204 73 165 76 147 187 60 253 91 14 130 174 253 71 181 182 69 148 160 194 247 58 191 112 15 207 164 25 77 169 153 237 241 150 135 70 196 205 23 54 87 37 22 98 143 133 30 20 97 156 115 139 219 210 43 150 100 126 146 97 68 89 204 142 103 51 188 135 93 228 37 19 166 134 15 40 45 225 109 1 18 39 252 111 172 226 110 116 207 42 200 14 74 27 9 81 180 134 12 184 105 231 175 189 207 151 53 167 222 67 233 164 223 157 4 23 115 81 209 51 216 59 15 201 104 215 151 94 98 249 63 129 237 190 253 92 90 194 80 136 170 147 219 38 80 102 83 43 56 9 156 251 7 25 47 58 165 117 191 222 249 242 28 137 243 81 87 23 208 110 39 114 
153 185 139 174 237 234 177 82 1 241 23 243 229 44 240 8 9 221 201 249 255 219 108 121 130 136 5 22 184 2 131 14 180 158 65 101 63 146 230 52 216 241 138 68 249 221 26 219 156 248 253 214 254 27 247 248 163 75 78 130 154 232 44 4 2 40 69 114 205 196 185 122 196 241 60 21 203 146 116 93 103 172 162 158 125 26 133 175 93 130 124 131 254 135 234 251 139 64 222 254 31 233 244 204 206 217 118 143 228 180 199 52 113 226 2 120 5 64 222 70 184 21 213 64 109 71 133 156 88 207 86 49 190 106 93 209 252 145 128 218 203 172 219 8 194 131 99 141 29 245 201 100 188 236 162 226 111 144 196 142 112 187 243 50 49 173 189 50 88 2 162 29 8 225 120 130 99 117 14 5 77 161 16 177 114 239 42 144 138 202 112 121 220 238 254 42 0 28 219 151 234 18 36 129 36 186 102 73 91 162 75 7 29 172 121 215 225 7 183 115 72 93 81 7 162 78 190 64 180 30 129 166 185 170 77 45 166 161 108 6 178 240 98 187 22 126 205 123 17 26 143 179 48 178 47 222 204 197 125 157 212 26 117 10 205 179 102 73 22 253 84 97 113 73 154 74 191 127 211 72 11 17 251 119 202 47 210 166 97 58 129 104 232 122 128 105 46 19 183 255 
253 53 228 1 159 148 60 220 160 24 85 227 214 213 67 231 159 61 2 8 106 148 20 202 121 165 106 108 229 180 136 117 226 179 229 143 68 185 144 152 66 175 25 247 122 77 175 44 54 69 134 171 238 189 124 235 14 3 251 186 248 124 33 211 77 222 30 178 105 159 222 167 44 174 233 42 0 96 135 110 23 173 39 57 245 156 1 242 47 252 251 252 114 85 201 66 198 30 89 19 20 48 110 49 230 123 139 36 111 248 18 212 203 222 173 87 136 25 237 8 100 248 49 217 88 38 202 234 214 219 92 90 80 83 135 93 249 128 199 142 207 252 153 135 217 65 224 175 173 28 134 84 54 95 102 250 180 215 106 242 4 125 240 46 34 240 115 83 236 35 103 16 41 83 100 175 201 61 135 233 110 141 22 255 44 153 98 6 141 79 242 130 217 108 221 55 148 240 120 60 71 206 49 81 132 231 187 114 36 57 108 173 211 84 227 48 207 14 237 166 236 120 170 196 220 17 235 30 173 57 223 64 147 232 239 250 232 159 230 251 113 159 85 161 227 90 54 16 165 39 207 130 216 57 217 222 149 210 226 139 117 180 240 134 87 217 103 178 93 99 44 112 56 214 11 112 166 133 86 199 56 74 207 65 89 122 200 248 140 24 137 37 245 73 242 55 27 8 98 34 
236 27 215 250 2 70 86 192 36 190 141 124 16 224 183 139 119 35 192 59 74 76 169 149 52 225 47 122 104 223 167 242 156 175 45 192 85 87 253 58 102 238 33 87 179 82 77 10 59 29 7 206 86 212 10 130 58 98 237 120 196 197 0 201 118 8 119 235 188 113 202 133 115 251 91 129 171 6 90 99 172 78 229 218 56 26 116 149 16 182 117 88 186 34 51 79 128 12 252 162 188 252 131 73 83 207 131 34 128 102 165 65 211 159 164 135 121 132 175 118 189 195 15 67 207 95 9 45 196 164 6 14 223 96 241 48 15 80 225 97 184 217 248 74 182 248 139 252 160 124 130 204 73 115 2 97 141 226 74 11 74 185 219 86 172 5 220 224 174 104 188 103 221 198 25 38 95 66 225 98 53 105 183 64 189 172 152 217 123 20 190 144 24 49 196 164 171 84 12 1 56 254 94 92 118 151 209 126 214 99 239 224 192 179 20 121 32 88 23 212 33 93 44 101 56 246 9 29 101 179 72 60 182 249 13 103 12 179 232 250 33 69 253 159 202 193 98 32 122 94 200 121 8 38 94 50 178 238 242 235 97 139 89 57 47 67 18 176 38 130 38 65 74 206 82 199 218 253 104 220 212 166 243 241 183 213 26 158 140 3 199 54 39 69 8 159 171 195 181 96 
76 108 83 252 89 232 56 127 121 206 240 86 53 24 224 99 182 212 41 81 208 28 207 37 64 71 27 22 50 97 61 159 7 217 54 210 84 122 245 239 46 156 192 53 165 156 214 248 142 137 83 244 134 32 83 225 51 251 90 72 205 5 244 148 221 49 152 108 69 108 210 64 129 208 162 34 44 26 31 216 198 94 95 47 180 249 155 146 136 200 143 218 131 151 32 104 88 220 65 113 51 166 23 154 250 208 91 197 211 122 1 42 230 185 23 169 100 142 239 94 200 21 128 119 93 255 10 66 0 66 249 138 39 15 12 36 34 5 182 197 161 164 197 23 119 4 65 11 157 199 151 112 122 76 246 197 97 37 250 75 92 204 136 95 40 145 249 7 128 215 122 203 159 128 178 198 0 166 166 252 104 140 218 238 38 212 185 108 153 242 55 171 244 224 181 151 62 19 37 106 157 175 110 126 211 247 18 95 9 7 14 37 204 197 2 1 85 21 145 21 13 76 11 137 80 232 73 219 113 126 217 118 255 243 92 135 71 239 43 12 26 143 65 45 209 90 85 208 141 119 70 104 196 29 188 13 249 74 13 210 202 184 93 83 48 13 10 141 3 81 71 243 188 166 6 190 127 51 28 132 89 98 159 12 198 75 147 97 118 112 198 37 80 170 249 40 184 99 64 57 
13 6 172 60 118 180 38 125 223 57 158 68 62 62 102 170 27 191 216 170 79 192 63 123 12 60 245 29 29 95 200 51 111 245 162 16 209 33 106 20 248 82 37 57 198 115 97 233 204 98 211 19 13 164 63 125 4 87 152 92 233 103 105 34 49 5 115 151 84 85 151 43 210 103 247 138 120 105 89 114 223 27 204 193 55 131 141 211 66 225 43 10 163 229 234 174 89 32 101 248 135 185 120 105 118 97 93 96 220 136 21 236 95 209 10 223 85 196 242 36 206 196 246 82 212 64 20 128 241 45 194 92 242 179 212 119 235 38 159 227 123 57 95 0 81 110 214 147 239 209 54 24 174 230 65 90 3 224 175 64 0 19 208 234 30 172 114 252 57 160 5 58 220 226 253 86 191 217 120 5 142 17 33 88 236 49 84 74 184 45 131 150 143 188 216 203 146 13 27 161 105 181 215 142 136 237 184 149 176 250 56 95 185 236 122 140 144 139 118 75 124 143 87 40 165 15 33 38 214 60 151 14 130 79 92 6 5 192 88 101 45 185 93 198 249 202 11 92 160 222 241 133 213 110 244 161 74 244 245 36 115 163 174 234 140 85 221 203 221 197 165 112 61 254 49 100 213 19 154 110 38 17 11 31 78 50 35 167 134 83 154 237 240 168 40 222 144 175 162 4 
151 98 103 91 232 177 250 97 213 47 240 109 41 12 13 65 108 67 170 226 98 20 89 168 213 181 204 145 148 69 243 218 188 1 101 209 54 186 1 229 129 135 213 255 178 183 63 21 185 9 81 252 229 32 122 125 171 49 99 172 163 255 24 117 211 9 104 120 48 1 142 23 98 129 17 204 200 250 232 192 188 237 226 154 24 93 69 149 248 132 181 214 194 197 88 252 100 226 56 248 221 111 233 31 255 134 107 125 115 189 81 109 253 85 35 103 1 180 2 24 71 21 138 184 251 127 253 152 248 243 157 250 70 234 89 38 224 255 172 186 187 232 195 66 5 170 222 8 170 13 248 46 29 78 170 249 85 21 77 112 22 166 95 38 113 91 39 84 142 82 156 42 169 99 132 103 91 85 217 40 27 81 112 253 4 150 221 66 217 111 145 173 70 98 69 35 104 171 156 208 144 233 3 118 68 22 220 5 135 188 221 109 91 102 178 176 131 85 234 59 141 117 16 118 16 144 24 154 51 192 254 195 110 42 169 70 149 233 21 68 18 73 177 127 113 54 6 109 35 244 154 139 123 16 20 244 253 150 160 50 216 132 149 84 177 127 86 64 162 197 118 75 131 99 31 7 104 168 180 92 106 217 181 219 171 38 227 78 148 221 165 148 97 222 171 172 224 79 209 15 
117 144 70 67 98 113 237 173 69 163 3 167 226 109 3 210 35 160 198 173 93 205 239 103 213 181 134 242 131 1 227 89 22 52 206 83 56 221 228 24 18 17 61 115 19 24 75 25 237 103 5 57 225 206 69 84 61 243 111 79 35 255 84 199 139 151 86 164 139 14 204 241 215 217 168 235 132 67 87 87 17 98 232 25 167 73 113 3 160 127 174 235 71 176 236 0 222 163 37 94 230 108 109 223 154 227 140 52 189 84 237 53 149 120 183 118 56 164 57 27 6 65 139 237 119 124 114 173 23 62 133 168 206 95 142 139 101 23 51 121 70 181 214 91 131 147 185 119 26 73 102 69 120 33 78 125 59 203 176 117 60 82 188 170 205 79 249 156 63 93 228 224 168 204 218 112 226 154 55 69 215 158 192 40 252 7 62 197 28 5 108 1 87 198 19 141 106 164 116 187 49 157 230 145 106 3 192 29 187 116 121 7 247 13 14 109 157 219 164 234 161 146 111 248 111 130 210 121 46 198 200 144 65 191 130 181 20 193 82 9 21 11 199 230 0 253 26 187 96 133 200 23 83 219 129 3 141 110 65 149 159 30 189 194 121 171 0 116 46 109 86 220 248 70 105 10 124 214 170 187 79 237 242 114 184 70 105 202 184 114 168 10 71 18 26 250 225 73 168 245 
65 113 149 64 109 13 166 154 242 255 135 20 113 252 106 35 90 60 241 244 248 118 78 255 174 11 169 223 128 130 193 97 212 52 215 219 122 72 200 191 235 226 121 111 206 152 119 83 193 38 223 42 85 98 124 157 90 114 48 26 94 60 149 223 112 30 227 85 42 223 21 160 238 230 71 116 111 170 99 42 115 106 252 19 216 30 122 12 213 173 120 82 131 96 106 152 156 151 131 87 130 187 214 102 131 115 187 202 91 27 116 207 250 114 16 88 136 146 144 115 167 38 73 48 248 215 137 180 224 7 125 137 140 194 82 56 50 241 155 26 154 209 243 107 222 164 227 160 110 167 6 250 86 67 106 92 196 135 58 90 196 214 154 146 79 221 211 63 132 200 176 11 53 182 40 37 165 106 60 148 144 67 35 203 108 110 165 125 239 90 197 178 209 108 162 27 211 245 159 162 0 97 194 70 51 177 90 38 217 43 229 219 248 79 48 11 113 14 192 59 130 55 113 229 142 50 93 203 33 240 255 138 47 34 153 114 156 169 210 149 1 78 164 30 174 180 117 229 235 138 132 64 132 5 135 27 132 142 147 75 64 184 59 31 151 116 252 56 121 136 217 155 166 61 66 5 184 88 58 127 100 76 185 49 253 174 79 123 57 233 11 66 56 51 155 136 194 192 180 64 
209 53 181 96 79 95 135 55 32 37 199 1 99 187 39 185 245 25 17 46 55 172 142 89 18 75 103 238 56 108 138 49 172 152 174 11 132 28 58 93 238 2 99 148 113 63 149 126 117 46 21 92 6 61 228 56 213 231 230 120 127 226 67 180 18 153 14 197 206 220 37 30 40 214 88 96 21 64 205 40 132 213 162 43 44 6 213 134 137 238 97 79 33 136 170 112 12 32 27 181 179 7 14 35 216 139 236 140 215 38 149 96 43 246 2 198 51 109 41 235 54 74 32 154 166 200 134 14 161 21 31 4 189 5 190 20 5 8 104 64 63 90 182 206 113 121 123 83 163 220 167 17 229 226 107 130 148 9 158 53 218 96 96 217 116 63 253 152 184 53 20 166 214 66 248 25 94 70 86 251 2 186 24 157 158 158 138 47 117 178 187 142 189 233 39 93 95 27 146 87 248 250 55 227 35 71 34 233 250 70 219 229 218 111 68 58 103 102 196 200 208 45 165 192 85 153 187 183 6 2 71 250 205 63 26 34 174 209 254 232 78 95 81 58 178 99 243 142 74 34 99 118 46 225 36 116 167 86 102 16 241 93 226 41 63 236 6 137 0 73 82 188 97 122 2 33 19 254 237 65 78 186 173 96 22 54 0 82 189 9 110 144 169 146 44 139 87 233 65 64 
160 21 231 13 59 128 52 195 132 168 249 252 123 22 235 175 16 148 0 1 158 155 28 94 181 11 237 201 28 30 19 112 22 159 133 132 229 87 48 71 141 201 225 103 218 31 100 138 164 99 238 42 82 242 184 163 157 46 237 138 151 116 198 65 235 78 243 200 102 233 62 214 182 201 107 41 114 187 98 26 91 11 144 116 226 248 138 134 234 101 243 119 206 209 161 218 166 137 251 130 198 28 165 152 136 16 96 234 76 211 43 134 188 244 174 136 85 147 217 48 35 23 201 56 203 31 235 100 207 186 99 90 14 218 175 180 138 6 135 84 110 80 8 247 80 135 18 13 179 173 239 201 208 171 53 116 150 68 237 6 239 72 244 247 69 10 162 83 69 19 170 13 226 24 65 149 157 42 131 172 4 45 18 120 121 139 0 211 53 42 239 233 141 155 118 2 115 148 199 156 63 160 143 189 176 21 30 135 45 70 200 13 81 251 139 101 167 30 242 255 178 183 56 52 49 27 177 34 160 95 102 184 2 19 255 13 222 45 231 246 136 68 170 215 161 255 162 185 225 204 210 157 20 213 18 16 99 48 109 0 213 85 199 206 22 214 194 164 118 74 227 9 52 138 241 179 253 33 158 156 176 253 106 88 100 107 195 165 172 66 113 68 26 93 49 7 1 79 160 44 
127 83 91 233 187 130 101 72 108 73 201 53 155 25 128 213 169 96 148 26 147 185 134 149 117 95 238 139 77 232 97 74 2 48 151 189 165 147 205 63 246 95 105 173 42 136 221 191 235 158 205 152 161 253 116 155 240 68 68 129 129 8 204 168 6 201 223 174 120 36 243 63 163 75 199 43 229 179 73 188 51 12 182 70 92 118 3 255 146 242 124 17 38 22 171 238 147 6 123 228 190 159 157 241 124 245 43 216 85 0 139 116 136 146 151 77 78 140 250 105 99 82 221 101 195 124 196 196 177 207 178 134 254 107 148 252 136 69 220 220 1 216 109 145 242 24 183 212 255 168 35 128 108 76 177 162 224 161 223 208 105 12 206 189 193 240 160 10 208 36 36 94 113 164 181 184 121 134 95 4 246 48 68 237 180 201 62 243 6 237 198 189 194 165 21 176 142 150 136 192 90 120 73 134 46 202 44 147 38 196 215 5 187 142 38 88 67 175 206 126 187 200 64 49 197 130 208 136 237 197 22 200 48 43 148 125 191 180 154 202 0 187 103 254 214 40 145 103 34 232 167 107 138 154 20 212 121 139 70 108 102 229 16 202 90 35 77 107 172 200 199 5 15 81 87 23 208 104 77 197 88 90 17 227 248 203 11 80 230 169 193 133 130 94 63 109 222 74 188 120 
126 112 122 235 92 111 238 122 47 181 33 24 237 239 86 14 143 195 237 74 20 194 135 250 200 152 107 90 198 134 41 202 188 19 125 36 238 254 117 76 126 118 214 9 234 141 189 19 214 235 130 109 12 191 225 244 193 252 92 57 26 193 219 140 238 24 150 89 206 228 52 184 66 21 52 63 86 30 141 26 85 169 145 94 213 137 23 155 243 240 217 177 224 226 27 228 157 233 142 50 2 11 115 227 5 249 3 99 57 137 15 77 149 102 228 200 119 6 113 22 232 221 172 106 34 209 49 250 80 237 44 86 148 89 122 248 78 138 11 28 156 182 139 210 29 139 65 81 251 32 55 142 40 44 155 13 231 118 101 247 143 140 58 110 139 184 144 29 166 48 20 19 134 141 72 209 117 126 113 161 104 190 176 42 57 67 111 66 56 185 254 3 226 46 126 33 240 15 255 122 148 83 229 239 255 246 144 115 38 169 60 97 198 200 37 19 165 140 239 176 28 130 70 69 210 59 194 24 202 69 13 57 160 91 71 89 15 217 169 223 183 115 105 57 29 37 222 112 244 109 229 0 155 185 131 230 230 27 204 250 33 68 3 127 82 176 2 249 191 30 220 62 176 67 194 208 118 191 35 106 172 80 23 217 189 70 254 13 167 55 100 112 254 243 41 119 51 186 222 118 
22 173 113 184 154 131 13 207 216 125 60 41 87 156 79 228 139 17 255 227 155 245 84 34 104 58 198 70 202 226 163 121 28 110 176 116 252 154 19 221 76 71 112 212 124 185 83 201 12 2 206 144 76 190 99 183 103 1 35 23 159 142 24 169 218 74 225 155 94 240 156 163 217 5 9 148 164 15 235 47 72 2 178 59 66 251 88 216 3 48 137 16 59 39 6 175 87 39 75 84 72 237 112 201 135 159 77 144 86 6 225 190 72 247 245 13 3 18 252 44 69 176 62 89 37 22 53 50 156 239 55 200 67 249 86 246 94 254 133 241 26 6 252 31 19 203 221 45 25 109 23 92 52 103 138 27 229 194 109 219 175 136 237 31 214 124 23 210 103 8 248 222 120 119 3 250 177 100 179 195 12 114 113 15 216 62 183 126 4 146 118 82 154 220 181 128 138 222 123 6 169 166 240 128 249 193 191 246 43 172 190 249 98 139 209 238 58 29 12 169 9 240 23 62 101 209 215 19 230 135 74 58 44 193 179 254 36 76 248 188 136 137 72 245 165 31 0 160 97 237 208 197 124 67 26 71 22 81 154 2 114 223 76 21 249 63 138 129 130 128 117 244 208 229 151 223 92 149 199 206 85 148 76 249 230 242 69 22 183 67 72 114 182 79 73 64 23 10 189 49 
153 198 0 69 12 167 244 224 16 87 236 32 31 252 200 110 206 103 97 83 79 142 39 141 59 61 8 99 142 8 148 53 244 132 95 87 67 183 167 32 72 204 55 61 198 11 139 75 188 9 53 166 231 28 128 123 136 18 82 37 103 35 87 182 24 35 91 211 125 253 248 198 140 92 114 206 82 171 223 185 56 64 139 181 134 212 154 100 37 55 239 46 169 65 77 219 143 12 188 97 194 96 47 250 100 111 99 122 204 195 10 224 203 116 41 43 52 158 191 111 155 18 167 39 92 76 191 205 224 166 74 168 27 203 147 230 89 109 212 234 59 59 85 231 252 13 216 174 249 98 53 196 113 13 66 184 137 43 245 179 147 88 205 81 143 35 109 175 242 191 139 198 167 251 8 247 84 115 96 230 222 8 69 140 47 143 135 136 55 198 55 182 48 140 12 3 39 81 5 128 184 203 80 181 25 234 107 55 90 15 137 125 234 121 55 239 94 255 63 64 110 5 205 254 64 169 208 103 234 61 163 127 50 250 237 95 151 242 198 208 150 71 27 24 38 155 83 20 133 199 50 135 54 208 254 178 75 23 225 37 224 207 143 212 232 180 40 109 44 250 96 233 144 132 221 98 152 87 225 36 44 78 40 6 152 15 20 251 215 61 7 228 17 240 16 168 98 98 203 135 
221 235 130 171 209 47 152 0 74 150 40 70 219 252 233 101 155 170 85 0 110 133 10 76 134 134 112 35 41 106 156 84 180 171 116 62 224 174 20 157 68 62 113 163 27 57 60 75 72 137 10 234 151 86 177 6 70 122 245 108 196 54 100 125 184 35 126 201 69 107 25 223 140 56 4 98 115 109 235 96 165 149 122 224 219 24 197 186 89 181 232 172 187 44 234 169 241 59 232 116 137 204 111 110 44 109 41 173 108 0 188 77 189 180 239 11 192 52 15 15 200 30 145 10 151 182 248 129 104 220 249 105 51 59 221 243 44 196 40 169 140 91 120 186 149 207 175 146 208 16 84 174 154 156 55 175 222 59 84 173 36 236 250 205 203 31 45 22 146 36 72 128 94 228 231 78 55 207 3 158 147 21 95 63 215 25 35 194 27 35 199 212 45 84 51 203 217 224 37 126 104 119 210 90 103 4 208 178 170 154 51 87 144 171 247 105 135 124 158 108 211 213 25 158 140 253 236 136 230 230 142 212 182 164 14 94 49 35 252 142 246 26 135 228 79 59 227 212 179 173 238 213 144 187 18 181 72 206 109 47 121 152 47 191 130 147 68 181 67 170 52 137 36 53 71 110 88 43 236 41 99 147 91 36 217 60 122 190 105 174 253 230 27 96 210 232 214 44 188 134 
37 255 62 75 58 213 186 28 52 229 218 16 157 24 47 130 55 192 24 100 248 135 230 213 83 165 61 246 185 87 189 250 96 140 226 125 67 225 41 23 106 207 117 48 107 35 176 22 49 175 181 76 252 64 110 38 169 208 57 146 52 252 145 57 123 184 234 199 68 65 220 134 130 83 132 50 212 157 40 9 79 114 25 33 125 193 222 254 165 71 142 100 77 3 126 106 254 234 28 208 71 221 27 146 4 216 209 189 225 108 221 130 25 111 12 137 132 242 126 136 208 115 4 19 14 84 205 182 113 140 66 65 83 157 46 99 121 198 34 122 152 121 24 170 24 15 86 44 23 187 149 233 177 188 99 72 127 215 198 68 93 5 34 193 113 105 92 32 105 132 64 17 3 172 32 168 211 186 190 180 65 4 109 76 209 139 114 170 167 117 176 61 74 189 133 249 168 41 239 242 90 124 243 41 42 237 63 165 210 217 14 198 7 181 76 215 182 70 250 226 142 20 213 200 190 28 50 144 0 197 45 0 214 21 2 106 19 37 187 201 158 210 12 13 115 182 123 178 234 87 195 151 60 157 123 14 67 138 243 47 129 37 95 115 100 183 55 126 200 58 221 59 190 15 129 46 140 239 66 6 245 36 149 114 186 249 235 54 96 111 142 126 52 49 204 114 141 202 88 10 
81 22 237 36 186 246 52 212 90 72 232 251 93 23 56 27 15 14 109 105 158 51 204 36 32 210 190 38 215 182 46 185 180 159 51 171 27 241 239 165 230 170 183 184 172 150 115 57 67 198 72 207 131 62 117 202 77 238 123 182 204 228 129 48 251 191 246 249 104 103 120 73 55 251 245 102 105 11 16 116 95 8 198 143 153 248 81 23 196 110 76 75 244 186 25 26 46 93 128 53 41 192 152 105 85 37 235 44 29 221 213 118 105 187 45 210 104 202 39 180 140 59 121 13 214 161 189 29 83 97 23 136 231 99 23 173 73 14 225 51 79 116 139 228 108 201 198 191 119 26 193 72 173 59 74 35 250 2 55 225 116 178 4 26 40 186 189 188 26 160 30 162 135 56 250 105 109 25 217 127 78 81 229 124 48 88 7 182 232 67 77 15 152 58 143 18 119 44 82 63 208 193 236 162 78 145 233 171 118 147 174 57 117 216 92 248 28 121 247 237 41 206 200 79 200 224 255 153 89 33 157 221 116 91 145 91 42 231 33 82 142 31 140 22 117 21 238 99 121 134 99 241 68 9 111 72 11 140 158 214 88 1 103 63 13 85 86 244 166 162 107 7 190 165 189 62 212 114 98 102 80 102 147 233 193 94 12 163 105 38 178 242 251 53 120 12 163 151 131 150 
71 42 141 114 13 13 135 216 29 86 130 168 168 3 207 254 41 52 101 7 234 151 132 20 202 35 152 237 63 9 96 104 151 231 79 58 131 63 51 12 213 41 20 210 137 68 95 88 2 242 68 29 151 197 92 101 78 52 143 138 231 147 53 147 29 66 123 7 40 36 8 4 134 82 225 139 251 17 138 30 215 2 111 141 119 153 130 13 14 208 36 138 166 29 73 62 97 161 215 131 5 162 80 229 183 59 177 124 7 82 154 121 45 203 174 254 146 251 61 51 147 96 33 150 129 143 229 146 236 109 45 84 33 162 81 218 241 75 76 76 180 239 213 144 142 181 203 25 241 212 214 255 99 74 76 85 130 209 81 183 69 15 67 34 132 13 85 8 187 234 121 164 11 209 132 140 129 40 140 133 155 10 149 154 8 248 109 112 176 203 213 212 244 237 225 150 55 201 162 154 157 128 2 44 18 222 238 148 143 140 187 234 152 135 194 44 10 208 78 142 19 102 185 17 130 113 209 87 65 192 128 182 31 117 173 139 211 255 93 209 62 73 30 242 241 49 165 220 239 60 182 88 180 136 68 151 118 2 218 14 170 216 57 133 202 50 67 106 86 29 23 106 25 199 126 67 173 242 134 211 65 163 108 117 154 26 191 142 88 7 195 99 123 251 20 46 37 29 139 112 
161 30 101 136 165 111 162 133 212 177 172 57 135 109 57 142 205 5 114 30 177 234 85 253 187 16 88 217 185 159 79 70 190 236 143 83 108 167 84 97 111 86 96 53 74 1 229 75 86 47 165 109 7 18 88 133 114 255 78 176 12 33 85 147 181 109 221 242 245 216 90 126 133 200 234 239 17 201 56 83 60 130 160 166 229 231 148 162 168 176 62 216 168 9 102 0 140 139 151 142 200 107 125 134 30 241 146 144 100 44 250 79 135 229 170 239 208 209 208 253 102 10 111 124 21 192 74 53 77 44 4 78 110 198 133 30 66 184 160 64 203 146 242 230 64 63 13 112 82 56 214 62 179 247 43 194 217 175 201 217 0 58 109 91 110 83 58 240 250 5 91 38 207 99 233 193 110 122 15 83 242 132 108 12 152 95 184 210 126 61 171 148 171 156 26 220 80 121 100 164 77 192 12 107 247 8 167 136 25 125 249 189 57 29 91 15 28 40 95 213 140 209 183 16 88 58 83 250 157 159 202 226 68 210 251 54 204 231 244 226 73 48 19 216 173 108 106 240 71 59 104 243 137 213 182 242 14 252 96 221 220 47 53 81 230 33 112 176 213 105 152 119 7 123 164 204 216 215 99 87 33 128 27 83 255 176 113 229 214 202 136 172 149 144 109 153 59 150 179 1 
154 246 90 240 90 70 246 193 66 199 12 235 179 223 192 30 117 202 173 143 183 140 21 144 80 42 58 99 75 25 11 80 163 247 3 245 75 121 79 222 113 165 47 85 4 65 158 123 116 139 53 152 185 42 77 176 150 101 100 87 31 147 194 197 121 210 91 45 225 252 248 75 239 215 146 61 28 140 254 147 131 91 208 169 228 140 121 53 238 169 178 28 190 234 30 138 163 241 42 65 36 183 57 49 68 199 254 73 4 170 40 142 42 162 69 106 65 155 224 70 225 94 237 91 48 8 104 196 169 186 56 216 28 147 89 184 246 219 58 36 195 129 100 147 241 200 93 130 215 61 204 12 246 236 221 187 126 211 231 158 20 151 77 155 210 118 162 7 143 125 16 116 97 251 250 202 97 53 224 154 174 91 131 174 181 187 74 229 175 53 229 62 106 239 48 50 77 74 90 71 151 20 70 226 231 255 49 92 1 81 150 89 207 222 78 85 166 51 252 128 203 21 168 204 54 42 170 68 149 245 202 159 148 8 165 21 92 116 83 113 89 133 70 104 65 172 117 41 82 189 186 53 219 90 121 113 253 175 131 121 179 97 58 56 16 192 245 182 200 68 166 48 242 55 186 110 12 175 64 81 64 191 78 172 229 238 160 84 73 232 131 123 174 116 241 57 146 166 254 108 
52 86 115 194 83 209 184 20 57 205 247 246 248 163 126 140 244 184 101 159 161 60 113 239 142 24 57 203 163 33 135 224 167 146 1 79 4 185 9 2 207 240 225 63 3 207 19 125 13 160 16 119 142 19 23 128 92 52 88 22 202 153 90 185 41 224 154 254 142 89 117 223 214 255 71 85 232 173 213 41 58 142 232 6 151 214 59 212 31 175 151 65 143 118 61 160 194 40 132 247 120 23 195 83 87 226 113 95 47 163 139 53 130 106 54 116 68 235 166 147 223 115 62 117 122 33 249 61 123 82 8 99 74 93 189 8 88 129 167 134 97 27 255 76 238 28 66 233 29 187 32 102 164 103 149 217 20 0 86 55 91 70 110 106 141 146 41 163 228 196 49 242 5 124 247 20 132 141 84 140 171 174 113 245 119 115 228 150 228 124 27 55 106 237 254 51 200 29 208 207 0 147 86 202 163 46 60 53 78 163 180 133 117 45 96 231 95 127 114 211 114 254 18 228 177 45 0 231 131 104 122 50 182 214 96 55 195 153 150 88 84 71 170 253 3 158 182 228 101 115 136 185 71 236 1 231 55 239 187 173 71 218 238 116 13 117 149 96 238 37 204 37 157 98 125 28 222 106 59 150 144 55 110 112 234 175 177 231 5 28 120 174 154 219 246 62 14 88 62 110 
171 58 168 67 49 218 118 9 141 250 183 162 232 180 108 31 227 176 234 141 33 154 127 17 7 211 88 56 191 103 162 136 131 64 240 91 24 153 221 237 152 181 242 179 117 208 202 238 187 86 115 129 149 83 24 255 19 42 221 9 42 139 11 215 253 159 109 20 90 133 250 239 136 2 179 111 64 116 207 6 249 8 22 106 105 45 139 160 72 73 77 89 87 170 191 130 161 191 231 23 0 136 20 56 228 75 196 126 80 137 196 143 37 48 153 240 163 18 31 27 45 150 112 210 76 173 7 178 247 8 38 11 18 137 116 239 52 247 235 137 173 245 241 176 200 53 197 188 77 233 29 153 74 122 14 26 19 125 43 143 136 227 241 153 150 111 99 61 1 110 241 56 96 162 158 146 105 127 98 118 110 154 205 65 40 94 238 217 180 0 115 64 219 182 17 105 150 36 39 74 209 23 158 50 112 118 19 93 144 118 56 198 15 12 119 60 78 168 217 184 53 32 39 238 120 234 79 34 25 143 8 61 47 92 185 32 229 91 151 56 197 130 14 82 55 41 99 177 68 194 151 94 160 196 142 192 232 232 113 108 40 152 80 62 160 164 12 169 200 56 116 75 145 11 174 197 238 216 217 201 147 18 240 117 252 212 241 223 178 23 63 241 202 39 69 119 174 88 93 118 
